; Generated with MatterSlice 1.0
; filamentDiameter = 1.75
; extrusionWidth = 0.8
; firstLayerExtrusionWidth = 1.04
; layerThickness = 0.2
; firstLayerThickness = 0.26
; automatic settings before start_gcode
G21 ; set units to millimeters
M107 ; fan off
M190 S83 ; wait for bed temperature to be reached
M104 T0 S235 ; start heating extruder 0
M109 T0 S235 ; wait for extruder 0
T0 ; set the active extruder to 0
; settings from start_gcode
G28 ; home all axes
G1 Z5 F5000 ; lift nozzle
; automatic settings after start_gcode
T0 ; set the active extruder to 0
G90 ; use absolute coordinates
G92 E0 ; reset the expected extruder position
M82 ; use absolute distance for extrusion
; Layer count: 325
; LAYER:0
M107
G0 F6000 X39.56 Y73.774 Z0.26
; TYPE:SKIRT
G1 Z0.26
G1 F3600 E0
G1 F1200 X15.44 Y73.774 E2.71155
G1 X15.44 Y45.734 E5.86379
G1 X-39.558 Y45.734 E12.04662
G1 X-39.558 Y25.124 E14.36358
G1 X18.44 Y25.116 E20.88356
G1 X18.44 Y-25.114 E26.53038
G1 X-39.558 Y-25.114 E33.05047
G1 X-39.558 Y-45.734 E35.36867
G1 X15.44 Y-45.734 E41.55139
G1 X15.44 Y-73.774 E44.70374
G1 X39.56 Y-73.774 E47.41529
G1 X39.56 Y73.774 E64.00242
G0 F6000 X38.52 Y72.734
G1 F1200 X16.48 Y72.734 E66.48014
G1 X16.48 Y44.694 E69.63238
G1 X-38.518 Y44.694 E75.81521
G1 X-38.518 Y26.163 E77.89845
G1 X19.48 Y26.155 E84.41843
G1 X19.48 Y-26.154 E90.29897
G1 X-38.518 Y-26.154 E96.81906
G1 X-38.518 Y-44.694 E98.90343
G1 X16.48 Y-44.694 E105.08615
G1 X16.48 Y-72.734 E108.2385
G1 X38.52 Y-72.734 E110.71622
G1 X38.52 Y72.734 E127.06951
G1 F3600 E118.66951
G1 Z0.66
G0 F6000 X34.48 Y68.694
; TYPE:WALL-OUTER
G1 Z0.26
G1 F3600 E127.36951
G1 F1200 X20.52 Y68.694 E128.93888
G1 X20.52 Y40.654 E132.09112
G1 X-34.478 Y40.654 E138.27395
G1 X-34.478 Y30.203 E139.44885
G1 X23.52 Y30.195 E145.96883
G1 X23.52 Y-30.194 E152.75771
G1 X-34.478 Y-30.194 E159.2778
G1 X-34.478 Y-40.654 E160.45382
G1 X20.52 Y-40.654 E166.63654
G1 X20.52 Y-68.694 E169.78889
G1 X34.48 Y-68.694 E171.35827
G1 X34.48 Y67.758 E186.69799
G0 F6000 X33.44 Y67.654
; TYPE:WALL-INNER
G1 F1200 X21.56 Y67.654 E188.03353
G1 X21.56 Y39.614 E191.18576
G1 X-33.438 Y39.614 E197.3686
G1 X-33.438 Y31.243 E198.30966
G1 X24.56 Y31.235 E204.82964
G1 X24.56 Y-31.234 E211.85236
G1 X-33.438 Y-31.234 E218.37245
G1 X-33.438 Y-39.614 E219.31463
G1 X21.56 Y-39.614 E225.49736
G1 X21.56 Y-67.654 E228.6497
G1 X33.44 Y-67.654 E229.98524
G1 X33.44 Y66.718 E245.09113
G0 F6000 X32.4 Y66.614
G1 F1200 X22.6 Y66.614 E246.19284
G1 X22.6 Y38.574 E249.34508
G1 X-32.398 Y38.574 E255.52791
G1 X-32.398 Y32.283 E256.23514
G1 X25.6 Y32.275 E262.75512
G1 X25.6 Y-32.274 E270.01167
G1 X-32.398 Y-32.274 E276.53176
G1 X-32.398 Y-38.574 E277.24012
G1 X22.6 Y-38.574 E283.42284
G1 X22.6 Y-66.614 E286.57519
G1 X32.4 Y-66.614 E287.6769
G1 X32.4 Y65.678 E302.54895
G0 F6000 X31.98 Y65.808
; TYPE:FILL
G1 F1200 X23.019 Y56.847 E303.97361
G0 F6000 X23.019 Y55.377
G1 F1200 X31.98 Y64.337 E305.3982
G0 F6000 X31.98 Y62.866
G1 F1200 X23.019 Y53.906 E306.82278
G0 F6000 X23.019 Y52.435
G1 F1200 X31.98 Y61.395 E308.24737
G0 F6000 X31.98 Y59.925
G1 F1200 X23.019 Y50.964 E309.67203
G0 F6000 X23.019 Y49.493
G1 F1200 X31.98 Y58.454 E311.09669
G0 F6000 X31.98 Y56.983
G1 F1200 X23.019 Y48.023 E312.52128
G0 F6000 X23.019 Y46.552
G1 F1200 X31.98 Y55.512 E313.94586
G0 F6000 X31.98 Y54.042
G1 F1200 X23.019 Y45.081 E315.37052
G0 F6000 X23.019 Y43.61
G1 F1200 X31.98 Y52.571 E316.79519
G0 F6000 X31.98 Y51.1
G1 F1200 X23.019 Y42.14 E318.21977
G0 F6000 X23.019 Y40.669
G1 F1200 X31.98 Y49.629 E319.64435
G0 F6000 X31.98 Y48.158
G1 F1200 X23.019 Y39.198 E321.06894
G0 F6000 X21.974 Y38.153
G1 F1200 X16.516 Y32.695 E321.93668
G0 F6000 X15.045 Y32.695
G1 F1200 X20.503 Y38.153 E322.80442
G0 F6000 X19.033 Y38.153
G1 F1200 X13.575 Y32.695 E323.67215
G0 F6000 X12.104 Y32.695
G1 F1200 X17.562 Y38.153 E324.53989
G0 F6000 X16.091 Y38.153
G1 F1200 X10.634 Y32.695 E325.40755
G0 F6000 X9.163 Y32.695
G1 F1200 X14.62 Y38.153 E326.27521
G0 F6000 X13.15 Y38.153
G1 F1200 X7.693 Y32.696 E327.14279
G0 F6000 X6.222 Y32.696
G1 F1200 X11.679 Y38.153 E328.01037
G0 F6000 X10.208 Y38.153
G1 F1200 X4.751 Y32.696 E328.87795
G0 F6000 X3.281 Y32.697
G1 F1200 X8.737 Y38.153 E329.74538
G0 F6000 X7.266 Y38.153
G1 F1200 X1.81 Y32.697 E330.6128
G0 F6000 X0.34 Y32.697
G1 F1200 X5.796 Y38.153 E331.48022
G0 F6000 X4.325 Y38.153
G1 F1200 X-1.129 Y32.698 E332.3474
G0 F6000 X-2.6 Y32.698
G1 F1200 X2.854 Y38.153 E333.2145
G0 F6000 X1.383 Y38.153
G1 F1200 X-4.071 Y32.698 E334.08169
G0 F6000 X-5.541 Y32.698
G1 F1200 X-0.086 Y38.153 E334.94887
G0 F6000 X-1.557 Y38.153
G1 F1200 X-7.012 Y32.698 E335.81621
G0 F6000 X-8.483 Y32.698
G1 F1200 X-3.028 Y38.153 E336.68339
G0 F6000 X-4.499 Y38.153
G1 F1200 X-9.953 Y32.698 E337.55066
G0 F6000 X-11.424 Y32.699
G1 F1200 X-5.97 Y38.153 E338.41768
G0 F6000 X-7.44 Y38.153
G1 F1200 X-12.894 Y32.699 E339.28486
G0 F6000 X-14.365 Y32.699
G1 F1200 X-8.911 Y38.153 E340.15189
G0 F6000 X-10.382 Y38.153
G1 F1200 X-15.835 Y32.7 E341.01891
G0 F6000 X-17.306 Y32.7
G1 F1200 X-11.853 Y38.153 E341.88578
G0 F6000 X-13.324 Y38.153
G1 F1200 X-18.777 Y32.7 E342.7528
G0 F6000 X-20.247 Y32.7
G1 F1200 X-14.794 Y38.153 E343.61966
G0 F6000 X-16.265 Y38.153
G1 F1200 X-21.718 Y32.7 E344.48669
G0 F6000 X-23.188 Y32.7
G1 F1200 X-17.736 Y38.153 E345.35347
G0 F6000 X-19.207 Y38.153
G1 F1200 X-24.659 Y32.7 E346.22042
G0 F6000 X-26.129 Y32.701
G1 F1200 X-20.677 Y38.153 E347.08712
G0 F6000 X-22.148 Y38.153
G1 F1200 X-27.6 Y32.701 E347.95399
G0 F6000 X-29.071 Y32.701
G1 F1200 X-23.619 Y38.153 E348.82069
G0 F6000 X-25.09 Y38.153
G1 F1200 X-30.541 Y32.702 E349.6874
G0 F6000 X-31.978 Y32.736
G1 F1200 X-26.561 Y38.153 E350.54854
G0 F6000 X-28.031 Y38.153
G1 F1200 X-31.978 Y34.206 E351.17613
G0 F6000 X-31.977 Y35.678
G1 F1200 X-29.502 Y38.153 E351.56954
G0 F6000 X-30.973 Y38.153
G1 F1200 X-31.977 Y37.149 E351.72924
G1 F3600 E343.32924
G1 Z0.66
G0 F6000 X-33.858 Y37.149
G0 X17.987 Y32.695
G0 X17.987 Y32.695
G1 Z0.26
G1 F3600 E352.02924
G1 F1200 X31.98 Y46.688 E354.25392
G0 F6000 X31.98 Y45.217
G1 F1200 X19.457 Y32.694 E356.24488
G0 F6000 X20.928 Y32.694
G1 F1200 X31.98 Y43.746 E358.00198
G0 F6000 X31.98 Y42.275
G1 F1200 X22.399 Y32.694 E359.52522
G0 F6000 X23.869 Y32.693
G1 F1200 X31.98 Y40.805 E360.81482
G0 F6000 X31.98 Y39.334
G1 F1200 X25.339 Y32.693 E361.87064
G0 F6000 X26.02 Y31.903
G1 F1200 X31.98 Y37.863 E362.81819
G0 F6000 X31.98 Y36.392
G1 F1200 X26.02 Y30.432 E363.76574
G0 F6000 X26.02 Y28.961
G1 F1200 X31.98 Y34.921 E364.71329
G0 F6000 X31.98 Y33.451
G1 F1200 X26.02 Y27.49 E365.66092
G0 F6000 X26.02 Y26.02
G1 F1200 X31.98 Y31.98 E366.60847
G0 F6000 X31.98 Y30.509
G1 F1200 X26.02 Y24.549 E367.55602
G0 F6000 X26.02 Y23.078
G1 F1200 X31.98 Y29.038 E368.50357
G0 F6000 X31.98 Y27.567
G1 F1200 X26.02 Y21.607 E369.45112
G0 F6000 X26.02 Y20.136
G1 F1200 X31.98 Y26.097 E370.39875
G0 F6000 X31.98 Y24.626
G1 F1200 X26.02 Y18.666 E371.3463
G0 F6000 X26.02 Y17.195
G1 F1200 X31.98 Y23.155 E372.29385
G0 F6000 X31.98 Y21.684
G1 F1200 X26.02 Y15.724 E373.2414
G0 F6000 X26.02 Y14.253
G1 F1200 X31.98 Y20.214 E374.18903
G0 F6000 X31.98 Y18.743
G1 F1200 X26.02 Y12.783 E375.13658
G0 F6000 X26.02 Y11.312
G1 F1200 X31.98 Y17.272 E376.08412
G0 F6000 X31.98 Y15.801
G1 F1200 X26.02 Y9.841 E377.03167
G0 F6000 X26.02 Y8.37
G1 F1200 X31.98 Y14.33 E377.97922
G0 F6000 X31.98 Y12.86
G1 F1200 X26.02 Y6.899 E378.92685
G0 F6000 X26.02 Y5.429
G1 F1200 X31.98 Y11.389 E379.8744
G0 F6000 X31.98 Y9.918
G1 F1200 X26.02 Y3.958 E380.82195
G0 F6000 X26.02 Y2.487
G1 F1200 X31.98 Y8.447 E381.7695
G0 F6000 X31.98 Y6.977
G1 F1200 X26.02 Y1.016 E382.71713
G0 F6000 X26.02 Y-0.453
G1 F1200 X31.98 Y5.506 E383.66452
G0 F6000 X31.98 Y4.035
G1 F1200 X26.02 Y-1.924 E384.61199
G0 F6000 X26.02 Y-3.395
G1 F1200 X31.98 Y2.564 E385.55938
G0 F6000 X31.98 Y1.093
G1 F1200 X26.02 Y-4.866 E386.50685
G0 F6000 X26.02 Y-6.337
G1 F1200 X31.98 Y-0.376 E387.4544
G0 F6000 X31.98 Y-1.847
G1 F1200 X26.02 Y-7.807 E388.40203
G0 F6000 X26.02 Y-9.278
G1 F1200 X31.98 Y-3.318 E389.3495
G0 F6000 X31.98 Y-4.789
G1 F1200 X26.02 Y-10.749 E390.29713
G0 F6000 X26.02 Y-12.22
G1 F1200 X31.98 Y-6.26 E391.2446
G0 F6000 X31.98 Y-7.73
G1 F1200 X26.02 Y-13.691 E392.19231
G0 F6000 X26.02 Y-15.161
G1 F1200 X31.98 Y-9.201 E393.13978
G0 F6000 X31.98 Y-10.672
G1 F1200 X26.02 Y-16.632 E394.08741
G0 F6000 X26.02 Y-18.103
G1 F1200 X31.98 Y-12.143 E395.03488
G0 F6000 X31.98 Y-13.613
G1 F1200 X26.02 Y-19.574 E395.98259
G0 F6000 X26.02 Y-21.044
G1 F1200 X31.98 Y-15.084 E396.93006
G0 F6000 X31.98 Y-16.555
G1 F1200 X26.02 Y-22.515 E397.87769
G0 F6000 X26.02 Y-23.986
G1 F1200 X31.98 Y-18.026 E398.82516
G0 F6000 X31.98 Y-19.497
G1 F1200 X26.02 Y-25.457 E399.77279
G0 F6000 X26.02 Y-26.928
G1 F1200 X31.98 Y-20.967 E400.72034
G0 F6000 X31.98 Y-22.438
G1 F1200 X26.02 Y-28.398 E401.66796
G0 F6000 X26.02 Y-29.869
G1 F1200 X31.98 Y-23.909 E402.61544
G0 F6000 X31.98 Y-25.38
G1 F1200 X26.02 Y-31.34 E403.56306
G0 F6000 X24.666 Y-32.693
G1 F1200 X19.207 Y-38.153 E404.43112
G0 F6000 X20.677 Y-38.153
G1 F1200 X31.98 Y-26.85 E406.22805
G0 F6000 X31.98 Y-28.321
G1 F1200 X22.148 Y-38.153 E407.79127
G0 F6000 X23.019 Y-38.752
G1 F1200 X31.98 Y-29.792 E409.21577
G0 F6000 X31.98 Y-31.263
G1 F1200 X23.019 Y-40.223 E410.64043
G0 F6000 X23.019 Y-41.694
G1 F1200 X31.98 Y-32.734 E412.06494
G0 F6000 X31.98 Y-34.204
G1 F1200 X23.019 Y-43.165 E413.48968
G0 F6000 X23.019 Y-44.636
G1 F1200 X31.98 Y-35.675 E414.91426
G0 F6000 X31.98 Y-37.146
G1 F1200 X23.019 Y-46.106 E416.33893
G0 F6000 X23.019 Y-47.577
G1 F1200 X31.98 Y-38.617 E417.76343
G0 F6000 X31.98 Y-40.088
G1 F1200 X23.019 Y-49.048 E419.18809
G0 F6000 X23.019 Y-50.519
G1 F1200 X31.98 Y-41.558 E420.61268
G0 F6000 X31.98 Y-43.029
G1 F1200 X23.019 Y-51.99 E422.03742
G0 F6000 X23.019 Y-53.46
G1 F1200 X31.98 Y-44.5 E423.46192
G0 F6000 X31.98 Y-45.971
G1 F1200 X23.019 Y-54.931 E424.88659
G0 F6000 X23.019 Y-56.402
G1 F1200 X31.98 Y-47.441 E426.31117
G0 F6000 X31.98 Y-48.912
G1 F1200 X23.019 Y-57.873 E427.73591
G0 F6000 X23.019 Y-59.343
G1 F1200 X31.98 Y-50.383 E429.16042
G0 F6000 X31.98 Y-51.854
G1 F1200 X23.019 Y-60.814 E430.58508
G0 F6000 X23.019 Y-62.285
G1 F1200 X31.98 Y-53.325 E432.00959
G0 F6000 X31.98 Y-54.795
G1 F1200 X23.019 Y-63.756 E433.43433
G0 F6000 X23.019 Y-65.227
G1 F1200 X31.98 Y-56.266 E434.85891
G0 F6000 X31.98 Y-57.737
G1 F1200 X23.524 Y-66.192 E436.20329
G0 F6000 X24.995 Y-66.192
G1 F1200 X31.98 Y-59.208 E437.31364
G0 F6000 X31.98 Y-60.678
G1 F1200 X26.466 Y-66.192 E438.19036
G0 F6000 X27.937 Y-66.192
G1 F1200 X31.98 Y-62.149 E438.83306
G0 F6000 X31.98 Y-63.62
G1 F1200 X29.407 Y-66.192 E439.24212
G0 F6000 X30.878 Y-66.192
G1 F1200 X31.98 Y-65.091 E439.41717
G1 F3600 E431.01717
G1 Z0.66
G0 F6000 X33.86 Y-65.091
G0 X21.142 Y-43.842
G0 X21.181 Y-39.993
G0 X17.736 Y-38.153
G0 X17.736 Y-38.153
G1 Z0.26
G1 F3600 E439.71717
G1 F1200 X23.195 Y-32.693 E440.58506
G0 F6000 X21.725 Y-32.693
G1 F1200 X16.265 Y-38.153 E441.4532
G0 F6000 X14.794 Y-38.153
G1 F1200 X20.254 Y-32.693 E442.32118
G0 F6000 X18.783 Y-32.693
G1 F1200 X13.324 Y-38.153 E443.18924
G0 F6000 X11.853 Y-38.153
G1 F1200 X17.312 Y-32.693 E444.05713
G0 F6000 X15.842 Y-32.693
G1 F1200 X10.382 Y-38.153 E444.92527
G0 F6000 X8.911 Y-38.153
G1 F1200 X14.371 Y-32.693 E445.79325
G0 F6000 X12.9 Y-32.693
G1 F1200 X7.44 Y-38.153 E446.66139
G0 F6000 X5.97 Y-38.153
G1 F1200 X11.429 Y-32.693 E447.52928
G0 F6000 X9.958 Y-32.693
G1 F1200 X4.499 Y-38.153 E448.39734
G0 F6000 X3.028 Y-38.153
G1 F1200 X8.488 Y-32.693 E449.26532
G0 F6000 X7.017 Y-32.693
G1 F1200 X1.557 Y-38.153 E450.13346
G0 F6000 X0.086 Y-38.153
G1 F1200 X5.546 Y-32.693 E451.00143
G0 F6000 X4.075 Y-32.693
G1 F1200 X-1.383 Y-38.153 E451.86941
G0 F6000 X-2.854 Y-38.153
G1 F1200 X2.604 Y-32.693 E452.73715
G0 F6000 X1.134 Y-32.693
G1 F1200 X-4.325 Y-38.153 E453.60521
G0 F6000 X-5.796 Y-38.153
G1 F1200 X-0.336 Y-32.693 E454.47311
G0 F6000 X-1.807 Y-32.693
G1 F1200 X-7.266 Y-38.153 E455.34124
G0 F6000 X-8.737 Y-38.153
G1 F1200 X-3.278 Y-32.693 E456.20906
G0 F6000 X-4.748 Y-32.693
G1 F1200 X-10.208 Y-38.153 E457.07728
G0 F6000 X-11.679 Y-38.153
G1 F1200 X-6.219 Y-32.693 E457.94518
G0 F6000 X-7.69 Y-32.693
G1 F1200 X-13.15 Y-38.153 E458.81339
G0 F6000 X-14.62 Y-38.153
G1 F1200 X-9.161 Y-32.693 E459.68121
G0 F6000 X-10.632 Y-32.693
G1 F1200 X-16.091 Y-38.153 E460.54935
G0 F6000 X-17.562 Y-38.153
G1 F1200 X-12.102 Y-32.693 E461.41724
G0 F6000 X-13.573 Y-32.693
G1 F1200 X-19.033 Y-38.153 E462.28546
G0 F6000 X-20.503 Y-38.153
G1 F1200 X-15.044 Y-32.693 E463.15328
G0 F6000 X-16.515 Y-32.693
G1 F1200 X-21.974 Y-38.153 E464.02142
G0 F6000 X-23.445 Y-38.153
G1 F1200 X-17.985 Y-32.693 E464.88931
G0 F6000 X-19.456 Y-32.693
G1 F1200 X-24.916 Y-38.153 E465.75753
G0 F6000 X-26.387 Y-38.153
G1 F1200 X-20.927 Y-32.693 E466.62543
G0 F6000 X-22.398 Y-32.693
G1 F1200 X-27.857 Y-38.153 E467.49357
G0 F6000 X-29.328 Y-38.153
G1 F1200 X-23.869 Y-32.693 E468.36138
G0 F6000 X-25.339 Y-32.693
G1 F1200 X-30.799 Y-38.153 E469.2296
G0 F6000 X-31.977 Y-37.86
G1 F1200 X-26.81 Y-32.693 E470.05092
G0 F6000 X-28.281 Y-32.693
G1 F1200 X-31.977 Y-36.389 E470.63868
G0 F6000 X-31.978 Y-34.919
G1 F1200 X-29.752 Y-32.693 E470.99242
G0 F6000 X-31.223 Y-32.693
G1 F1200 X-31.978 Y-33.448 E471.11262
G1 F3600 E462.71262
G1 Z0.66
G0 F6000 X-33.858 Y-33.448
G0 X-32.267 Y-30.882
G0 X24.181 Y-30.855
G0 X24.181 Y30.856
G0 X23.019 Y58.318
G0 X23.019 Y58.318
G1 Z0.26
G1 F3600 E471.41262
G1 F1200 X30.894 Y66.192 E472.66454
G0 F6000 X29.423 Y66.192
G1 F1200 X23.019 Y59.789 E473.6826
G0 F6000 X23.019 Y61.26
G1 F1200 X27.952 Y66.192 E474.4668
G0 F6000 X26.481 Y66.192
G1 F1200 X23.019 Y62.73 E475.0172
G0 F6000 X23.019 Y64.201
G1 F1200 X25.011 Y66.192 E475.33382
G0 F6000 X23.54 Y66.192
G1 F1200 X23.019 Y65.672 E475.41657
; LAYER:1
M106 S89
G0 F6000 X21.2 Y68.014 Z0.46
; TYPE:WALL-INNER
G1 F3000 X21.2 Y39.974 E477.2818
G1 X-33.798 Y39.974 E480.94028
G1 X-33.798 Y30.875 E481.54555
G1 X24.2 Y30.875 E485.40353
G1 X24.2 Y-30.874 E489.51109
G1 X-33.798 Y-30.874 E493.36913
G1 X-33.798 Y-39.974 E493.97453
G1 X21.2 Y-39.974 E497.63294
G1 X21.2 Y-68.014 E499.49824
G1 X33.8 Y-68.014 E500.33639
G1 X33.8 Y68.014 E509.38495
G1 X21.92 Y68.014 E510.17521
G0 F6000 X22 Y67.214
G1 F3000 X22 Y39.174 E512.04044
G1 X-32.998 Y39.174 E515.69892
G1 X-32.998 Y31.675 E516.19775
G1 X25 Y31.675 E520.05573
G1 X25 Y-31.674 E524.26972
G1 X-32.998 Y-31.674 E528.12777
G1 X-32.998 Y-39.174 E528.62673
G1 X22 Y-39.174 E532.28515
G1 X22 Y-67.214 E534.15044
G1 X33 Y-67.214 E534.88217
G1 X33 Y67.214 E543.82429
G1 X22.72 Y67.214 E544.50812
G0 F6000 X20.9 Y68.404
G0 X20.9 Y68.404
G0 X20.4 Y68.814
; TYPE:WALL-OUTER
G1 F2100 X20.4 Y40.774 E546.37334
G1 X-34.598 Y40.774 E550.03183
G1 X-34.598 Y30.075 E550.74353
G1 X23.4 Y30.075 E554.6015
G1 X23.4 Y-30.074 E558.60263
G1 X-34.598 Y-30.074 E562.46067
G1 X-34.598 Y-40.774 E563.17251
G1 X20.4 Y-40.774 E566.83092
G1 X20.4 Y-68.814 E568.69622
G1 X34.6 Y-68.814 E569.6408
G1 X34.6 Y68.814 E578.79579
G1 X21.12 Y68.814 E579.69248
G0 F6000 X20.9 Y68.404
G0 X22.465 Y66.912
G0 X22.465 Y66.912
; TYPE:FILL
G1 F3000 X32.7 Y56.678 E580.65528
G0 F6000 X32.7 Y57.809
G1 F3000 X23.596 Y66.912 E581.51168
G0 F6000 X24.728 Y66.912
G1 F3000 X32.7 Y58.94 E582.26164
G0 F6000 X32.7 Y60.072
G1 F3000 X25.859 Y66.912 E582.90515
G0 F6000 X26.99 Y66.912
G1 F3000 X32.7 Y61.203 E583.44227
G0 F6000 X32.7 Y62.334
G1 F3000 X28.122 Y66.912 E583.87294
G0 F6000 X29.253 Y66.912
G1 F3000 X32.7 Y63.466 E584.19716
G0 F6000 X32.7 Y64.597
G1 F3000 X30.385 Y66.912 E584.41494
G0 F6000 X31.516 Y66.912
G1 F3000 X32.7 Y65.729 E584.52628
G0 F6000 X32.7 Y66.86
G1 F3000 X32.647 Y66.912 E584.53122
G0 F6000 X22.3 Y65.946
G1 F3000 X32.7 Y55.546 E585.50959
G0 F6000 X32.7 Y54.415
G1 F3000 X22.3 Y64.815 E586.48796
G0 F6000 X22.3 Y63.684
G1 F3000 X32.7 Y53.284 E587.46632
G0 F6000 X32.7 Y52.152
G1 F3000 X22.3 Y62.552 E588.44469
G0 F6000 X22.3 Y61.421
G1 F3000 X32.7 Y51.021 E589.42306
G0 F6000 X32.7 Y49.889
G1 F3000 X22.3 Y60.29 E590.40148
G0 F6000 X22.3 Y59.158
G1 F3000 X32.7 Y48.758 E591.37984
G0 F6000 X32.7 Y47.627
G1 F3000 X22.3 Y58.027 E592.35821
G0 F6000 X22.3 Y56.895
G1 F3000 X32.7 Y46.495 E593.33658
G0 F6000 X32.7 Y45.364
G1 F3000 X22.3 Y55.764 E594.31495
G0 F6000 X22.3 Y54.633
G1 F3000 X32.7 Y44.233 E595.29332
G0 F6000 X32.7 Y43.101
G1 F3000 X22.3 Y53.501 E596.27168
G0 F6000 X22.3 Y52.37
G1 F3000 X32.7 Y41.97 E597.25005
G0 F6000 X32.7 Y40.838
G1 F3000 X22.3 Y51.239 E598.22847
G0 F6000 X22.3 Y50.107
G1 F3000 X32.7 Y39.707 E599.20684
G0 F6000 X32.7 Y38.576
G1 F3000 X22.3 Y48.976 E600.1852
G0 F6000 X22.3 Y47.844
G1 F3000 X32.7 Y37.444 E601.16357
G0 F6000 X32.7 Y36.313
G1 F3000 X22.3 Y46.713 E602.14194
G0 F6000 X22.3 Y45.582
G1 F3000 X32.7 Y35.182 E603.12031
G0 F6000 X32.7 Y34.05
G1 F3000 X22.3 Y44.45 E604.09868
G0 F6000 X22.3 Y43.319
G1 F3000 X32.7 Y32.919 E605.07705
G0 F6000 X32.7 Y31.787
G1 F3000 X22.3 Y42.188 E606.05546
G0 F6000 X22.3 Y41.056
G1 F3000 X32.7 Y30.656 E607.03383
G0 F6000 X32.7 Y29.525
G1 F3000 X22.3 Y39.925 E608.0122
G0 F6000 X22.22 Y38.873
G1 F3000 X32.7 Y28.393 E608.99809
G0 F6000 X32.7 Y27.262
G1 F3000 X21.089 Y38.873 E610.09038
G0 F6000 X19.958 Y38.873
G1 F3000 X32.7 Y26.131 E611.28907
G0 F6000 X32.7 Y24.999
G1 F3000 X18.826 Y38.873 E612.59425
G0 F6000 X17.695 Y38.873
G1 F3000 X24.594 Y31.973 E613.24332
G0 F6000 X25.3 Y31.268
G1 F3000 X32.7 Y23.868 E613.93946
G0 F6000 X32.7 Y22.737
G1 F3000 X25.3 Y30.136 E614.63556
G0 F6000 X25.3 Y29.005
G1 F3000 X32.7 Y21.605 E615.33171
G0 F6000 X32.7 Y20.474
G1 F3000 X25.3 Y27.874 E616.02786
G0 F6000 X25.3 Y26.742
G1 F3000 X32.7 Y19.342 E616.724
G0 F6000 X32.7 Y18.211
G1 F3000 X25.3 Y25.611 E617.42015
G0 F6000 X25.3 Y24.48
G1 F3000 X32.7 Y17.08 E618.1163
G0 F6000 X32.7 Y15.948
G1 F3000 X25.3 Y23.348 E618.81244
G0 F6000 X25.3 Y22.217
G1 F3000 X32.7 Y14.817 E619.50859
G0 F6000 X32.7 Y13.686
G1 F3000 X25.3 Y21.085 E620.20469
G0 F6000 X25.3 Y19.954
G1 F3000 X32.7 Y12.554 E620.90084
G0 F6000 X32.7 Y11.423
G1 F3000 X25.3 Y18.823 E621.59698
G0 F6000 X25.3 Y17.691
G1 F3000 X32.7 Y10.291 E622.29313
G0 F6000 X32.7 Y9.16
G1 F3000 X25.3 Y16.56 E622.98928
G0 F6000 X25.3 Y15.429
G1 F3000 X32.7 Y8.029 E623.68542
G0 F6000 X32.7 Y6.897
G1 F3000 X25.3 Y14.297 E624.38157
G0 F6000 X25.3 Y13.166
G1 F3000 X32.7 Y5.766 E625.07771
G0 F6000 X32.7 Y4.635
G1 F3000 X25.3 Y12.034 E625.77381
G0 F6000 X25.3 Y10.903
G1 F3000 X32.7 Y3.503 E626.46996
G0 F6000 X32.7 Y2.372
G1 F3000 X25.3 Y9.772 E627.16611
G0 F6000 X25.3 Y8.64
G1 F3000 X32.7 Y1.24 E627.86225
G0 F6000 X32.7 Y0.109
G1 F3000 X25.3 Y7.509 E628.5584
G0 F6000 X25.3 Y6.378
G1 F3000 X32.7 Y-1.021 E629.2545
G0 F6000 X32.7 Y-2.153
G1 F3000 X25.3 Y5.246 E629.95055
G0 F6000 X25.3 Y4.115
G1 F3000 X32.7 Y-3.284 E630.64665
G0 F6000 X32.7 Y-4.415
G1 F3000 X25.3 Y2.983 E631.34266
G0 F6000 X25.3 Y1.852
G1 F3000 X32.7 Y-5.547 E632.03876
G0 F6000 X32.7 Y-6.678
G1 F3000 X25.3 Y0.721 E632.73481
G0 F6000 X25.299 Y-0.409
G1 F3000 X32.7 Y-7.809 E633.43105
G0 F6000 X32.7 Y-8.941
G1 F3000 X25.299 Y-1.54 E634.12724
G0 F6000 X25.299 Y-2.672
G1 F3000 X32.7 Y-10.072 E634.82349
G0 F6000 X32.7 Y-11.204
G1 F3000 X25.299 Y-3.803 E635.51968
G0 F6000 X25.299 Y-4.934
G1 F3000 X32.7 Y-12.335 E636.21597
G0 F6000 X32.7 Y-13.466
G1 F3000 X25.299 Y-6.066 E636.91211
G0 F6000 X25.299 Y-7.197
G1 F3000 X32.7 Y-14.598 E637.6084
G0 F6000 X32.7 Y-15.729
G1 F3000 X25.299 Y-8.329 E638.30455
G0 F6000 X25.299 Y-9.46
G1 F3000 X32.7 Y-16.86 E639.00079
G0 F6000 X32.7 Y-17.992
G1 F3000 X25.299 Y-10.591 E639.69698
G0 F6000 X25.299 Y-11.723
G1 F3000 X32.7 Y-19.123 E640.39322
G0 F6000 X32.7 Y-20.255
G1 F3000 X25.299 Y-12.854 E641.08942
G0 F6000 X25.299 Y-13.985
G1 F3000 X32.7 Y-21.386 E641.7857
G0 F6000 X32.7 Y-22.517
G1 F3000 X25.299 Y-15.117 E642.48185
G0 F6000 X25.299 Y-16.248
G1 F3000 X32.7 Y-23.649 E643.17814
G0 F6000 X32.7 Y-24.78
G1 F3000 X25.299 Y-17.379 E643.87433
G0 F6000 X25.299 Y-18.511
G1 F3000 X32.7 Y-25.911 E644.57057
G0 F6000 X32.7 Y-27.043
G1 F3000 X25.299 Y-19.642 E645.26677
G0 F6000 X25.299 Y-20.774
G1 F3000 X32.7 Y-28.174 E645.96301
G0 F6000 X32.7 Y-29.306
G1 F3000 X25.299 Y-21.905 E646.6592
G0 F6000 X25.299 Y-23.036
G1 F3000 X32.7 Y-30.437 E647.35549
G0 F6000 X32.7 Y-31.568
G1 F3000 X25.299 Y-24.168 E648.05164
G0 F6000 X25.299 Y-25.299
G1 F3000 X32.7 Y-32.7 E648.74792
G0 F6000 X32.7 Y-33.831
G1 F3000 X25.299 Y-26.43 E649.44412
G0 F6000 X25.299 Y-27.562
G1 F3000 X32.7 Y-34.962 E650.14036
G0 F6000 X32.7 Y-36.094
G1 F3000 X25.299 Y-28.693 E650.83655
G0 F6000 X25.299 Y-29.825
G1 F3000 X32.7 Y-37.225 E651.53279
G0 F6000 X32.7 Y-38.357
G1 F3000 X25.299 Y-30.956 E652.22899
G0 F6000 X25.185 Y-31.973
G1 F3000 X32.7 Y-39.488 E652.936
G0 F6000 X32.7 Y-40.619
G1 F3000 X24.053 Y-31.973 E653.74936
G0 F6000 X22.922 Y-31.973
G1 F3000 X32.7 Y-41.751 E654.66926
G0 F6000 X32.7 Y-42.882
G1 F3000 X21.79 Y-31.973 E655.69551
G0 F6000 X20.659 Y-31.973
G1 F3000 X32.7 Y-44.013 E656.82826
G0 F6000 X32.7 Y-45.145
G1 F3000 X19.528 Y-31.973 E658.06735
G0 F6000 X18.396 Y-31.973
G1 F3000 X32.7 Y-46.276 E659.41298
G0 F6000 X32.7 Y-47.407
G1 F3000 X17.265 Y-31.973 E660.86492
G0 F6000 X16.134 Y-31.973
G1 F3000 X32.7 Y-48.539 E662.42339
G0 F6000 X32.7 Y-49.67
G1 F3000 X22.3 Y-39.27 E663.40172
G0 F6000 X21.902 Y-38.873
G1 F3000 X15.002 Y-31.973 E664.05078
G0 F6000 X13.871 Y-31.973
G1 F3000 X20.771 Y-38.873 E664.69993
G0 F6000 X19.639 Y-38.873
G1 F3000 X12.739 Y-31.973 E665.349
G0 F6000 X11.608 Y-31.973
G1 F3000 X18.508 Y-38.873 E665.99815
G0 F6000 X17.377 Y-38.873
G1 F3000 X10.477 Y-31.973 E666.64722
G0 F6000 X9.346 Y-31.973
G1 F3000 X16.245 Y-38.873 E667.29633
G0 F6000 X15.114 Y-38.873
G1 F3000 X8.215 Y-31.973 E667.94534
G0 F6000 X7.083 Y-31.973
G1 F3000 X13.983 Y-38.873 E668.5945
G0 F6000 X12.851 Y-38.873
G1 F3000 X5.952 Y-31.973 E669.24351
G0 F6000 X4.821 Y-31.973
G1 F3000 X11.72 Y-38.873 E669.89262
G0 F6000 X10.588 Y-38.873
G1 F3000 X3.689 Y-31.973 E670.54164
G0 F6000 X2.558 Y-31.973
G1 F3000 X9.457 Y-38.873 E671.19075
G0 F6000 X8.326 Y-38.873
G1 F3000 X1.426 Y-31.973 E671.83981
G0 F6000 X0.295 Y-31.973
G1 F3000 X7.194 Y-38.873 E672.48892
G0 F6000 X6.063 Y-38.873
G1 F3000 X-0.835 Y-31.973 E673.13789
G0 F6000 X-1.967 Y-31.973
G1 F3000 X4.932 Y-38.873 E673.78695
G0 F6000 X3.8 Y-38.873
G1 F3000 X-3.098 Y-31.973 E674.43592
G0 F6000 X-4.229 Y-31.973
G1 F3000 X2.669 Y-38.873 E675.08494
G0 F6000 X1.537 Y-38.873
G1 F3000 X-5.361 Y-31.973 E675.73391
G0 F6000 X-6.492 Y-31.973
G1 F3000 X0.406 Y-38.873 E676.38292
G0 F6000 X-0.724 Y-38.873
G1 F3000 X-7.624 Y-31.973 E677.03203
G0 F6000 X-8.755 Y-31.973
G1 F3000 X-1.856 Y-38.873 E677.68109
G0 F6000 X-2.987 Y-38.873
G1 F3000 X-9.886 Y-31.973 E678.33016
G0 F6000 X-11.018 Y-31.973
G1 F3000 X-4.118 Y-38.873 E678.97927
G0 F6000 X-5.249 Y-38.873
G1 F3000 X-12.149 Y-31.973 E679.62838
G0 F6000 X-13.28 Y-31.973
G1 F3000 X-6.38 Y-38.873 E680.27749
G0 F6000 X-7.512 Y-38.873
G1 F3000 X-14.412 Y-31.973 E680.9266
G0 F6000 X-15.543 Y-31.973
G1 F3000 X-8.643 Y-38.873 E681.57571
G0 F6000 X-9.775 Y-38.873
G1 F3000 X-16.674 Y-31.973 E682.22477
G0 F6000 X-17.806 Y-31.973
G1 F3000 X-10.906 Y-38.873 E682.87388
G0 F6000 X-12.037 Y-38.873
G1 F3000 X-18.937 Y-31.974 E683.52294
G0 F6000 X-20.068 Y-31.974
G1 F3000 X-13.169 Y-38.873 E684.17196
G0 F6000 X-14.3 Y-38.873
G1 F3000 X-21.199 Y-31.974 E684.82097
G0 F6000 X-22.331 Y-31.974
G1 F3000 X-15.431 Y-38.873 E685.47003
G0 F6000 X-16.563 Y-38.873
G1 F3000 X-23.462 Y-31.974 E686.11905
G0 F6000 X-24.593 Y-31.974
G1 F3000 X-17.694 Y-38.873 E686.76807
G0 F6000 X-18.826 Y-38.873
G1 F3000 X-25.725 Y-31.974 E687.41708
G0 F6000 X-26.856 Y-31.974
G1 F3000 X-19.957 Y-38.873 E688.0661
G0 F6000 X-21.088 Y-38.873
G1 F3000 X-27.987 Y-31.974 E688.71511
G0 F6000 X-29.119 Y-31.974
G1 F3000 X-22.22 Y-38.873 E689.36413
G0 F6000 X-23.351 Y-38.873
G1 F3000 X-30.25 Y-31.974 E690.01314
G0 F6000 X-31.382 Y-31.974
G1 F3000 X-24.482 Y-38.873 E690.66221
G0 F6000 X-25.614 Y-38.873
G1 F3000 X-32.513 Y-31.974 E691.31122
G0 F6000 X-32.697 Y-32.922
G1 F3000 X-26.745 Y-38.873 E691.8711
G0 F6000 X-27.876 Y-38.873
G1 F3000 X-32.697 Y-34.053 E692.32459
G0 F6000 X-32.697 Y-35.184
G1 F3000 X-29.008 Y-38.873 E692.67162
G0 F6000 X-30.139 Y-38.873
G1 F3000 X-32.698 Y-36.315 E692.91231
G0 F6000 X-32.698 Y-37.446
G1 F3000 X-31.271 Y-38.873 E693.04656
G0 F6000 X-32.402 Y-38.873
G1 F3000 X-32.698 Y-38.578 E693.07435
G1 F3600 E684.67435
G1 Z0.86
G0 F6000 X-34.098 Y-38.578
G0 X22.3 Y-40.401
G0 X22.3 Y-40.401
G1 Z0.46
G1 F3600 E693.37435
G1 F3000 X32.7 Y-50.802 E694.35282
G0 F6000 X32.7 Y-51.933
G1 F3000 X22.3 Y-41.533 E695.33114
G0 F6000 X22.3 Y-42.664
G1 F3000 X32.7 Y-53.064 E696.30955
G0 F6000 X32.7 Y-54.196
G1 F3000 X22.3 Y-43.796 E697.28787
G0 F6000 X22.3 Y-44.927
G1 F3000 X32.7 Y-55.327 E698.26629
G0 F6000 X32.7 Y-56.458
G1 F3000 X22.3 Y-46.058 E699.24461
G0 F6000 X22.3 Y-47.19
G1 F3000 X32.7 Y-57.59 E700.22303
G0 F6000 X32.7 Y-58.721
G1 F3000 X22.3 Y-48.321 E701.20135
G0 F6000 X22.3 Y-49.452
G1 F3000 X32.7 Y-59.853 E702.17981
G0 F6000 X32.7 Y-60.984
G1 F3000 X22.3 Y-50.584 E703.15813
G0 F6000 X22.3 Y-51.715
G1 F3000 X32.7 Y-62.115 E704.13655
G0 F6000 X32.7 Y-63.247
G1 F3000 X22.3 Y-52.847 E705.11487
G0 F6000 X22.3 Y-53.978
G1 F3000 X32.7 Y-64.378 E706.09328
G0 F6000 X32.7 Y-65.509
G1 F3000 X22.3 Y-55.109 E707.0716
G0 F6000 X22.3 Y-56.241
G1 F3000 X32.7 Y-66.641 E708.05002
G0 F6000 X31.84 Y-66.912
G1 F3000 X22.3 Y-57.372 E708.94744
G0 F6000 X22.3 Y-58.503
G1 F3000 X30.708 Y-66.912 E709.7385
G0 F6000 X29.577 Y-66.912
G1 F3000 X22.3 Y-59.635 E710.42303
G0 F6000 X22.3 Y-60.766
G1 F3000 X28.446 Y-66.912 E711.00126
G0 F6000 X27.314 Y-66.912
G1 F3000 X22.3 Y-61.898 E711.4729
G0 F6000 X22.3 Y-63.029
G1 F3000 X26.183 Y-66.912 E711.83823
G0 F6000 X25.052 Y-66.912
G1 F3000 X22.3 Y-64.16 E712.09708
G0 F6000 X22.3 Y-65.292
G1 F3000 X23.92 Y-66.912 E712.24952
G0 F6000 X22.789 Y-66.912
G1 F3000 X22.3 Y-66.423 E712.29548
G1 F3600 E703.89548
G1 Z0.86
G0 F6000 X20.9 Y-66.423
G0 X21.419 Y-30.672
G0 X23.941 Y-30.615
G0 X23.941 Y30.616
G0 X22.331 Y31.973
G0 X22.331 Y31.973
G1 Z0.46
G1 F3600 E712.59548
G1 F3000 X15.432 Y38.873 E713.24454
G0 F6000 X16.563 Y38.873
G1 F3000 X23.463 Y31.973 E713.89365
G0 F6000 X21.2 Y31.973
G1 F3000 X14.301 Y38.873 E714.54271
G0 F6000 X13.169 Y38.873
G1 F3000 X20.069 Y31.973 E715.19182
G0 F6000 X18.937 Y31.973
G1 F3000 X12.038 Y38.873 E715.84089
G0 F6000 X10.907 Y38.873
G1 F3000 X17.806 Y31.973 E716.48995
G0 F6000 X16.674 Y31.973
G1 F3000 X9.775 Y38.873 E717.13901
G0 F6000 X8.644 Y38.873
G1 F3000 X15.543 Y31.973 E717.78807
G0 F6000 X14.412 Y31.973
G1 F3000 X7.513 Y38.873 E718.43714
G0 F6000 X6.381 Y38.873
G1 F3000 X13.28 Y31.973 E719.0862
G0 F6000 X12.149 Y31.973
G1 F3000 X5.25 Y38.873 E719.73526
G0 F6000 X4.118 Y38.873
G1 F3000 X11.018 Y31.973 E720.38437
G0 F6000 X9.886 Y31.973
G1 F3000 X2.987 Y38.873 E721.03343
G0 F6000 X1.856 Y38.873
G1 F3000 X8.755 Y31.973 E721.6825
G0 F6000 X7.624 Y31.973
G1 F3000 X0.724 Y38.873 E722.33161
G0 F6000 X-0.406 Y38.873
G1 F3000 X6.492 Y31.973 E722.98058
G0 F6000 X5.361 Y31.973
G1 F3000 X-1.537 Y38.873 E723.62959
G0 F6000 X-2.669 Y38.873
G1 F3000 X4.229 Y31.973 E724.27856
G0 F6000 X3.098 Y31.973
G1 F3000 X-3.8 Y38.873 E724.92758
G0 F6000 X-4.932 Y38.873
G1 F3000 X1.967 Y31.973 E725.57659
G0 F6000 X0.835 Y31.973
G1 F3000 X-6.064 Y38.873 E726.22565
G0 F6000 X-7.195 Y38.873
G1 F3000 X-0.295 Y31.973 E726.87472
G0 F6000 X-1.426 Y31.973
G1 F3000 X-8.326 Y38.873 E727.52387
G0 F6000 X-9.458 Y38.873
G1 F3000 X-2.558 Y31.973 E728.17294
G0 F6000 X-3.689 Y31.973
G1 F3000 X-10.589 Y38.873 E728.82209
G0 F6000 X-11.721 Y38.873
G1 F3000 X-4.821 Y31.974 E729.47111
G0 F6000 X-5.953 Y31.974
G1 F3000 X-12.852 Y38.873 E730.12017
G0 F6000 X-13.983 Y38.873
G1 F3000 X-7.084 Y31.974 E730.76914
G0 F6000 X-8.215 Y31.974
G1 F3000 X-15.115 Y38.873 E731.41825
G0 F6000 X-16.246 Y38.873
G1 F3000 X-9.347 Y31.974 E732.06722
G0 F6000 X-10.478 Y31.974
G1 F3000 X-17.377 Y38.873 E732.71628
G0 F6000 X-18.509 Y38.873
G1 F3000 X-11.609 Y31.974 E733.3653
G0 F6000 X-12.741 Y31.974
G1 F3000 X-19.64 Y38.873 E734.01436
G0 F6000 X-20.771 Y38.873
G1 F3000 X-13.872 Y31.974 E734.66333
G0 F6000 X-15.004 Y31.974
G1 F3000 X-21.903 Y38.873 E735.31239
G0 F6000 X-23.034 Y38.873
G1 F3000 X-16.135 Y31.974 E735.96136
G0 F6000 X-17.266 Y31.974
G1 F3000 X-24.166 Y38.873 E736.61047
G0 F6000 X-25.297 Y38.873
G1 F3000 X-18.398 Y31.974 E737.25944
G0 F6000 X-19.529 Y31.974
G1 F3000 X-26.428 Y38.873 E737.9085
G0 F6000 X-27.56 Y38.873
G1 F3000 X-20.66 Y31.974 E738.55751
G0 F6000 X-21.792 Y31.974
G1 F3000 X-28.691 Y38.873 E739.20658
G0 F6000 X-29.822 Y38.873
G1 F3000 X-22.923 Y31.974 E739.85555
G0 F6000 X-24.055 Y31.974
G1 F3000 X-30.954 Y38.873 E740.50461
G0 F6000 X-32.085 Y38.873
G1 F3000 X-25.186 Y31.974 E741.15358
G0 F6000 X-26.317 Y31.974
G1 F3000 X-32.698 Y38.354 E741.75386
G0 F6000 X-32.698 Y37.223
G1 F3000 X-27.449 Y31.974 E742.24761
G0 F6000 X-28.58 Y31.974
G1 F3000 X-32.698 Y36.092 E742.63505
G0 F6000 X-32.697 Y34.96
G1 F3000 X-29.711 Y31.974 E742.91591
G0 F6000 X-30.843 Y31.974
G1 F3000 X-32.697 Y33.828 E743.09037
G0 F6000 X-32.697 Y32.697
G1 F3000 X-31.974 Y31.974 E743.15834
; LAYER:2
G0 F6000 X-31.973 Y30.575 Z0.66
G0 X-34.098 Y30.875
G0 X-34.098 Y30.875
G0 X-33.798 Y30.875
; TYPE:WALL-INNER
G1 F3000 X24.2 Y30.875 E747.01631
G1 X24.2 Y-30.874 E751.12387
G1 X-33.798 Y-30.874 E754.98192
G1 X-33.798 Y-39.974 E755.58732
G1 X21.2 Y-39.974 E759.24573
G1 X21.2 Y-68.014 E761.11103
G1 X33.8 Y-68.014 E761.94918
G1 X33.8 Y68.014 E770.99774
G1 X21.2 Y68.014 E771.83589
G1 X21.2 Y39.974 E773.70112
G1 X-33.798 Y39.974 E777.3596
G1 X-33.798 Y31.595 E777.91698
G0 F6000 X-32.998 Y31.675
G1 F3000 X25 Y31.675 E781.77495
G1 X25 Y-31.674 E785.98894
G1 X-32.998 Y-31.674 E789.84699
G1 X-32.998 Y-39.174 E790.34596
G1 X22 Y-39.174 E794.00437
G1 X22 Y-67.214 E795.86967
G1 X33 Y-67.214 E796.60139
G1 X33 Y67.214 E805.54351
G1 X22 Y67.214 E806.27523
G1 X22 Y39.174 E808.14046
G1 X-32.998 Y39.174 E811.79894
G1 X-32.998 Y32.395 E812.24988
G0 F6000 X-34.098 Y31.675
G0 X-34.098 Y30.485
G0 X-34.098 Y30.485
G0 X-34.598 Y30.075
; TYPE:WALL-OUTER
G1 F2100 X23.4 Y30.075 E816.10786
G1 X23.4 Y-30.074 E820.10899
G1 X-34.598 Y-30.074 E823.96703
G1 X-34.598 Y-40.774 E824.67886
G1 X20.4 Y-40.774 E828.33728
G1 X20.4 Y-68.814 E830.20257
G1 X34.6 Y-68.814 E831.14716
G1 X34.6 Y68.814 E840.30215
G1 X20.4 Y68.814 E841.24673
G1 X20.4 Y40.774 E843.11196
G1 X-34.598 Y40.774 E846.77044
G1 X-34.598 Y30.795 E847.43425
G0 F6000 X-34.098 Y30.485
G0 X-32.513 Y30.575
G0 X-32.513 Y30.575
G0 X-32.513 Y31.974
; TYPE:FILL
G1 F3000 X-25.614 Y38.873 E848.08322
G0 F6000 X-26.745 Y38.873
G1 F3000 X-32.697 Y32.922 E848.64315
G0 F6000 X-32.697 Y34.053
G1 F3000 X-27.876 Y38.873 E849.09658
G0 F6000 X-29.008 Y38.873
G1 F3000 X-32.697 Y35.184 E849.44367
G0 F6000 X-32.698 Y36.315
G1 F3000 X-30.139 Y38.873 E849.68431
G0 F6000 X-31.271 Y38.873
G1 F3000 X-32.698 Y37.446 E849.8186
G0 F6000 X-32.698 Y38.578
G1 F3000 X-32.402 Y38.873 E849.84635
G1 F3600 E841.44635
G1 Z1.06
G0 F6000 X-32.402 Y40.274
G0 X-31.382 Y30.575
G0 X-31.382 Y30.575
G0 X-31.382 Y31.974
G1 Z0.66
G1 F3600 E850.14635
G1 F3000 X-24.482 Y38.873 E850.79537
G0 F6000 X-23.351 Y38.873
G1 F3000 X-30.25 Y31.974 E851.44443
G0 F6000 X-29.119 Y31.974
G1 F3000 X-22.22 Y38.873 E852.0934
G0 F6000 X-21.088 Y38.873
G1 F3000 X-27.987 Y31.974 E852.74246
G0 F6000 X-26.856 Y31.974
G1 F3000 X-19.957 Y38.873 E853.39143
G0 F6000 X-18.826 Y38.873
G1 F3000 X-25.725 Y31.974 E854.04049
G0 F6000 X-24.593 Y31.974
G1 F3000 X-17.694 Y38.873 E854.68946
G0 F6000 X-16.563 Y38.873
G1 F3000 X-23.462 Y31.974 E855.33852
G0 F6000 X-22.331 Y31.974
G1 F3000 X-15.431 Y38.873 E855.98754
G0 F6000 X-14.3 Y38.873
G1 F3000 X-21.199 Y31.974 E856.6366
G0 F6000 X-20.068 Y31.974
G1 F3000 X-13.169 Y38.873 E857.28557
G0 F6000 X-12.037 Y38.873
G1 F3000 X-18.937 Y31.974 E857.93468
G0 F6000 X-17.805 Y31.974
G1 F3000 X-10.906 Y38.873 E858.58365
G0 F6000 X-9.775 Y38.873
G1 F3000 X-16.674 Y31.974 E859.23271
G0 F6000 X-15.542 Y31.974
G1 F3000 X-8.643 Y38.873 E859.88168
G0 F6000 X-7.512 Y38.873
G1 F3000 X-14.411 Y31.974 E860.53074
G0 F6000 X-13.28 Y31.974
G1 F3000 X-6.38 Y38.873 E861.17976
G0 F6000 X-5.249 Y38.873
G1 F3000 X-12.148 Y31.974 E861.82882
G0 F6000 X-11.017 Y31.974
G1 F3000 X-4.118 Y38.873 E862.47779
G0 F6000 X-2.987 Y38.873
G1 F3000 X-9.886 Y31.974 E863.12685
G0 F6000 X-8.754 Y31.974
G1 F3000 X-1.856 Y38.873 E863.77577
G0 F6000 X-0.724 Y38.873
G1 F3000 X-7.623 Y31.974 E864.42484
G0 F6000 X-6.491 Y31.974
G1 F3000 X0.406 Y38.873 E865.07371
G0 F6000 X1.537 Y38.873
G1 F3000 X-5.36 Y31.974 E865.72263
G0 F6000 X-4.229 Y31.974
G1 F3000 X2.669 Y38.873 E866.37155
G0 F6000 X3.8 Y38.873
G1 F3000 X-3.098 Y31.973 E867.02057
G0 F6000 X-1.967 Y31.973
G1 F3000 X4.932 Y38.873 E867.66958
G0 F6000 X6.063 Y38.873
G1 F3000 X-0.835 Y31.973 E868.3186
G0 F6000 X0.295 Y31.973
G1 F3000 X7.194 Y38.873 E868.96766
G0 F6000 X8.326 Y38.873
G1 F3000 X1.426 Y31.973 E869.61677
G0 F6000 X2.558 Y31.973
G1 F3000 X9.457 Y38.873 E870.26584
G0 F6000 X10.588 Y38.873
G1 F3000 X3.689 Y31.973 E870.9149
G0 F6000 X4.821 Y31.973
G1 F3000 X11.72 Y38.873 E871.56396
G0 F6000 X12.851 Y38.873
G1 F3000 X5.952 Y31.973 E872.21302
G0 F6000 X7.083 Y31.973
G1 F3000 X13.983 Y38.873 E872.86213
G0 F6000 X15.114 Y38.873
G1 F3000 X8.215 Y31.973 E873.5112
G0 F6000 X9.346 Y31.973
G1 F3000 X16.245 Y38.873 E874.16026
G0 F6000 X17.377 Y38.873
G1 F3000 X10.477 Y31.973 E874.80937
G0 F6000 X11.609 Y31.973
G1 F3000 X18.508 Y38.873 E875.45843
G0 F6000 X19.639 Y38.873
G1 F3000 X12.74 Y31.973 E876.10749
G0 F6000 X13.872 Y31.973
G1 F3000 X20.771 Y38.873 E876.75656
G0 F6000 X21.902 Y38.873
G1 F3000 X15.003 Y31.973 E877.40562
G0 F6000 X16.134 Y31.973
G1 F3000 X32.7 Y48.539 E878.96405
G0 F6000 X32.7 Y49.67
G1 F3000 X22.3 Y39.27 E879.94241
G0 F6000 X22.3 Y40.401
G1 F3000 X32.7 Y50.802 E880.92083
G0 F6000 X32.7 Y51.933
G1 F3000 X22.3 Y41.533 E881.8992
G0 F6000 X22.3 Y42.664
G1 F3000 X32.7 Y53.064 E882.87757
G0 F6000 X32.7 Y54.196
G1 F3000 X22.3 Y43.796 E883.85593
G0 F6000 X22.3 Y44.927
G1 F3000 X32.7 Y55.327 E884.8343
G0 F6000 X32.7 Y56.458
G1 F3000 X22.3 Y46.058 E885.81267
G0 F6000 X22.3 Y47.19
G1 F3000 X32.7 Y57.59 E886.79104
G0 F6000 X32.7 Y58.721
G1 F3000 X22.3 Y48.321 E887.76941
G0 F6000 X22.3 Y49.452
G1 F3000 X32.7 Y59.853 E888.74782
G0 F6000 X32.7 Y60.984
G1 F3000 X22.3 Y50.584 E889.72619
G0 F6000 X22.3 Y51.715
G1 F3000 X32.7 Y62.115 E890.70456
G0 F6000 X32.7 Y63.247
G1 F3000 X22.3 Y52.847 E891.68293
G0 F6000 X22.3 Y53.978
G1 F3000 X32.7 Y64.378 E892.6613
G0 F6000 X32.7 Y65.509
G1 F3000 X22.3 Y55.109 E893.63966
G0 F6000 X22.3 Y56.241
G1 F3000 X32.7 Y66.641 E894.61803
G0 F6000 X31.84 Y66.912
G1 F3000 X22.3 Y57.372 E895.5155
G0 F6000 X22.3 Y58.503
G1 F3000 X30.708 Y66.912 E896.30652
G0 F6000 X29.577 Y66.912
G1 F3000 X22.3 Y59.635 E896.99109
G0 F6000 X22.3 Y60.766
G1 F3000 X28.446 Y66.912 E897.56927
G0 F6000 X27.314 Y66.912
G1 F3000 X22.3 Y61.898 E898.04096
G0 F6000 X22.3 Y63.029
G1 F3000 X26.183 Y66.912 E898.40625
G0 F6000 X25.052 Y66.912
G1 F3000 X22.3 Y64.16 E898.66514
G0 F6000 X22.3 Y65.292
G1 F3000 X23.92 Y66.912 E898.81754
G0 F6000 X22.789 Y66.912
G1 F3000 X22.3 Y66.423 E898.86354
G0 F6000 X32.7 Y47.407
G1 F3000 X17.266 Y31.973 E900.31547
G0 F6000 X18.397 Y31.973
G1 F3000 X32.7 Y46.276 E901.66101
G0 F6000 X32.7 Y45.145
G1 F3000 X19.528 Y31.973 E902.90015
G0 F6000 X20.66 Y31.973
G1 F3000 X32.7 Y44.013 E904.0328
G0 F6000 X32.7 Y42.882
G1 F3000 X21.791 Y31.973 E905.05906
G0 F6000 X22.922 Y31.973
G1 F3000 X32.7 Y41.751 E905.97891
G0 F6000 X32.7 Y40.619
G1 F3000 X24.054 Y31.973 E906.79227
G0 F6000 X25.185 Y31.973
G1 F3000 X32.7 Y39.488 E907.49924
G0 F6000 X32.7 Y38.357
G1 F3000 X25.3 Y30.957 E908.19538
G0 F6000 X25.3 Y29.825
G1 F3000 X32.7 Y37.225 E908.89153
G0 F6000 X32.7 Y36.094
G1 F3000 X25.3 Y28.694 E909.58768
G0 F6000 X25.3 Y27.563
G1 F3000 X32.7 Y34.962 E910.28378
G0 F6000 X32.7 Y33.831
G1 F3000 X25.3 Y26.431 E910.97992
G0 F6000 X25.3 Y25.3
G1 F3000 X32.7 Y32.7 E911.67607
G0 F6000 X32.7 Y31.568
G1 F3000 X25.3 Y24.168 E912.37222
G0 F6000 X25.3 Y23.037
G1 F3000 X32.7 Y30.437 E913.06836
G0 F6000 X32.7 Y29.306
G1 F3000 X25.3 Y21.906 E913.76451
G0 F6000 X25.3 Y20.774
G1 F3000 X32.7 Y28.174 E914.46066
G0 F6000 X32.7 Y27.043
G1 F3000 X25.3 Y19.643 E915.1568
G0 F6000 X25.3 Y18.512
G1 F3000 X32.7 Y25.911 E915.8529
G0 F6000 X32.7 Y24.78
G1 F3000 X25.3 Y17.38 E916.54905
G0 F6000 X25.3 Y16.249
G1 F3000 X32.7 Y23.649 E917.2452
G0 F6000 X32.7 Y22.517
G1 F3000 X25.3 Y15.117 E917.94134
G0 F6000 X25.3 Y13.986
G1 F3000 X32.7 Y21.386 E918.63749
G0 F6000 X32.7 Y20.255
G1 F3000 X25.3 Y12.855 E919.33364
G0 F6000 X25.3 Y11.723
G1 F3000 X32.7 Y19.123 E920.02978
G0 F6000 X32.7 Y17.992
G1 F3000 X25.3 Y10.592 E920.72593
G0 F6000 X25.3 Y9.461
G1 F3000 X32.7 Y16.86 E921.42203
G0 F6000 X32.7 Y15.729
G1 F3000 X25.3 Y8.329 E922.11818
G0 F6000 X25.3 Y7.198
G1 F3000 X32.7 Y14.598 E922.81432
G0 F6000 X32.7 Y13.466
G1 F3000 X25.3 Y6.066 E923.51047
G0 F6000 X25.3 Y4.935
G1 F3000 X32.7 Y12.335 E924.20662
G0 F6000 X32.7 Y11.204
G1 F3000 X25.3 Y3.804 E924.90276
G0 F6000 X25.3 Y2.672
G1 F3000 X32.7 Y10.072 E925.59891
G0 F6000 X32.7 Y8.941
G1 F3000 X25.3 Y1.541 E926.29506
G0 F6000 X25.3 Y0.41
G1 F3000 X32.7 Y7.809 E926.99115
G0 F6000 X32.7 Y6.678
G1 F3000 X25.299 Y-0.721 E927.6873
G0 F6000 X25.299 Y-1.853
G1 F3000 X32.7 Y5.547 E928.38345
G0 F6000 X32.7 Y4.415
G1 F3000 X25.299 Y-2.984 E929.07959
G0 F6000 X25.299 Y-4.116
G1 F3000 X32.7 Y3.284 E929.77574
G0 F6000 X32.7 Y2.153
G1 F3000 X25.299 Y-5.247 E930.47193
G0 F6000 X25.299 Y-6.378
G1 F3000 X32.7 Y1.021 E931.16803
G0 F6000 X32.7 Y-0.109
G1 F3000 X25.299 Y-7.51 E931.86432
G0 F6000 X25.299 Y-8.641
G1 F3000 X32.7 Y-1.24 E932.56052
G0 F6000 X32.7 Y-2.372
G1 F3000 X25.299 Y-9.772 E933.25676
G0 F6000 X25.299 Y-10.904
G1 F3000 X32.7 Y-3.503 E933.95295
G0 F6000 X32.7 Y-4.635
G1 F3000 X25.299 Y-12.035 E934.64919
G0 F6000 X25.299 Y-13.167
G1 F3000 X32.7 Y-5.766 E935.34538
G0 F6000 X32.7 Y-6.897
G1 F3000 X25.299 Y-14.298 E936.04167
G0 F6000 X25.299 Y-15.429
G1 F3000 X32.7 Y-8.029 E936.73782
G0 F6000 X32.7 Y-9.16
G1 F3000 X25.299 Y-16.561 E937.43411
G0 F6000 X25.299 Y-17.692
G1 F3000 X32.7 Y-10.291 E938.1303
G0 F6000 X32.7 Y-11.423
G1 F3000 X25.299 Y-18.823 E938.82654
G0 F6000 X25.299 Y-19.955
G1 F3000 X32.7 Y-12.554 E939.52273
G0 F6000 X32.7 Y-13.686
G1 F3000 X25.299 Y-21.086 E940.21898
G0 F6000 X25.299 Y-22.218
G1 F3000 X32.7 Y-14.817 E940.91517
G0 F6000 X32.7 Y-15.948
G1 F3000 X25.299 Y-23.349 E941.61146
G0 F6000 X25.299 Y-24.48
G1 F3000 X32.7 Y-17.08 E942.3076
G0 F6000 X32.7 Y-18.211
G1 F3000 X25.299 Y-25.612 E943.00389
G0 F6000 X25.299 Y-26.743
G1 F3000 X32.7 Y-19.342 E943.70008
G0 F6000 X32.7 Y-20.474
G1 F3000 X25.299 Y-27.874 E944.39633
G0 F6000 X25.299 Y-29.006
G1 F3000 X32.7 Y-21.605 E945.09252
G0 F6000 X32.7 Y-22.737
G1 F3000 X25.299 Y-30.137 E945.78876
G0 F6000 X25.299 Y-31.268
G1 F3000 X32.7 Y-23.868 E946.48491
G0 F6000 X32.7 Y-24.999
G1 F3000 X18.826 Y-38.873 E947.79013
G0 F6000 X17.695 Y-38.873
G1 F3000 X24.595 Y-31.973 E948.4392
G0 F6000 X23.463 Y-31.973
G1 F3000 X16.563 Y-38.873 E949.08835
G0 F6000 X15.432 Y-38.873
G1 F3000 X22.332 Y-31.973 E949.73742
G0 F6000 X21.201 Y-31.973
G1 F3000 X14.301 Y-38.873 E950.38657
G0 F6000 X13.169 Y-38.873
G1 F3000 X20.069 Y-31.973 E951.03564
G0 F6000 X18.938 Y-31.973
G1 F3000 X12.038 Y-38.873 E951.68479
G0 F6000 X10.907 Y-38.873
G1 F3000 X17.807 Y-31.973 E952.33386
G0 F6000 X16.675 Y-31.973
G1 F3000 X9.775 Y-38.873 E952.98301
G0 F6000 X8.644 Y-38.873
G1 F3000 X15.544 Y-31.973 E953.63207
G0 F6000 X14.412 Y-31.973
G1 F3000 X7.513 Y-38.873 E954.28118
G0 F6000 X6.381 Y-38.873
G1 F3000 X13.281 Y-31.973 E954.93025
G0 F6000 X12.15 Y-31.973
G1 F3000 X5.25 Y-38.873 E955.5794
G0 F6000 X4.118 Y-38.873
G1 F3000 X11.018 Y-31.973 E956.22847
G0 F6000 X9.886 Y-31.973
G1 F3000 X2.987 Y-38.873 E956.87758
G0 F6000 X1.856 Y-38.873
G1 F3000 X8.755 Y-31.973 E957.52659
G0 F6000 X7.624 Y-31.973
G1 F3000 X0.724 Y-38.873 E958.17575
G0 F6000 X-0.406 Y-38.873
G1 F3000 X6.492 Y-31.973 E958.82467
G0 F6000 X5.361 Y-31.973
G1 F3000 X-1.537 Y-38.873 E959.47373
G0 F6000 X-2.669 Y-38.873
G1 F3000 X4.229 Y-31.973 E960.12265
G0 F6000 X3.098 Y-31.973
G1 F3000 X-3.8 Y-38.873 E960.77172
G0 F6000 X-4.932 Y-38.873
G1 F3000 X1.967 Y-31.973 E961.42069
G0 F6000 X0.835 Y-31.973
G1 F3000 X-6.064 Y-38.873 E962.0698
G0 F6000 X-7.195 Y-38.873
G1 F3000 X-0.295 Y-31.973 E962.71881
G0 F6000 X-1.426 Y-31.973
G1 F3000 X-8.326 Y-38.873 E963.36801
G0 F6000 X-9.458 Y-38.873
G1 F3000 X-2.558 Y-31.973 E964.01703
G0 F6000 X-3.689 Y-31.973
G1 F3000 X-10.589 Y-38.873 E964.66623
G0 F6000 X-11.721 Y-38.873
G1 F3000 X-4.821 Y-31.973 E965.31525
G0 F6000 X-5.952 Y-31.973
G1 F3000 X-12.852 Y-38.873 E965.96445
G0 F6000 X-13.983 Y-38.873
G1 F3000 X-7.083 Y-31.973 E966.61347
G0 F6000 X-8.215 Y-31.973
G1 F3000 X-15.115 Y-38.873 E967.26267
G0 F6000 X-16.246 Y-38.873
G1 F3000 X-9.346 Y-31.973 E967.91169
G0 F6000 X-10.477 Y-31.973
G1 F3000 X-17.377 Y-38.873 E968.56089
G0 F6000 X-18.509 Y-38.873
G1 F3000 X-11.609 Y-31.973 E969.20991
G0 F6000 X-12.74 Y-31.973
G1 F3000 X-19.64 Y-38.873 E969.85911
G0 F6000 X-20.771 Y-38.873
G1 F3000 X-13.872 Y-31.973 E970.50808
G0 F6000 X-15.003 Y-31.973
G1 F3000 X-21.903 Y-38.873 E971.15728
G0 F6000 X-23.034 Y-38.873
G1 F3000 X-16.134 Y-31.973 E971.8063
G0 F6000 X-17.266 Y-31.973
G1 F3000 X-24.166 Y-38.873 E972.4555
G0 F6000 X-25.297 Y-38.873
G1 F3000 X-18.398 Y-31.974 E973.10442
G0 F6000 X-19.529 Y-31.974
G1 F3000 X-26.428 Y-38.873 E973.75353
G0 F6000 X-27.56 Y-38.873
G1 F3000 X-20.66 Y-31.974 E974.4025
G0 F6000 X-21.792 Y-31.974
G1 F3000 X-28.691 Y-38.873 E975.05161
G0 F6000 X-29.822 Y-38.873
G1 F3000 X-22.923 Y-31.974 E975.70053
G0 F6000 X-24.055 Y-31.974
G1 F3000 X-30.954 Y-38.873 E976.34964
G0 F6000 X-32.085 Y-38.873
G1 F3000 X-25.186 Y-31.974 E976.99857
G0 F6000 X-26.317 Y-31.974
G1 F3000 X-32.698 Y-38.354 E977.5989
G0 F6000 X-32.698 Y-37.223
G1 F3000 X-27.449 Y-31.974 E978.0926
G0 F6000 X-28.58 Y-31.974
G1 F3000 X-32.698 Y-36.092 E978.48009
G0 F6000 X-32.697 Y-34.96
G1 F3000 X-29.711 Y-31.974 E978.7609
G0 F6000 X-30.843 Y-31.974
G1 F3000 X-32.697 Y-33.828 E978.93541
G0 F6000 X-32.697 Y-32.697
G1 F3000 X-31.974 Y-31.974 E979.00333
G1 F3600 E970.60333
G1 Z1.06
G0 F6000 X-31.974 Y-30.574
G0 X19.958 Y-38.873
G0 X19.958 Y-38.873
G1 Z0.66
G1 F3600 E979.30333
G1 F3000 X32.7 Y-26.131 E980.50197
G0 F6000 X32.7 Y-27.262
G1 F3000 X21.089 Y-38.873 E981.59431
G0 F6000 X22.22 Y-38.873
G1 F3000 X32.7 Y-28.393 E982.58015
G0 F6000 X32.7 Y-29.525
G1 F3000 X22.3 Y-39.925 E983.55857
G0 F6000 X22.3 Y-41.056
G1 F3000 X32.7 Y-30.656 E984.53689
G0 F6000 X32.7 Y-31.787
G1 F3000 X22.3 Y-42.188 E985.51535
G0 F6000 X22.3 Y-43.319
G1 F3000 X32.7 Y-32.919 E986.49367
G0 F6000 X32.7 Y-34.05
G1 F3000 X22.3 Y-44.45 E987.47209
G0 F6000 X22.3 Y-45.582
G1 F3000 X32.7 Y-35.182 E988.45041
G0 F6000 X32.7 Y-36.313
G1 F3000 X22.3 Y-46.713 E989.42883
G0 F6000 X22.3 Y-47.844
G1 F3000 X32.7 Y-37.444 E990.40715
G0 F6000 X32.7 Y-38.576
G1 F3000 X22.3 Y-48.976 E991.38556
G0 F6000 X22.3 Y-50.107
G1 F3000 X32.7 Y-39.707 E992.36388
G0 F6000 X32.7 Y-40.838
G1 F3000 X22.3 Y-51.239 E993.34235
G0 F6000 X22.3 Y-52.37
G1 F3000 X32.7 Y-41.97 E994.32067
G0 F6000 X32.7 Y-43.101
G1 F3000 X22.3 Y-53.501 E995.29908
G0 F6000 X22.3 Y-54.633
G1 F3000 X32.7 Y-44.233 E996.2774
G0 F6000 X32.7 Y-45.364
G1 F3000 X22.3 Y-55.764 E997.25582
G0 F6000 X22.3 Y-56.895
G1 F3000 X32.7 Y-46.495 E998.23414
G0 F6000 X32.7 Y-47.627
G1 F3000 X22.3 Y-58.027 E999.21256
G0 F6000 X22.3 Y-59.158
G1 F3000 X32.7 Y-48.758 E1000.19088
G0 F6000 X32.7 Y-49.889
G1 F3000 X22.3 Y-60.29 E1001.16934
G0 F6000 X22.3 Y-61.421
G1 F3000 X32.7 Y-51.021 E1002.14766
G0 F6000 X32.7 Y-52.152
G1 F3000 X22.3 Y-62.552 E1003.12608
G0 F6000 X22.3 Y-63.684
G1 F3000 X32.7 Y-53.284 E1004.1044
G0 F6000 X32.7 Y-54.415
G1 F3000 X22.3 Y-64.815 E1005.08281
G0 F6000 X22.3 Y-65.946
G1 F3000 X32.7 Y-55.546 E1006.06113
G0 F6000 X32.7 Y-56.678
G1 F3000 X22.465 Y-66.912 E1007.02398
G0 F6000 X23.596 Y-66.912
G1 F3000 X32.7 Y-57.809 E1007.88033
G0 F6000 X32.7 Y-58.94
G1 F3000 X24.728 Y-66.912 E1008.63034
G0 F6000 X25.859 Y-66.912
G1 F3000 X32.7 Y-60.072 E1009.2738
G0 F6000 X32.7 Y-61.203
G1 F3000 X26.99 Y-66.912 E1009.81096
G0 F6000 X28.122 Y-66.912
G1 F3000 X32.7 Y-62.334 E1010.24159
G0 F6000 X32.7 Y-63.466
G1 F3000 X29.253 Y-66.912 E1010.56586
G0 F6000 X30.385 Y-66.912
G1 F3000 X32.7 Y-64.597 E1010.78359
G0 F6000 X32.7 Y-65.729
G1 F3000 X31.516 Y-66.912 E1010.89498
G0 F6000 X32.647 Y-66.912
G1 F3000 X32.7 Y-66.86 E1010.89987
; LAYER:3
G0 F6000 X34.1 Y-66.859 Z0.86
G0 X33.8 Y-68.314
G0 X33.8 Y-68.314
G0 X33.8 Y-68.014
; TYPE:WALL-INNER
G1 F3000 X33.8 Y68.014 E1019.94842
G1 X21.2 Y68.014 E1020.78658
G1 X21.2 Y39.974 E1022.65181
G1 X-33.798 Y39.974 E1026.31029
G1 X-33.798 Y30.875 E1026.91556
G1 X24.2 Y30.875 E1030.77353
G1 X24.2 Y-30.874 E1034.88109
G1 X-33.798 Y-30.874 E1038.73914
G1 X-33.798 Y-39.974 E1039.34454
G1 X21.2 Y-39.974 E1043.00295
G1 X21.2 Y-68.014 E1044.86825
G1 X33.08 Y-68.014 E1045.65851
G0 F6000 X33 Y-67.214
G1 F3000 X33 Y67.214 E1054.60063
G1 X22 Y67.214 E1055.33235
G1 X22 Y39.174 E1057.19758
G1 X-32.998 Y39.174 E1060.85606
G1 X-32.998 Y31.675 E1061.3549
G1 X25 Y31.675 E1065.21287
G1 X25 Y-31.674 E1069.42687
G1 X-32.998 Y-31.674 E1073.28491
G1 X-32.998 Y-39.174 E1073.78388
G1 X22 Y-39.174 E1077.44229
G1 X22 Y-67.214 E1079.30759
G1 X32.28 Y-67.214 E1079.99142
G0 F6000 X33 Y-68.314
G0 X34.19 Y-68.314
G0 X34.19 Y-68.314
G0 X34.6 Y-68.814
; TYPE:WALL-OUTER
G1 F2100 X34.6 Y68.814 E1089.1464
G1 X20.4 Y68.814 E1090.09099
G1 X20.4 Y40.774 E1091.95622
G1 X-34.598 Y40.774 E1095.6147
G1 X-34.598 Y30.075 E1096.3264
G1 X23.4 Y30.075 E1100.18437
G1 X23.4 Y-30.074 E1104.1855
G1 X-34.598 Y-30.074 E1108.04355
G1 X-34.598 Y-40.774 E1108.75538
G1 X20.4 Y-40.774 E1112.41379
G1 X20.4 Y-68.814 E1114.27909
G1 X33.88 Y-68.814 E1115.17578
G0 F6000 X34.19 Y-68.314
G0 X34.1 Y-66.641
G0 X34.1 Y-66.641
G0 X32.7 Y-66.641
; TYPE:FILL
G1 F3000 X22.3 Y-56.241 E1116.1541
G0 F6000 X22.3 Y-57.372
G1 F3000 X31.84 Y-66.912 E1117.05162
G0 F6000 X30.708 Y-66.912
G1 F3000 X22.3 Y-58.503 E1117.84259
G0 F6000 X22.3 Y-59.635
G1 F3000 X29.577 Y-66.912 E1118.52721
G0 F6000 X28.446 Y-66.912
G1 F3000 X22.3 Y-60.766 E1119.10534
G0 F6000 X22.3 Y-61.898
G1 F3000 X27.314 Y-66.912 E1119.57708
G0 F6000 X26.183 Y-66.912
G1 F3000 X22.3 Y-63.029 E1119.94232
G0 F6000 X22.3 Y-64.16
G1 F3000 X25.052 Y-66.912 E1120.20126
G0 F6000 X23.92 Y-66.912
G1 F3000 X22.3 Y-65.292 E1120.35361
G0 F6000 X22.3 Y-66.423
G1 F3000 X22.789 Y-66.912 E1120.39966
G1 F3600 E1111.99966
G1 Z1.26
G0 F6000 X22.789 Y-68.314
G0 X34.1 Y-65.509
G0 X34.1 Y-65.509
G0 X32.7 Y-65.509
G1 Z0.86
G1 F3600 E1120.69966
G1 F3000 X22.3 Y-55.109 E1121.67798
G0 F6000 X22.3 Y-53.978
G1 F3000 X32.7 Y-64.378 E1122.65639
G0 F6000 X32.7 Y-63.247
G1 F3000 X22.3 Y-52.847 E1123.63471
G0 F6000 X22.3 Y-51.715
G1 F3000 X32.7 Y-62.115 E1124.61313
G0 F6000 X32.7 Y-60.984
G1 F3000 X22.3 Y-50.584 E1125.59145
G0 F6000 X22.3 Y-49.452
G1 F3000 X32.7 Y-59.853 E1126.56991
G0 F6000 X32.7 Y-58.721
G1 F3000 X22.3 Y-48.321 E1127.54823
G0 F6000 X22.3 Y-47.19
G1 F3000 X32.7 Y-57.59 E1128.52665
G0 F6000 X32.7 Y-56.458
G1 F3000 X22.3 Y-46.058 E1129.50497
G0 F6000 X22.3 Y-44.927
G1 F3000 X32.7 Y-55.327 E1130.48339
G0 F6000 X32.7 Y-54.196
G1 F3000 X22.3 Y-43.796 E1131.46171
G0 F6000 X22.3 Y-42.664
G1 F3000 X32.7 Y-53.064 E1132.44012
G0 F6000 X32.7 Y-51.933
G1 F3000 X22.3 Y-41.533 E1133.41844
G0 F6000 X22.3 Y-40.401
G1 F3000 X32.7 Y-50.802 E1134.39691
G0 F6000 X32.7 Y-49.67
G1 F3000 X22.3 Y-39.27 E1135.37523
G0 F6000 X21.902 Y-38.873
G1 F3000 X15.002 Y-31.973 E1136.02429
G0 F6000 X13.871 Y-31.973
G1 F3000 X20.771 Y-38.873 E1136.67345
G0 F6000 X19.639 Y-38.873
G1 F3000 X12.739 Y-31.973 E1137.32251
G0 F6000 X11.608 Y-31.973
G1 F3000 X18.508 Y-38.873 E1137.97167
G0 F6000 X17.377 Y-38.873
G1 F3000 X10.477 Y-31.973 E1138.62073
G0 F6000 X9.346 Y-31.973
G1 F3000 X16.245 Y-38.873 E1139.26984
G0 F6000 X15.114 Y-38.873
G1 F3000 X8.215 Y-31.973 E1139.91885
G0 F6000 X7.083 Y-31.973
G1 F3000 X13.983 Y-38.873 E1140.56801
G0 F6000 X12.851 Y-38.873
G1 F3000 X5.952 Y-31.973 E1141.21703
G0 F6000 X4.821 Y-31.973
G1 F3000 X11.72 Y-38.873 E1141.86614
G0 F6000 X10.588 Y-38.873
G1 F3000 X3.689 Y-31.973 E1142.51515
G0 F6000 X2.558 Y-31.973
G1 F3000 X9.457 Y-38.873 E1143.16426
G0 F6000 X8.326 Y-38.873
G1 F3000 X1.426 Y-31.973 E1143.81332
G0 F6000 X0.295 Y-31.973
G1 F3000 X7.194 Y-38.873 E1144.46243
G0 F6000 X6.063 Y-38.873
G1 F3000 X-0.835 Y-31.973 E1145.1114
G0 F6000 X-1.967 Y-31.973
G1 F3000 X4.932 Y-38.873 E1145.76047
G0 F6000 X3.8 Y-38.873
G1 F3000 X-3.098 Y-31.973 E1146.40943
G0 F6000 X-4.229 Y-31.973
G1 F3000 X2.669 Y-38.873 E1147.05845
G0 F6000 X1.537 Y-38.873
G1 F3000 X-5.361 Y-31.973 E1147.70742
G0 F6000 X-6.492 Y-31.973
G1 F3000 X0.406 Y-38.873 E1148.35643
G0 F6000 X-0.724 Y-38.873
G1 F3000 X-7.624 Y-31.973 E1149.00554
G0 F6000 X-8.755 Y-31.973
G1 F3000 X-1.856 Y-38.873 E1149.65461
G0 F6000 X-2.987 Y-38.873
G1 F3000 X-9.886 Y-31.973 E1150.30367
G0 F6000 X-11.018 Y-31.973
G1 F3000 X-4.118 Y-38.873 E1150.95278
G0 F6000 X-5.249 Y-38.873
G1 F3000 X-12.149 Y-31.973 E1151.60189
G0 F6000 X-13.28 Y-31.973
G1 F3000 X-6.38 Y-38.873 E1152.251
G0 F6000 X-7.512 Y-38.873
G1 F3000 X-14.412 Y-31.973 E1152.90011
G0 F6000 X-15.543 Y-31.973
G1 F3000 X-8.643 Y-38.873 E1153.54922
G0 F6000 X-9.775 Y-38.873
G1 F3000 X-16.674 Y-31.973 E1154.19828
G0 F6000 X-17.806 Y-31.973
G1 F3000 X-10.906 Y-38.873 E1154.84739
G0 F6000 X-12.037 Y-38.873
G1 F3000 X-18.937 Y-31.974 E1155.49645
G0 F6000 X-20.068 Y-31.974
G1 F3000 X-13.169 Y-38.873 E1156.14547
G0 F6000 X-14.3 Y-38.873
G1 F3000 X-21.199 Y-31.974 E1156.79448
G0 F6000 X-22.331 Y-31.974
G1 F3000 X-15.431 Y-38.873 E1157.44355
G0 F6000 X-16.563 Y-38.873
G1 F3000 X-23.462 Y-31.974 E1158.09256
G0 F6000 X-24.593 Y-31.974
G1 F3000 X-17.694 Y-38.873 E1158.74158
G0 F6000 X-18.826 Y-38.873
G1 F3000 X-25.725 Y-31.974 E1159.39059
G0 F6000 X-26.856 Y-31.974
G1 F3000 X-19.957 Y-38.873 E1160.03961
G0 F6000 X-21.088 Y-38.873
G1 F3000 X-27.987 Y-31.974 E1160.68862
G0 F6000 X-29.119 Y-31.974
G1 F3000 X-22.22 Y-38.873 E1161.33764
G0 F6000 X-23.351 Y-38.873
G1 F3000 X-30.25 Y-31.974 E1161.98666
G0 F6000 X-31.382 Y-31.974
G1 F3000 X-24.482 Y-38.873 E1162.63572
G0 F6000 X-25.614 Y-38.873
G1 F3000 X-32.513 Y-31.974 E1163.28473
G0 F6000 X-32.697 Y-32.922
G1 F3000 X-26.745 Y-38.873 E1163.84461
G0 F6000 X-27.876 Y-38.873
G1 F3000 X-32.697 Y-34.053 E1164.2981
G0 F6000 X-32.697 Y-35.184
G1 F3000 X-29.008 Y-38.873 E1164.64514
G0 F6000 X-30.139 Y-38.873
G1 F3000 X-32.698 Y-36.315 E1164.88582
G0 F6000 X-32.698 Y-37.446
G1 F3000 X-31.271 Y-38.873 E1165.02007
G0 F6000 X-32.402 Y-38.873
G1 F3000 X-32.698 Y-38.578 E1165.04787
G1 F3600 E1156.64787
G1 Z1.26
G0 F6000 X-34.098 Y-38.578
G0 X16.134 Y-31.973
G0 X16.134 Y-31.973
G1 Z0.86
G1 F3600 E1165.34787
G1 F3000 X32.7 Y-48.539 E1166.90634
G0 F6000 X32.7 Y-47.407
G1 F3000 X17.265 Y-31.973 E1168.35828
G0 F6000 X18.396 Y-31.973
G1 F3000 X32.7 Y-46.276 E1169.70391
G0 F6000 X32.7 Y-45.145
G1 F3000 X19.528 Y-31.973 E1170.943
G0 F6000 X20.659 Y-31.973
G1 F3000 X32.7 Y-44.013 E1172.07575
G0 F6000 X32.7 Y-42.882
G1 F3000 X21.79 Y-31.973 E1173.102
G0 F6000 X22.922 Y-31.973
G1 F3000 X32.7 Y-41.751 E1174.0219
G0 F6000 X32.7 Y-40.619
G1 F3000 X24.053 Y-31.973 E1174.83526
G0 F6000 X25.185 Y-31.973
G1 F3000 X32.7 Y-39.488 E1175.54228
G0 F6000 X32.7 Y-38.357
G1 F3000 X25.299 Y-30.956 E1176.23847
G0 F6000 X25.299 Y-29.825
G1 F3000 X32.7 Y-37.225 E1176.93471
G0 F6000 X32.7 Y-36.094
G1 F3000 X25.299 Y-28.693 E1177.6309
G0 F6000 X25.299 Y-27.562
G1 F3000 X32.7 Y-34.962 E1178.32714
G0 F6000 X32.7 Y-33.831
G1 F3000 X25.299 Y-26.43 E1179.02334
G0 F6000 X25.299 Y-25.299
G1 F3000 X32.7 Y-32.7 E1179.71963
G0 F6000 X32.7 Y-31.568
G1 F3000 X25.299 Y-24.168 E1180.41577
G0 F6000 X25.299 Y-23.036
G1 F3000 X32.7 Y-30.437 E1181.11206
G0 F6000 X32.7 Y-29.306
G1 F3000 X25.299 Y-21.905 E1181.80825
G0 F6000 X25.299 Y-20.774
G1 F3000 X32.7 Y-28.174 E1182.50449
G0 F6000 X32.7 Y-27.043
G1 F3000 X25.299 Y-19.642 E1183.20069
G0 F6000 X25.299 Y-18.511
G1 F3000 X32.7 Y-25.911 E1183.89693
G0 F6000 X32.7 Y-24.78
G1 F3000 X25.299 Y-17.379 E1184.59312
G0 F6000 X25.299 Y-16.248
G1 F3000 X32.7 Y-23.649 E1185.28941
G0 F6000 X32.7 Y-22.517
G1 F3000 X25.299 Y-15.117 E1185.98556
G0 F6000 X25.299 Y-13.985
G1 F3000 X32.7 Y-21.386 E1186.68184
G0 F6000 X32.7 Y-20.255
G1 F3000 X25.299 Y-12.854 E1187.37804
G0 F6000 X25.299 Y-11.723
G1 F3000 X32.7 Y-19.123 E1188.07428
G0 F6000 X32.7 Y-17.992
G1 F3000 X25.299 Y-10.591 E1188.77047
G0 F6000 X25.299 Y-9.46
G1 F3000 X32.7 Y-16.86 E1189.46671
G0 F6000 X32.7 Y-15.729
G1 F3000 X25.299 Y-8.329 E1190.16286
G0 F6000 X25.299 Y-7.197
G1 F3000 X32.7 Y-14.598 E1190.85915
G0 F6000 X32.7 Y-13.466
G1 F3000 X25.299 Y-6.066 E1191.55529
G0 F6000 X25.299 Y-4.934
G1 F3000 X32.7 Y-12.335 E1192.25158
G0 F6000 X32.7 Y-11.204
G1 F3000 X25.299 Y-3.803 E1192.94778
G0 F6000 X25.299 Y-2.672
G1 F3000 X32.7 Y-10.072 E1193.64402
G0 F6000 X32.7 Y-8.941
G1 F3000 X25.299 Y-1.54 E1194.34021
G0 F6000 X25.299 Y-0.409
G1 F3000 X32.7 Y-7.809 E1195.03645
G0 F6000 X32.7 Y-6.678
G1 F3000 X25.3 Y0.721 E1195.7325
G0 F6000 X25.3 Y1.852
G1 F3000 X32.7 Y-5.547 E1196.4286
G0 F6000 X32.7 Y-4.415
G1 F3000 X25.3 Y2.983 E1197.12461
G0 F6000 X25.3 Y4.115
G1 F3000 X32.7 Y-3.284 E1197.82071
G0 F6000 X32.7 Y-2.153
G1 F3000 X25.3 Y5.246 E1198.51676
G0 F6000 X25.3 Y6.378
G1 F3000 X32.7 Y-1.021 E1199.21286
G0 F6000 X32.7 Y0.109
G1 F3000 X25.3 Y7.509 E1199.90901
G0 F6000 X25.3 Y8.64
G1 F3000 X32.7 Y1.24 E1200.60515
G0 F6000 X32.7 Y2.372
G1 F3000 X25.3 Y9.772 E1201.3013
G0 F6000 X25.3 Y10.903
G1 F3000 X32.7 Y3.503 E1201.99745
G0 F6000 X32.7 Y4.635
G1 F3000 X25.3 Y12.034 E1202.69355
G0 F6000 X25.3 Y13.166
G1 F3000 X32.7 Y5.766 E1203.38969
G0 F6000 X32.7 Y6.897
G1 F3000 X25.3 Y14.297 E1204.08584
G0 F6000 X25.3 Y15.429
G1 F3000 X32.7 Y8.029 E1204.78199
G0 F6000 X32.7 Y9.16
G1 F3000 X25.3 Y16.56 E1205.47813
G0 F6000 X25.3 Y17.691
G1 F3000 X32.7 Y10.291 E1206.17428
G0 F6000 X32.7 Y11.423
G1 F3000 X25.3 Y18.823 E1206.87043
G0 F6000 X25.3 Y19.954
G1 F3000 X32.7 Y12.554 E1207.56657
G0 F6000 X32.7 Y13.686
G1 F3000 X25.3 Y21.085 E1208.26267
G0 F6000 X25.3 Y22.217
G1 F3000 X32.7 Y14.817 E1208.95882
G0 F6000 X32.7 Y15.948
G1 F3000 X25.3 Y23.348 E1209.65497
G0 F6000 X25.3 Y24.48
G1 F3000 X32.7 Y17.08 E1210.35111
G0 F6000 X32.7 Y18.211
G1 F3000 X25.3 Y25.611 E1211.04726
G0 F6000 X25.3 Y26.742
G1 F3000 X32.7 Y19.342 E1211.74341
G0 F6000 X32.7 Y20.474
G1 F3000 X25.3 Y27.874 E1212.43955
G0 F6000 X25.3 Y29.005
G1 F3000 X32.7 Y21.605 E1213.1357
G0 F6000 X32.7 Y22.737
G1 F3000 X25.3 Y30.136 E1213.8318
G0 F6000 X25.3 Y31.268
G1 F3000 X32.7 Y23.868 E1214.52794
G0 F6000 X32.7 Y24.999
G1 F3000 X18.826 Y38.873 E1215.83313
G0 F6000 X17.695 Y38.873
G1 F3000 X24.594 Y31.973 E1216.48219
G0 F6000 X23.463 Y31.973
G1 F3000 X16.563 Y38.873 E1217.1313
G0 F6000 X15.432 Y38.873
G1 F3000 X22.331 Y31.973 E1217.78036
G0 F6000 X21.2 Y31.973
G1 F3000 X14.301 Y38.873 E1218.42942
G0 F6000 X13.169 Y38.873
G1 F3000 X20.069 Y31.973 E1219.07853
G0 F6000 X18.937 Y31.973
G1 F3000 X12.038 Y38.873 E1219.7276
G0 F6000 X10.907 Y38.873
G1 F3000 X17.806 Y31.973 E1220.37666
G0 F6000 X16.674 Y31.973
G1 F3000 X9.775 Y38.873 E1221.02572
G0 F6000 X8.644 Y38.873
G1 F3000 X15.543 Y31.973 E1221.67478
G0 F6000 X14.412 Y31.973
G1 F3000 X7.513 Y38.873 E1222.32385
G0 F6000 X6.381 Y38.873
G1 F3000 X13.28 Y31.973 E1222.97291
G0 F6000 X12.149 Y31.973
G1 F3000 X5.25 Y38.873 E1223.62197
G0 F6000 X4.118 Y38.873
G1 F3000 X11.018 Y31.973 E1224.27108
G0 F6000 X9.886 Y31.973
G1 F3000 X2.987 Y38.873 E1224.92014
G0 F6000 X1.856 Y38.873
G1 F3000 X8.755 Y31.973 E1225.56921
G0 F6000 X7.624 Y31.973
G1 F3000 X0.724 Y38.873 E1226.21832
G0 F6000 X-0.406 Y38.873
G1 F3000 X6.492 Y31.973 E1226.86728
G0 F6000 X5.361 Y31.973
G1 F3000 X-1.537 Y38.873 E1227.5163
G0 F6000 X-2.669 Y38.873
G1 F3000 X4.229 Y31.973 E1228.16527
G0 F6000 X3.098 Y31.973
G1 F3000 X-3.8 Y38.873 E1228.81428
G0 F6000 X-4.932 Y38.873
G1 F3000 X1.967 Y31.973 E1229.4633
G0 F6000 X0.835 Y31.973
G1 F3000 X-6.064 Y38.873 E1230.11236
G0 F6000 X-7.195 Y38.873
G1 F3000 X-0.295 Y31.973 E1230.76143
G0 F6000 X-1.426 Y31.973
G1 F3000 X-8.326 Y38.873 E1231.41058
G0 F6000 X-9.458 Y38.873
G1 F3000 X-2.558 Y31.973 E1232.05964
G0 F6000 X-3.689 Y31.973
G1 F3000 X-10.589 Y38.873 E1232.7088
G0 F6000 X-11.721 Y38.873
G1 F3000 X-4.821 Y31.974 E1233.35782
G0 F6000 X-5.953 Y31.974
G1 F3000 X-12.852 Y38.873 E1234.00688
G0 F6000 X-13.983 Y38.873
G1 F3000 X-7.084 Y31.974 E1234.65585
G0 F6000 X-8.215 Y31.974
G1 F3000 X-15.115 Y38.873 E1235.30496
G0 F6000 X-16.246 Y38.873
G1 F3000 X-9.347 Y31.974 E1235.95393
G0 F6000 X-10.478 Y31.974
G1 F3000 X-17.377 Y38.873 E1236.60299
G0 F6000 X-18.509 Y38.873
G1 F3000 X-11.609 Y31.974 E1237.25201
G0 F6000 X-12.741 Y31.974
G1 F3000 X-19.64 Y38.873 E1237.90107
G0 F6000 X-20.771 Y38.873
G1 F3000 X-13.872 Y31.974 E1238.55004
G0 F6000 X-15.004 Y31.974
G1 F3000 X-21.903 Y38.873 E1239.1991
G0 F6000 X-23.034 Y38.873
G1 F3000 X-16.135 Y31.974 E1239.84807
G0 F6000 X-17.266 Y31.974
G1 F3000 X-24.166 Y38.873 E1240.49718
G0 F6000 X-25.297 Y38.873
G1 F3000 X-18.398 Y31.974 E1241.14615
G0 F6000 X-19.529 Y31.974
G1 F3000 X-26.428 Y38.873 E1241.79521
G0 F6000 X-27.56 Y38.873
G1 F3000 X-20.66 Y31.974 E1242.44422
G0 F6000 X-21.792 Y31.974
G1 F3000 X-28.691 Y38.873 E1243.09329
G0 F6000 X-29.822 Y38.873
G1 F3000 X-22.923 Y31.974 E1243.74226
G0 F6000 X-24.055 Y31.974
G1 F3000 X-30.954 Y38.873 E1244.39132
G0 F6000 X-32.085 Y38.873
G1 F3000 X-25.186 Y31.974 E1245.04029
G0 F6000 X-26.317 Y31.974
G1 F3000 X-32.698 Y38.354 E1245.64057
G0 F6000 X-32.698 Y37.223
G1 F3000 X-27.449 Y31.974 E1246.13432
G0 F6000 X-28.58 Y31.974
G1 F3000 X-32.698 Y36.092 E1246.52176
G0 F6000 X-32.697 Y34.96
G1 F3000 X-29.711 Y31.974 E1246.80262
G0 F6000 X-30.843 Y31.974
G1 F3000 X-32.697 Y33.828 E1246.97708
G0 F6000 X-32.697 Y32.697
G1 F3000 X-31.974 Y31.974 E1247.04505
G1 F3600 E1238.64505
G1 Z1.26
G0 F6000 X-31.974 Y30.575
G0 X19.958 Y38.873
G0 X19.958 Y38.873
G1 Z0.86
G1 F3600 E1247.34505
G1 F3000 X32.7 Y26.131 E1248.54374
G0 F6000 X32.7 Y27.262
G1 F3000 X21.089 Y38.873 E1249.63603
G0 F6000 X22.22 Y38.873
G1 F3000 X32.7 Y28.393 E1250.62192
G0 F6000 X32.7 Y29.525
G1 F3000 X22.3 Y39.925 E1251.60029
G0 F6000 X22.3 Y41.056
G1 F3000 X32.7 Y30.656 E1252.57866
G0 F6000 X32.7 Y31.787
G1 F3000 X22.3 Y42.188 E1253.55707
G0 F6000 X22.3 Y43.319
G1 F3000 X32.7 Y32.919 E1254.53544
G0 F6000 X32.7 Y34.05
G1 F3000 X22.3 Y44.45 E1255.51381
G0 F6000 X22.3 Y45.582
G1 F3000 X32.7 Y35.182 E1256.49218
G0 F6000 X32.7 Y36.313
G1 F3000 X22.3 Y46.713 E1257.47055
G0 F6000 X22.3 Y47.844
G1 F3000 X32.7 Y37.444 E1258.44892
G0 F6000 X32.7 Y38.576
G1 F3000 X22.3 Y48.976 E1259.42728
G0 F6000 X22.3 Y50.107
G1 F3000 X32.7 Y39.707 E1260.40565
G0 F6000 X32.7 Y40.838
G1 F3000 X22.3 Y51.239 E1261.38407
G0 F6000 X22.3 Y52.37
G1 F3000 X32.7 Y41.97 E1262.36244
G0 F6000 X32.7 Y43.101
G1 F3000 X22.3 Y53.501 E1263.3408
G0 F6000 X22.3 Y54.633
G1 F3000 X32.7 Y44.233 E1264.31917
G0 F6000 X32.7 Y45.364
G1 F3000 X22.3 Y55.764 E1265.29754
G0 F6000 X22.3 Y56.895
G1 F3000 X32.7 Y46.495 E1266.27591
G0 F6000 X32.7 Y47.627
G1 F3000 X22.3 Y58.027 E1267.25428
G0 F6000 X22.3 Y59.158
G1 F3000 X32.7 Y48.758 E1268.23264
G0 F6000 X32.7 Y49.889
G1 F3000 X22.3 Y60.29 E1269.21106
G0 F6000 X22.3 Y61.421
G1 F3000 X32.7 Y51.021 E1270.18943
G0 F6000 X32.7 Y52.152
G1 F3000 X22.3 Y62.552 E1271.1678
G0 F6000 X22.3 Y63.684
G1 F3000 X32.7 Y53.284 E1272.14616
G0 F6000 X32.7 Y54.415
G1 F3000 X22.3 Y64.815 E1273.12453
G0 F6000 X22.3 Y65.946
G1 F3000 X32.7 Y55.546 E1274.1029
G0 F6000 X32.7 Y56.678
G1 F3000 X22.465 Y66.912 E1275.0657
G0 F6000 X23.596 Y66.912
G1 F3000 X32.7 Y57.809 E1275.9221
G0 F6000 X32.7 Y58.94
G1 F3000 X24.728 Y66.912 E1276.67206
G0 F6000 X25.859 Y66.912
G1 F3000 X32.7 Y60.072 E1277.31557
G0 F6000 X32.7 Y61.203
G1 F3000 X26.99 Y66.912 E1277.85269
G0 F6000 X28.122 Y66.912
G1 F3000 X32.7 Y62.334 E1278.28336
G0 F6000 X32.7 Y63.466
G1 F3000 X29.253 Y66.912 E1278.60758
G0 F6000 X30.385 Y66.912
G1 F3000 X32.7 Y64.597 E1278.82536
G0 F6000 X32.7 Y65.729
G1 F3000 X31.516 Y66.912 E1278.9367
G0 F6000 X32.647 Y66.912
G1 F3000 X32.7 Y66.86 E1278.94164
; LAYER:4
G0 F6000 X33.8 Y68.014 Z1.06
; TYPE:WALL-INNER
G1 F3000 X21.2 Y68.014 E1279.77979
G1 X21.2 Y39.974 E1281.64502
G1 X-33.798 Y39.974 E1285.3035
G1 X-33.798 Y30.875 E1285.90877
G1 X24.2 Y30.875 E1289.76675
G1 X24.2 Y-30.874 E1293.87431
G1 X-33.798 Y-30.874 E1297.73235
G1 X-33.798 Y-39.974 E1298.33775
G1 X21.2 Y-39.974 E1301.99617
G1 X21.2 Y-68.014 E1303.86146
G1 X33.8 Y-68.014 E1304.69962
G1 X33.8 Y67.294 E1313.70028
G0 F6000 X33 Y67.214
G1 F3000 X22 Y67.214 E1314.432
G1 X22 Y39.174 E1316.29723
G1 X-32.998 Y39.174 E1319.95571
G1 X-32.998 Y31.675 E1320.45454
G1 X25 Y31.675 E1324.31252
G1 X25 Y-31.674 E1328.52651
G1 X-32.998 Y-31.674 E1332.38456
G1 X-32.998 Y-39.174 E1332.88352
G1 X22 Y-39.174 E1336.54194
G1 X22 Y-67.214 E1338.40723
G1 X33 Y-67.214 E1339.13896
G1 X33 Y66.494 E1348.03318
G0 F6000 X34.1 Y68.404
G0 X34.1 Y68.404
G0 X34.6 Y68.814
; TYPE:WALL-OUTER
G1 F2100 X20.4 Y68.814 E1348.97777
G1 X20.4 Y40.774 E1350.843
G1 X-34.598 Y40.774 E1354.50148
G1 X-34.598 Y30.075 E1355.21318
G1 X23.4 Y30.075 E1359.07116
G1 X23.4 Y-30.074 E1363.07228
G1 X-34.598 Y-30.074 E1366.93033
G1 X-34.598 Y-40.774 E1367.64216
G1 X20.4 Y-40.774 E1371.30058
G1 X20.4 Y-68.814 E1373.16587
G1 X34.6 Y-68.814 E1374.11046
G1 X34.6 Y68.094 E1383.21755
G0 F6000 X34.1 Y68.404
G0 X32.7 Y66.641
G0 X32.7 Y66.641
; TYPE:FILL
G1 F3000 X22.3 Y56.241 E1384.19592
G0 F6000 X22.3 Y57.372
G1 F3000 X31.84 Y66.912 E1385.09338
G0 F6000 X30.708 Y66.912
G1 F3000 X22.3 Y58.503 E1385.8844
G0 F6000 X22.3 Y59.635
G1 F3000 X29.577 Y66.912 E1386.56898
G0 F6000 X28.446 Y66.912
G1 F3000 X22.3 Y60.766 E1387.14716
G0 F6000 X22.3 Y61.898
G1 F3000 X27.314 Y66.912 E1387.61884
G0 F6000 X26.183 Y66.912
G1 F3000 X22.3 Y63.029 E1387.98413
G0 F6000 X22.3 Y64.16
G1 F3000 X25.052 Y66.912 E1388.24302
G0 F6000 X23.92 Y66.912
G1 F3000 X22.3 Y65.292 E1388.39542
G0 F6000 X22.3 Y66.423
G1 F3000 X22.789 Y66.912 E1388.44142
G0 F6000 X32.7 Y65.509
G1 F3000 X22.3 Y55.109 E1389.41979
G0 F6000 X22.3 Y53.978
G1 F3000 X32.7 Y64.378 E1390.39816
G0 F6000 X32.7 Y63.247
G1 F3000 X22.3 Y52.847 E1391.37653
G0 F6000 X22.3 Y51.715
G1 F3000 X32.7 Y62.115 E1392.3549
G0 F6000 X32.7 Y60.984
G1 F3000 X22.3 Y50.584 E1393.33327
G0 F6000 X22.3 Y49.452
G1 F3000 X32.7 Y59.853 E1394.31168
G0 F6000 X32.7 Y58.721
G1 F3000 X22.3 Y48.321 E1395.29005
G0 F6000 X22.3 Y47.19
G1 F3000 X32.7 Y57.59 E1396.26842
G0 F6000 X32.7 Y56.458
G1 F3000 X22.3 Y46.058 E1397.24679
G0 F6000 X22.3 Y44.927
G1 F3000 X32.7 Y55.327 E1398.22515
G0 F6000 X32.7 Y54.196
G1 F3000 X22.3 Y43.796 E1399.20352
G0 F6000 X22.3 Y42.664
G1 F3000 X32.7 Y53.064 E1400.18189
G0 F6000 X32.7 Y51.933
G1 F3000 X22.3 Y41.533 E1401.16026
G0 F6000 X22.3 Y40.401
G1 F3000 X32.7 Y50.802 E1402.13867
G0 F6000 X32.7 Y49.67
G1 F3000 X22.3 Y39.27 E1403.11704
G0 F6000 X21.902 Y38.873
G1 F3000 X15.003 Y31.973 E1403.7661
G0 F6000 X13.872 Y31.973
G1 F3000 X20.771 Y38.873 E1404.41517
G0 F6000 X19.639 Y38.873
G1 F3000 X12.74 Y31.973 E1405.06423
G0 F6000 X11.609 Y31.973
G1 F3000 X18.508 Y38.873 E1405.71329
G0 F6000 X17.377 Y38.873
G1 F3000 X10.477 Y31.973 E1406.3624
G0 F6000 X9.346 Y31.973
G1 F3000 X16.245 Y38.873 E1407.01146
G0 F6000 X15.114 Y38.873
G1 F3000 X8.215 Y31.973 E1407.66053
G0 F6000 X7.083 Y31.973
G1 F3000 X13.983 Y38.873 E1408.30964
G0 F6000 X12.851 Y38.873
G1 F3000 X5.952 Y31.973 E1408.9587
G0 F6000 X4.821 Y31.973
G1 F3000 X11.72 Y38.873 E1409.60776
G0 F6000 X10.588 Y38.873
G1 F3000 X3.689 Y31.973 E1410.25683
G0 F6000 X2.558 Y31.973
G1 F3000 X9.457 Y38.873 E1410.90589
G0 F6000 X8.326 Y38.873
G1 F3000 X1.426 Y31.973 E1411.555
G0 F6000 X0.295 Y31.973
G1 F3000 X7.194 Y38.873 E1412.20406
G0 F6000 X6.063 Y38.873
G1 F3000 X-0.835 Y31.973 E1412.85308
G0 F6000 X-1.967 Y31.973
G1 F3000 X4.932 Y38.873 E1413.50209
G0 F6000 X3.8 Y38.873
G1 F3000 X-3.098 Y31.973 E1414.15111
G0 F6000 X-4.229 Y31.974
G1 F3000 X2.669 Y38.873 E1414.80003
G0 F6000 X1.537 Y38.873
G1 F3000 X-5.36 Y31.974 E1415.44895
G0 F6000 X-6.491 Y31.974
G1 F3000 X0.406 Y38.873 E1416.09782
G0 F6000 X-0.724 Y38.873
G1 F3000 X-7.623 Y31.974 E1416.74689
G0 F6000 X-8.754 Y31.974
G1 F3000 X-1.856 Y38.873 E1417.39581
G0 F6000 X-2.987 Y38.873
G1 F3000 X-9.886 Y31.974 E1418.04487
G0 F6000 X-11.017 Y31.974
G1 F3000 X-4.118 Y38.873 E1418.69384
G0 F6000 X-5.249 Y38.873
G1 F3000 X-12.148 Y31.974 E1419.3429
G0 F6000 X-13.28 Y31.974
G1 F3000 X-6.38 Y38.873 E1419.99192
G0 F6000 X-7.512 Y38.873
G1 F3000 X-14.411 Y31.974 E1420.64098
G0 F6000 X-15.542 Y31.974
G1 F3000 X-8.643 Y38.873 E1421.28995
G0 F6000 X-9.775 Y38.873
G1 F3000 X-16.674 Y31.974 E1421.93901
G0 F6000 X-17.805 Y31.974
G1 F3000 X-10.906 Y38.873 E1422.58798
G0 F6000 X-12.037 Y38.873
G1 F3000 X-18.937 Y31.974 E1423.23709
G0 F6000 X-20.068 Y31.974
G1 F3000 X-13.169 Y38.873 E1423.88606
G0 F6000 X-14.3 Y38.873
G1 F3000 X-21.199 Y31.974 E1424.53512
G0 F6000 X-22.331 Y31.974
G1 F3000 X-15.431 Y38.873 E1425.18414
G0 F6000 X-16.563 Y38.873
G1 F3000 X-23.462 Y31.974 E1425.8332
G0 F6000 X-24.593 Y31.974
G1 F3000 X-17.694 Y38.873 E1426.48217
G0 F6000 X-18.826 Y38.873
G1 F3000 X-25.725 Y31.974 E1427.13123
G0 F6000 X-26.856 Y31.974
G1 F3000 X-19.957 Y38.873 E1427.7802
G0 F6000 X-21.088 Y38.873
G1 F3000 X-27.987 Y31.974 E1428.42926
G0 F6000 X-29.119 Y31.974
G1 F3000 X-22.22 Y38.873 E1429.07823
G0 F6000 X-23.351 Y38.873
G1 F3000 X-30.25 Y31.974 E1429.72729
G0 F6000 X-31.382 Y31.974
G1 F3000 X-24.482 Y38.873 E1430.37631
G0 F6000 X-25.614 Y38.873
G1 F3000 X-32.513 Y31.974 E1431.02537
G0 F6000 X-32.697 Y32.922
G1 F3000 X-26.745 Y38.873 E1431.58521
G0 F6000 X-27.876 Y38.873
G1 F3000 X-32.697 Y34.053 E1432.03874
G0 F6000 X-32.697 Y35.184
G1 F3000 X-29.008 Y38.873 E1432.38573
G0 F6000 X-30.139 Y38.873
G1 F3000 X-32.698 Y36.315 E1432.62646
G0 F6000 X-32.698 Y37.446
G1 F3000 X-31.271 Y38.873 E1432.76066
G0 F6000 X-32.402 Y38.873
G1 F3000 X-32.698 Y38.578 E1432.7885
G1 F3600 E1424.3885
G1 Z1.46
G0 F6000 X-34.098 Y38.578
G0 X16.134 Y31.973
G0 X16.134 Y31.973
G1 Z1.06
G1 F3600 E1433.0885
G1 F3000 X32.7 Y48.539 E1434.64693
G0 F6000 X32.7 Y47.407
G1 F3000 X17.266 Y31.973 E1436.09887
G0 F6000 X18.397 Y31.973
G1 F3000 X32.7 Y46.276 E1437.44441
G0 F6000 X32.7 Y45.145
G1 F3000 X19.528 Y31.973 E1438.68355
G0 F6000 X20.66 Y31.973
G1 F3000 X32.7 Y44.013 E1439.8162
G0 F6000 X32.7 Y42.882
G1 F3000 X21.791 Y31.973 E1440.84245
G0 F6000 X22.922 Y31.973
G1 F3000 X32.7 Y41.751 E1441.7623
G0 F6000 X32.7 Y40.619
G1 F3000 X24.054 Y31.973 E1442.57567
G0 F6000 X25.185 Y31.973
G1 F3000 X32.7 Y39.488 E1443.28263
G0 F6000 X32.7 Y38.357
G1 F3000 X25.3 Y30.957 E1443.97878
G0 F6000 X25.3 Y29.825
G1 F3000 X32.7 Y37.225 E1444.67492
G0 F6000 X32.7 Y36.094
G1 F3000 X25.3 Y28.694 E1445.37107
G0 F6000 X25.3 Y27.563
G1 F3000 X32.7 Y34.962 E1446.06717
G0 F6000 X32.7 Y33.831
G1 F3000 X25.3 Y26.431 E1446.76332
G0 F6000 X25.3 Y25.3
G1 F3000 X32.7 Y32.7 E1447.45946
G0 F6000 X32.7 Y31.568
G1 F3000 X25.3 Y24.168 E1448.15561
G0 F6000 X25.3 Y23.037
G1 F3000 X32.7 Y30.437 E1448.85176
G0 F6000 X32.7 Y29.306
G1 F3000 X25.3 Y21.906 E1449.5479
G0 F6000 X25.3 Y20.774
G1 F3000 X32.7 Y28.174 E1450.24405
G0 F6000 X32.7 Y27.043
G1 F3000 X25.3 Y19.643 E1450.9402
G0 F6000 X25.3 Y18.512
G1 F3000 X32.7 Y25.911 E1451.6363
G0 F6000 X32.7 Y24.78
G1 F3000 X25.3 Y17.38 E1452.33244
G0 F6000 X25.3 Y16.249
G1 F3000 X32.7 Y23.649 E1453.02859
G0 F6000 X32.7 Y22.517
G1 F3000 X25.3 Y15.117 E1453.72474
G0 F6000 X25.3 Y13.986
G1 F3000 X32.7 Y21.386 E1454.42088
G0 F6000 X32.7 Y20.255
G1 F3000 X25.3 Y12.855 E1455.11703
G0 F6000 X25.3 Y11.723
G1 F3000 X32.7 Y19.123 E1455.81318
G0 F6000 X32.7 Y17.992
G1 F3000 X25.3 Y10.592 E1456.50932
G0 F6000 X25.3 Y9.461
G1 F3000 X32.7 Y16.86 E1457.20542
G0 F6000 X32.7 Y15.729
G1 F3000 X25.3 Y8.329 E1457.90157
G0 F6000 X25.3 Y7.198
G1 F3000 X32.7 Y14.598 E1458.59772
G0 F6000 X32.7 Y13.466
G1 F3000 X25.3 Y6.066 E1459.29386
G0 F6000 X25.3 Y4.935
G1 F3000 X32.7 Y12.335 E1459.99001
G0 F6000 X32.7 Y11.204
G1 F3000 X25.3 Y3.804 E1460.68616
G0 F6000 X25.3 Y2.672
G1 F3000 X32.7 Y10.072 E1461.3823
G0 F6000 X32.7 Y8.941
G1 F3000 X25.3 Y1.541 E1462.07845
G0 F6000 X25.3 Y0.41
G1 F3000 X32.7 Y7.809 E1462.77455
G0 F6000 X32.7 Y6.678
G1 F3000 X25.299 Y-0.721 E1463.4707
G0 F6000 X25.299 Y-1.853
G1 F3000 X32.7 Y5.547 E1464.16684
G0 F6000 X32.7 Y4.415
G1 F3000 X25.299 Y-2.984 E1464.86299
G0 F6000 X25.299 Y-4.116
G1 F3000 X32.7 Y3.284 E1465.55914
G0 F6000 X32.7 Y2.153
G1 F3000 X25.299 Y-5.247 E1466.25533
G0 F6000 X25.299 Y-6.378
G1 F3000 X32.7 Y1.021 E1466.95143
G0 F6000 X32.7 Y-0.109
G1 F3000 X25.299 Y-7.51 E1467.64772
G0 F6000 X25.299 Y-8.641
G1 F3000 X32.7 Y-1.24 E1468.34391
G0 F6000 X32.7 Y-2.372
G1 F3000 X25.299 Y-9.772 E1469.04015
G0 F6000 X25.299 Y-10.904
G1 F3000 X32.7 Y-3.503 E1469.73634
G0 F6000 X32.7 Y-4.635
G1 F3000 X25.299 Y-12.035 E1470.43258
G0 F6000 X25.299 Y-13.167
G1 F3000 X32.7 Y-5.766 E1471.12878
G0 F6000 X32.7 Y-6.897
G1 F3000 X25.299 Y-14.298 E1471.82507
G0 F6000 X25.299 Y-15.429
G1 F3000 X32.7 Y-8.029 E1472.52121
G0 F6000 X32.7 Y-9.16
G1 F3000 X25.299 Y-16.561 E1473.2175
G0 F6000 X25.299 Y-17.692
G1 F3000 X32.7 Y-10.291 E1473.91369
G0 F6000 X32.7 Y-11.423
G1 F3000 X25.299 Y-18.823 E1474.60994
G0 F6000 X25.299 Y-19.955
G1 F3000 X32.7 Y-12.554 E1475.30613
G0 F6000 X32.7 Y-13.686
G1 F3000 X25.299 Y-21.086 E1476.00237
G0 F6000 X25.299 Y-22.218
G1 F3000 X32.7 Y-14.817 E1476.69856
G0 F6000 X32.7 Y-15.948
G1 F3000 X25.299 Y-23.349 E1477.39485
G0 F6000 X25.299 Y-24.48
G1 F3000 X32.7 Y-17.08 E1478.091
G0 F6000 X32.7 Y-18.211
G1 F3000 X25.299 Y-25.612 E1478.78729
G0 F6000 X25.299 Y-26.743
G1 F3000 X32.7 Y-19.342 E1479.48348
G0 F6000 X32.7 Y-20.474
G1 F3000 X25.299 Y-27.874 E1480.17972
G0 F6000 X25.299 Y-29.006
G1 F3000 X32.7 Y-21.605 E1480.87591
G0 F6000 X32.7 Y-22.737
G1 F3000 X25.299 Y-30.137 E1481.57215
G0 F6000 X25.299 Y-31.268
G1 F3000 X32.7 Y-23.868 E1482.2683
G0 F6000 X32.7 Y-24.999
G1 F3000 X18.826 Y-38.873 E1483.57353
G0 F6000 X17.695 Y-38.873
G1 F3000 X24.595 Y-31.973 E1484.22259
G0 F6000 X23.463 Y-31.973
G1 F3000 X16.563 Y-38.873 E1484.87175
G0 F6000 X15.432 Y-38.873
G1 F3000 X22.332 Y-31.973 E1485.52081
G0 F6000 X21.201 Y-31.973
G1 F3000 X14.301 Y-38.873 E1486.16997
G0 F6000 X13.169 Y-38.873
G1 F3000 X20.069 Y-31.973 E1486.81903
G0 F6000 X18.938 Y-31.973
G1 F3000 X12.038 Y-38.873 E1487.46819
G0 F6000 X10.907 Y-38.873
G1 F3000 X17.807 Y-31.973 E1488.11725
G0 F6000 X16.675 Y-31.973
G1 F3000 X9.775 Y-38.873 E1488.76641
G0 F6000 X8.644 Y-38.873
G1 F3000 X15.544 Y-31.973 E1489.41547
G0 F6000 X14.412 Y-31.973
G1 F3000 X7.513 Y-38.873 E1490.06458
G0 F6000 X6.381 Y-38.873
G1 F3000 X13.281 Y-31.973 E1490.71364
G0 F6000 X12.15 Y-31.973
G1 F3000 X5.25 Y-38.873 E1491.3628
G0 F6000 X4.118 Y-38.873
G1 F3000 X11.018 Y-31.973 E1492.01186
G0 F6000 X9.886 Y-31.973
G1 F3000 X2.987 Y-38.873 E1492.66097
G0 F6000 X1.856 Y-38.873
G1 F3000 X8.755 Y-31.973 E1493.30999
G0 F6000 X7.624 Y-31.973
G1 F3000 X0.724 Y-38.873 E1493.95914
G0 F6000 X-0.406 Y-38.873
G1 F3000 X6.492 Y-31.973 E1494.60806
G0 F6000 X5.361 Y-31.973
G1 F3000 X-1.537 Y-38.873 E1495.25713
G0 F6000 X-2.669 Y-38.873
G1 F3000 X4.229 Y-31.973 E1495.90605
G0 F6000 X3.098 Y-31.973
G1 F3000 X-3.8 Y-38.873 E1496.55511
G0 F6000 X-4.932 Y-38.873
G1 F3000 X1.967 Y-31.973 E1497.20408
G0 F6000 X0.835 Y-31.973
G1 F3000 X-6.064 Y-38.873 E1497.85319
G0 F6000 X-7.195 Y-38.873
G1 F3000 X-0.295 Y-31.973 E1498.5022
G0 F6000 X-1.426 Y-31.973
G1 F3000 X-8.326 Y-38.873 E1499.15141
G0 F6000 X-9.458 Y-38.873
G1 F3000 X-2.558 Y-31.973 E1499.80042
G0 F6000 X-3.689 Y-31.973
G1 F3000 X-10.589 Y-38.873 E1500.44963
G0 F6000 X-11.721 Y-38.873
G1 F3000 X-4.821 Y-31.973 E1501.09864
G0 F6000 X-5.952 Y-31.973
G1 F3000 X-12.852 Y-38.873 E1501.74785
G0 F6000 X-13.983 Y-38.873
G1 F3000 X-7.083 Y-31.973 E1502.39686
G0 F6000 X-8.215 Y-31.973
G1 F3000 X-15.115 Y-38.873 E1503.04607
G0 F6000 X-16.246 Y-38.873
G1 F3000 X-9.346 Y-31.973 E1503.69508
G0 F6000 X-10.477 Y-31.973
G1 F3000 X-17.377 Y-38.873 E1504.34429
G0 F6000 X-18.509 Y-38.873
G1 F3000 X-11.609 Y-31.973 E1504.9933
G0 F6000 X-12.74 Y-31.973
G1 F3000 X-19.64 Y-38.873 E1505.64251
G0 F6000 X-20.771 Y-38.873
G1 F3000 X-13.872 Y-31.973 E1506.29147
G0 F6000 X-15.003 Y-31.973
G1 F3000 X-21.903 Y-38.873 E1506.94068
G0 F6000 X-23.034 Y-38.873
G1 F3000 X-16.134 Y-31.973 E1507.58969
G0 F6000 X-17.266 Y-31.973
G1 F3000 X-24.166 Y-38.873 E1508.2389
G0 F6000 X-25.297 Y-38.873
G1 F3000 X-18.398 Y-31.974 E1508.88782
G0 F6000 X-19.529 Y-31.974
G1 F3000 X-26.428 Y-38.873 E1509.53693
G0 F6000 X-27.56 Y-38.873
G1 F3000 X-20.66 Y-31.974 E1510.1859
G0 F6000 X-21.792 Y-31.974
G1 F3000 X-28.691 Y-38.873 E1510.83501
G0 F6000 X-29.822 Y-38.873
G1 F3000 X-22.923 Y-31.974 E1511.48393
G0 F6000 X-24.055 Y-31.974
G1 F3000 X-30.954 Y-38.873 E1512.13304
G0 F6000 X-32.085 Y-38.873
G1 F3000 X-25.186 Y-31.974 E1512.78196
G0 F6000 X-26.317 Y-31.974
G1 F3000 X-32.698 Y-38.354 E1513.38229
G0 F6000 X-32.698 Y-37.223
G1 F3000 X-27.449 Y-31.974 E1513.87599
G0 F6000 X-28.58 Y-31.974
G1 F3000 X-32.698 Y-36.092 E1514.26348
G0 F6000 X-32.697 Y-34.96
G1 F3000 X-29.711 Y-31.974 E1514.54429
G0 F6000 X-30.843 Y-31.974
G1 F3000 X-32.697 Y-33.828 E1514.7188
G0 F6000 X-32.697 Y-32.697
G1 F3000 X-31.974 Y-31.974 E1514.78672
G1 F3600 E1506.38672
G1 Z1.46
G0 F6000 X-31.974 Y-30.574
G0 X19.958 Y-38.873
G0 X19.958 Y-38.873
G1 Z1.06
G1 F3600 E1515.08672
G1 F3000 X32.7 Y-26.131 E1516.28536
G0 F6000 X32.7 Y-27.262
G1 F3000 X21.089 Y-38.873 E1517.3777
G0 F6000 X22.22 Y-38.873
G1 F3000 X32.7 Y-28.393 E1518.36355
G0 F6000 X32.7 Y-29.525
G1 F3000 X22.3 Y-39.925 E1519.34196
G0 F6000 X22.3 Y-41.056
G1 F3000 X32.7 Y-30.656 E1520.32029
G0 F6000 X32.7 Y-31.787
G1 F3000 X22.3 Y-42.188 E1521.29875
G0 F6000 X22.3 Y-43.319
G1 F3000 X32.7 Y-32.919 E1522.27707
G0 F6000 X32.7 Y-34.05
G1 F3000 X22.3 Y-44.45 E1523.25548
G0 F6000 X22.3 Y-45.582
G1 F3000 X32.7 Y-35.182 E1524.2338
G0 F6000 X32.7 Y-36.313
G1 F3000 X22.3 Y-46.713 E1525.21222
G0 F6000 X22.3 Y-47.844
G1 F3000 X32.7 Y-37.444 E1526.19054
G0 F6000 X32.7 Y-38.576
G1 F3000 X22.3 Y-48.976 E1527.16896
G0 F6000 X22.3 Y-50.107
G1 F3000 X32.7 Y-39.707 E1528.14728
G0 F6000 X32.7 Y-40.838
G1 F3000 X22.3 Y-51.239 E1529.12574
G0 F6000 X22.3 Y-52.37
G1 F3000 X32.7 Y-41.97 E1530.10406
G0 F6000 X32.7 Y-43.101
G1 F3000 X22.3 Y-53.501 E1531.08248
G0 F6000 X22.3 Y-54.633
G1 F3000 X32.7 Y-44.233 E1532.0608
G0 F6000 X32.7 Y-45.364
G1 F3000 X22.3 Y-55.764 E1533.03921
G0 F6000 X22.3 Y-56.895
G1 F3000 X32.7 Y-46.495 E1534.01753
G0 F6000 X32.7 Y-47.627
G1 F3000 X22.3 Y-58.027 E1534.99595
G0 F6000 X22.3 Y-59.158
G1 F3000 X32.7 Y-48.758 E1535.97427
G0 F6000 X32.7 Y-49.889
G1 F3000 X22.3 Y-60.29 E1536.95273
G0 F6000 X22.3 Y-61.421
G1 F3000 X32.7 Y-51.021 E1537.93105
G0 F6000 X32.7 Y-52.152
G1 F3000 X22.3 Y-62.552 E1538.90947
G0 F6000 X22.3 Y-63.684
G1 F3000 X32.7 Y-53.284 E1539.88779
G0 F6000 X32.7 Y-54.415
G1 F3000 X22.3 Y-64.815 E1540.86621
G0 F6000 X22.3 Y-65.946
G1 F3000 X32.7 Y-55.546 E1541.84453
G0 F6000 X32.7 Y-56.678
G1 F3000 X22.465 Y-66.912 E1542.80737
G0 F6000 X23.596 Y-66.912
G1 F3000 X32.7 Y-57.809 E1543.66373
G0 F6000 X32.7 Y-58.94
G1 F3000 X24.728 Y-66.912 E1544.41373
G0 F6000 X25.859 Y-66.912
G1 F3000 X32.7 Y-60.072 E1545.0572
G0 F6000 X32.7 Y-61.203
G1 F3000 X26.99 Y-66.912 E1545.59436
G0 F6000 X28.122 Y-66.912
G1 F3000 X32.7 Y-62.334 E1546.02498
G0 F6000 X32.7 Y-63.466
G1 F3000 X29.253 Y-66.912 E1546.34925
G0 F6000 X30.385 Y-66.912
G1 F3000 X32.7 Y-64.597 E1546.56699
G0 F6000 X32.7 Y-65.729
G1 F3000 X31.516 Y-66.912 E1546.67837
G0 F6000 X32.647 Y-66.912
G1 F3000 X32.7 Y-66.86 E1546.68326
; LAYER:5
G0 F6000 X34.1 Y-66.859 Z1.26
G0 X33.8 Y-68.314
G0 X33.8 Y-68.314
G0 X33.8 Y-68.014
; TYPE:WALL-INNER
G1 F3000 X33.8 Y68.014 E1555.73182
G1 X21.2 Y68.014 E1556.56997
G1 X21.2 Y39.974 E1558.4352
G1 X-33.798 Y39.974 E1562.09368
G1 X-33.798 Y30.875 E1562.69895
G1 X24.2 Y30.875 E1566.55693
G1 X24.2 Y-30.874 E1570.66449
G1 X-33.798 Y-30.874 E1574.52253
G1 X-33.798 Y-39.974 E1575.12793
G1 X21.2 Y-39.974 E1578.78635
G1 X21.2 Y-68.014 E1580.65164
G1 X33.08 Y-68.014 E1581.4419
G0 F6000 X33 Y-67.214
G1 F3000 X33 Y67.214 E1590.38402
G1 X22 Y67.214 E1591.11575
G1 X22 Y39.174 E1592.98097
G1 X-32.998 Y39.174 E1596.63946
G1 X-32.998 Y31.675 E1597.13829
G1 X25 Y31.675 E1600.99627
G1 X25 Y-31.674 E1605.21026
G1 X-32.998 Y-31.674 E1609.0683
G1 X-32.998 Y-39.174 E1609.56727
G1 X22 Y-39.174 E1613.22569
G1 X22 Y-67.214 E1615.09098
G1 X32.28 Y-67.214 E1615.77481
G0 F6000 X33 Y-68.314
G0 X34.19 Y-68.314
G0 X34.19 Y-68.314
G0 X34.6 Y-68.814
; TYPE:WALL-OUTER
G1 F2100 X34.6 Y68.814 E1624.92979
G1 X20.4 Y68.814 E1625.87438
G1 X20.4 Y40.774 E1627.73961
G1 X-34.598 Y40.774 E1631.39809
G1 X-34.598 Y30.075 E1632.10979
G1 X23.4 Y30.075 E1635.96777
G1 X23.4 Y-30.074 E1639.9689
G1 X-34.598 Y-30.074 E1643.82694
G1 X-34.598 Y-40.774 E1644.53877
G1 X20.4 Y-40.774 E1648.19719
G1 X20.4 Y-68.814 E1650.06248
G1 X33.88 Y-68.814 E1650.95918
G0 F6000 X34.19 Y-68.314
G0 X34.1 Y-66.641
G0 X34.1 Y-66.641
G0 X32.7 Y-66.641
; TYPE:FILL
G1 F3000 X32.158 Y-66.099 E1650.99668
G1 X31.801 Y-66.912 E1651.06239
G1 X31.074 Y-66.712 E1651.09993
G1 X29.943 Y-66.712 E1651.13736
G1 X28.812 Y-66.712 E1651.17479
G1 X27.68 Y-66.712 E1651.21225
G1 X26.549 Y-66.712 E1651.24968
G1 X25.417 Y-66.712 E1651.28714
G1 X24.286 Y-66.712 E1651.32457
G1 X23.521 Y-66.513 E1651.37713
G0 F6000 X23.479 Y-66.912
G1 F3000 X24.29 Y-63.888 E1651.58533
G0 F6000 X22.699 Y-63.428
G1 F3000 X22.3 Y-63.029 E1651.62282
G0 F6000 X22.699 Y-62.297
G1 F3000 X22.3 Y-61.898 E1651.66031
G1 X24.29 Y-63.888 E1651.84757
G1 X28.751 Y-62.692 E1652.15478
G1 X28.752 Y-62.693 E1652.15492
G1 X32.017 Y-65.958 E1652.46212
G1 X32.7 Y-65.775 E1652.50914
G0 F6000 X32.7 Y-65.509
G1 F3000 X32.5 Y-64.744 E1652.54664
G1 X32.5 Y-63.613 E1652.58413
G1 X32.5 Y-62.481 E1652.62165
G1 X32.5 Y-61.35 E1652.65914
G1 X32.5 Y-60.218 E1652.69666
G1 X32.5 Y-59.087 E1652.73425
G1 X32.5 Y-57.956 E1652.77174
G1 X32.3 Y-57.19 E1652.82434
G0 F6000 X32.7 Y-57.494
G1 F3000 X29.947 Y-58.231 E1653.01393
G1 X26.681 Y-54.966 E1653.32108
G1 X26.681 Y-54.965 E1653.32108
G1 X22.3 Y-56.139 E1653.62281
G0 F6000 X22.3 Y-56.241
G1 F3000 X22.499 Y-57.006 E1653.66032
G1 X22.499 Y-58.137 E1653.69778
G1 X22.499 Y-59.269 E1653.73528
G1 X22.499 Y-60.4 E1653.77274
G1 X22.699 Y-61.166 E1653.82546
G0 F6000 X20.9 Y-61.166
G0 X20.9 Y-64.16
G0 X20.9 Y-64.16
G0 X22.3 Y-64.16
G1 F3000 X22.499 Y-64.926 E1653.86302
G1 X22.499 Y-66.057 E1653.90048
G1 X22.789 Y-66.912 E1653.9606
G1 F3600 E1645.5606
G1 Z1.66
G0 F6000 X28.751 Y-62.692
G1 Z1.26
G1 F3600 E1654.2606
G1 F3000 X29.947 Y-58.231 E1654.56777
G0 F6000 X32.3 Y-56.059
G1 F3000 X32.7 Y-55.892 E1654.60533
G1 X32.5 Y-54.562 E1654.64276
G1 X32.5 Y-53.43 E1654.68028
G1 X32.5 Y-52.299 E1654.71777
G1 X32.5 Y-51.167 E1654.7553
G1 X32.5 Y-50.036 E1654.79288
G1 X32.319 Y-49.289 E1654.83041
G1 X32.5 Y-48.048 E1654.92326
G1 X32.7 Y-48.539 E1654.95858
G0 F6000 X32.7 Y-49.67
G1 F3000 X32.338 Y-49.309 E1654.99254
G1 X32.338 Y-49.308 E1654.99254
G1 X27.876 Y-50.504 E1655.29985
G1 X24.611 Y-47.238 E1655.607
G1 X24.61 Y-47.238 E1655.6071
G1 X22.3 Y-47.857 E1655.7662
G0 F6000 X22.3 Y-48.321
G1 F3000 X22.5 Y-49.086 E1655.80385
G1 X22.5 Y-50.218 E1655.84144
G1 X22.5 Y-51.349 E1655.879
G1 X22.5 Y-52.481 E1655.91649
G1 X22.499 Y-53.612 E1655.95396
G1 X22.499 Y-54.743 E1655.99142
G1 X22.699 Y-55.509 E1656.04415
G0 F6000 X26.681 Y-54.965
G1 F3000 X27.876 Y-50.504 E1656.35129
G0 F6000 X24.61 Y-47.238
G1 F3000 X25.806 Y-42.777 E1656.65845
G0 F6000 X22.7 Y-43.064
G1 F3000 X22.5 Y-42.298 E1656.69599
G1 X22.5 Y-41.167 E1656.73358
G1 X22.3 Y-40.401 E1656.78618
G0 F6000 X22.3 Y-39.576
G1 F3000 X22.54 Y-39.511 E1656.8027
G1 X22.541 Y-39.511 E1656.80279
G1 X25.806 Y-42.777 E1657.11004
G1 X30.267 Y-41.581 E1657.41725
G1 X30.268 Y-41.582 E1657.4174
G1 X32.7 Y-44.013 E1657.64619
G1 X32.3 Y-43.614 E1657.68372
G0 F6000 X32.7 Y-42.882
G1 F3000 X32.5 Y-42.116 E1657.72126
G1 X32.5 Y-40.985 E1657.75885
G1 X32.5 Y-39.854 E1657.79634
G1 X32.5 Y-38.722 E1657.83386
G1 X32.5 Y-37.591 E1657.87144
G1 X32.3 Y-36.826 E1657.92398
G0 F6000 X32.7 Y-36.788
G1 F3000 X31.463 Y-37.12 E1658.00919
G1 X28.198 Y-33.854 E1658.31634
G1 X28.197 Y-33.854 E1658.31644
G1 X23.736 Y-35.049 E1658.62366
G1 X20.659 Y-31.973 E1658.91304
G1 X21.059 Y-32.373 E1658.95071
G0 F6000 X21.79 Y-31.973
G1 F3000 X22.556 Y-32.173 E1658.98844
G1 X23.687 Y-32.173 E1659.02597
G1 X24.819 Y-32.173 E1659.06352
G1 X25.642 Y-31.864 E1659.10108
G1 X25.499 Y-30.59 E1659.13857
G1 X25.499 Y-29.459 E1659.17616
G1 X25.499 Y-28.327 E1659.21368
G1 X25.499 Y-27.196 E1659.25127
G1 X25.299 Y-26.43 E1659.30386
G0 F6000 X25.299 Y-26.348
G1 F3000 X26.126 Y-26.126 E1659.36081
G1 X26.127 Y-26.127 E1659.36096
G1 X29.393 Y-29.393 E1659.66825
G1 X32.7 Y-28.507 E1659.89597
G0 F6000 X32.7 Y-28.174
G1 F3000 X32.5 Y-27.409 E1659.93347
G1 X32.5 Y-26.277 E1659.97099
G1 X32.5 Y-25.146 E1660.00848
G1 X32.5 Y-24.015 E1660.04597
G1 X32.5 Y-22.883 E1660.08349
G1 X32.5 Y-21.752 E1660.12098
G1 X32.3 Y-20.986 E1660.17358
G0 F6000 X32.7 Y-21.386
G1 F3000 X31.784 Y-20.47 E1660.25971
G1 X31.783 Y-20.47 E1660.2598
G1 X27.322 Y-21.665 E1660.56703
G1 X25.299 Y-19.642 E1660.75729
G1 X25.699 Y-20.042 E1660.79497
G0 F6000 X25.299 Y-20.774
G1 F3000 X25.499 Y-21.539 E1660.83262
G1 X25.499 Y-22.67 E1660.87018
G1 X25.499 Y-23.802 E1660.90777
G1 X25.499 Y-24.933 E1660.94532
G1 X25.699 Y-25.699 E1660.99805
G0 F6000 X26.126 Y-26.126
G1 F3000 X27.322 Y-21.665 E1661.30521
G0 F6000 X25.699 Y-18.911
G1 F3000 X25.499 Y-18.145 E1661.34276
G1 X25.499 Y-17.013 E1661.38037
G1 X25.499 Y-15.882 E1661.41796
G1 X25.499 Y-14.751 E1661.45554
G1 X25.299 Y-13.985 E1661.50814
G0 F6000 X25.3 Y-13.925
G1 F3000 X29.713 Y-12.742 E1661.81204
G1 X29.714 Y-12.743 E1661.81219
G1 X32.7 Y-15.729 E1662.09314
G1 X32.3 Y-15.33 E1662.13068
G0 F6000 X32.7 Y-14.598
G1 F3000 X32.5 Y-13.832 E1662.16822
G1 X32.5 Y-12.701 E1662.20571
G1 X32.5 Y-11.569 E1662.24323
G1 X32.5 Y-10.438 E1662.28082
G1 X32.5 Y-9.307 E1662.31831
G1 X32.5 Y-8.175 E1662.35583
G1 X32.3 Y-7.41 E1662.40836
G0 F6000 X32.7 Y-7.801
G1 F3000 X30.909 Y-8.281 E1662.53172
G1 X27.643 Y-5.016 E1662.83887
G1 X27.642 Y-5.015 E1662.83894
G1 X25.299 Y-5.643 E1663.00032
G0 F6000 X25.299 Y-6.066
G1 F3000 X25.499 Y-6.831 E1663.03797
G1 X25.499 Y-7.963 E1663.07547
G1 X25.499 Y-9.094 E1663.11302
G1 X25.499 Y-10.225 E1663.15058
G1 X25.499 Y-11.357 E1663.18807
G1 X25.499 Y-12.488 E1663.22563
G1 X25.699 Y-13.254 E1663.27836
G1 F3600 E1654.87836
G1 Z1.66
G0 F6000 X23.9 Y-13.254
G0 X29.713 Y-12.742
G0 X29.713 Y-12.742
G1 Z1.26
G1 F3600 E1663.57836
G1 F3000 X30.909 Y-8.281 E1663.88552
G0 F6000 X32.7 Y-6.678
G1 F3000 X32.5 Y-5.913 E1663.92302
G1 X32.5 Y-4.781 E1663.96054
G1 X32.5 Y-3.65 E1663.99803
G1 X32.5 Y-2.518 E1664.03555
G1 X32.5 Y-1.387 E1664.07314
G1 X32.5 Y-0.256 E1664.11063
G1 X32.3 Y0.509 E1664.16316
G0 F6000 X32.7 Y0.48
G1 F3000 X28.838 Y-0.554 E1664.42911
G1 X25.573 Y2.711 E1664.73621
G1 X25.572 Y2.711 E1664.73628
G1 X25.3 Y2.638 E1664.75501
G0 F6000 X25.572 Y2.711
G1 F3000 X26.768 Y7.172 E1665.06224
G0 F6000 X25.7 Y7.109
G1 F3000 X25.3 Y7.509 E1665.09987
G0 F6000 X25.7 Y8.24
G1 F3000 X25.3 Y8.64 E1665.1375
G1 X26.768 Y7.172 E1665.2756
G1 X31.229 Y8.368 E1665.58283
G1 X31.23 Y8.367 E1665.58292
G1 X32.7 Y6.897 E1665.72121
G1 X32.3 Y7.297 E1665.75884
G0 F6000 X32.7 Y8.029
G1 F3000 X32.5 Y8.794 E1665.79638
G1 X32.5 Y9.925 E1665.8339
G1 X32.5 Y11.057 E1665.87146
G1 X32.5 Y12.188 E1665.90889
G1 X32.3 Y12.954 E1665.96155
G0 F6000 X32.425 Y12.829
G1 F3000 X31.229 Y8.368 E1666.26878
G0 F6000 X32.3 Y6.165
G1 F3000 X32.5 Y5.4 E1666.30632
G1 X32.5 Y4.269 E1666.34375
G1 X32.5 Y3.137 E1666.38131
G1 X32.5 Y2.006 E1666.41874
G1 X32.7 Y1.24 E1666.4714
G0 F6000 X28.838 Y-0.554
G1 F3000 X27.642 Y-5.015 E1666.77869
G0 F6000 X23.9 Y-5.335
G0 X23.9 Y-5.335
G0 X25.699 Y-5.335
G1 F3000 X25.499 Y-4.568 E1666.81628
G1 X25.499 Y-3.437 E1666.85386
G1 X25.499 Y-2.306 E1666.89145
G1 X25.499 Y-1.174 E1666.92906
G1 X25.499 Y-0.044 E1666.96661
G1 X25.5 Y1.086 E1667.00416
G1 X25.5 Y2.217 E1667.04169
G1 X25.5 Y3.349 E1667.07924
G1 X25.5 Y4.48 E1667.11677
G1 X25.5 Y5.611 E1667.15429
G1 X25.3 Y6.378 E1667.20702
G0 F6000 X23.9 Y6.378
G0 X23.9 Y9.371
G0 X23.9 Y9.371
G0 X25.7 Y9.371
G1 F3000 X25.5 Y10.137 E1667.24467
G1 X25.5 Y11.268 E1667.28219
G1 X25.5 Y12.4 E1667.31975
G1 X25.5 Y13.531 E1667.35727
G1 X25.3 Y14.297 E1667.40994
G0 F6000 X25.3 Y15.061
G1 F3000 X29.158 Y16.095 E1667.67563
G1 X29.159 Y16.095 E1667.6757
G1 X32.425 Y12.829 E1667.98294
G1 X32.7 Y12.903 E1668.00188
G0 F6000 X32.7 Y13.686
G1 F3000 X32.5 Y14.451 E1668.03943
G1 X32.5 Y15.582 E1668.07686
G1 X32.5 Y16.714 E1668.11441
G1 X32.5 Y17.845 E1668.15184
G1 X32.5 Y18.976 E1668.18936
G1 X32.5 Y20.108 E1668.22692
G1 X32.3 Y20.873 E1668.27952
G0 F6000 X32.7 Y21.185
G1 F3000 X30.354 Y20.557 E1668.44107
G1 X27.089 Y23.822 E1668.74822
G1 X27.088 Y23.823 E1668.74832
G1 X25.299 Y23.343 E1668.87153
G0 F6000 X25.3 Y23.348
G1 F3000 X25.5 Y22.582 E1668.90912
G1 X25.5 Y21.451 E1668.94664
G1 X25.5 Y20.319 E1668.9842
G1 X25.5 Y19.188 E1669.02172
G1 X25.5 Y18.056 E1669.05937
G1 X25.5 Y16.925 E1669.09689
G1 X25.5 Y15.794 E1669.13442
G1 X25.7 Y15.028 E1669.18708
G0 F6000 X29.158 Y16.095
G1 F3000 X30.354 Y20.557 E1669.49437
G0 F6000 X32.3 Y22.005
G1 F3000 X32.7 Y22.171 E1669.53193
G1 X32.5 Y23.502 E1669.56942
G1 X32.5 Y24.633 E1669.60685
G1 X32.5 Y25.765 E1669.64441
G1 X32.5 Y26.896 E1669.68184
G1 X32.5 Y28.027 E1669.71936
G1 X32.3 Y28.793 E1669.77202
G0 F6000 X32.7 Y29.467
G1 F3000 X28.284 Y28.284 E1670.07613
G1 X25.3 Y31.268 E1670.35685
G1 X25.7 Y30.868 E1670.39448
G0 F6000 X25.3 Y30.136
G1 F3000 X25.5 Y29.37 E1670.43207
G1 X25.5 Y28.239 E1670.46959
G1 X25.5 Y27.107 E1670.50724
G1 X25.5 Y25.976 E1670.54476
G1 X25.5 Y24.845 E1670.58229
G1 X25.7 Y24.079 E1670.63495
G0 F6000 X27.088 Y23.823
G1 F3000 X28.284 Y28.284 E1670.94218
G0 F6000 X32.3 Y29.924
G1 F3000 X32.7 Y30.09 E1670.9797
G1 X32.5 Y31.421 E1671.0173
G1 X32.5 Y32.553 E1671.05486
G1 X32.5 Y33.684 E1671.09229
G1 X32.5 Y34.816 E1671.12985
G1 X32.3 Y35.581 E1671.18244
G0 F6000 X32.7 Y35.182
G1 F3000 X30.675 Y37.206 E1671.3729
G1 X30.674 Y37.207 E1671.37299
G1 X26.213 Y36.011 E1671.68022
G1 X22.948 Y39.276 E1671.98737
G1 X22.947 Y39.277 E1671.98746
G1 X22.3 Y39.103 E1672.03203
G0 F6000 X22.22 Y38.873
G1 F3000 X22.621 Y38.472 E1672.06975
G0 F6000 X22.947 Y39.277
G1 F3000 X24.143 Y43.738 E1672.37698
G0 F6000 X22.7 Y44.05
G1 F3000 X22.3 Y44.45 E1672.41461
G0 F6000 X22.7 Y45.182
G1 F3000 X22.3 Y45.582 E1672.45224
G1 X24.143 Y43.738 E1672.62566
G1 X28.604 Y44.934 E1672.93289
G1 X28.605 Y44.933 E1672.93299
G1 X31.87 Y41.668 E1673.24014
G1 X32.7 Y41.891 E1673.29731
G0 F6000 X32.7 Y41.97
G1 F3000 X32.3 Y42.369 E1673.33489
G0 F6000 X31.87 Y41.668
G1 F3000 X30.674 Y37.207 E1673.64212
G0 F6000 X32.3 Y36.712
G1 F3000 X32.7 Y36.878 E1673.67964
G1 X32.5 Y38.21 E1673.71716
G1 X32.5 Y39.341 E1673.75459
G1 X32.5 Y40.472 E1673.79211
G1 X32.3 Y41.238 E1673.84477
G0 F6000 X32.7 Y43.101
G1 F3000 X32.5 Y43.867 E1673.88236
G1 X32.5 Y44.998 E1673.91979
G1 X32.5 Y46.129 E1673.95722
G1 X32.5 Y47.261 E1673.99478
G1 X32.5 Y48.392 E1674.0322
G1 X32.5 Y49.523 E1674.06973
G1 X32.3 Y50.289 E1674.12239
G0 F6000 X32.7 Y50.172
G1 F3000 X29.8 Y49.395 E1674.3221
G1 X26.534 Y52.661 E1674.62935
G1 X26.534 Y52.661 E1674.62935
G1 X22.3 Y51.527 E1674.92092
G0 F6000 X22.3 Y51.239
G1 F3000 X22.5 Y50.472 E1674.95856
G1 X22.5 Y49.341 E1674.99608
G1 X22.5 Y48.21 E1675.0336
G1 X22.5 Y47.078 E1675.07116
G1 X22.7 Y46.313 E1675.12376
G0 F6000 X20.9 Y43.319
G0 X20.9 Y43.319
G0 X22.3 Y43.319
G1 F3000 X22.5 Y42.553 E1675.16135
G1 X22.5 Y41.421 E1675.199
G1 X22.5 Y40.29 E1675.23652
G1 X22.7 Y39.525 E1675.28912
G0 F6000 X21.438 Y38.873
G1 F3000 X18.486 Y38.081 E1675.49243
G1 X17.695 Y38.873 E1675.56689
G1 X18.095 Y38.472 E1675.60457
G0 F6000 X18.486 Y38.081
G1 F3000 X17.29 Y33.62 E1675.91179
G0 F6000 X17.404 Y32.375
G1 F3000 X17.806 Y31.973 E1675.94961
G0 F6000 X18.536 Y32.374
G1 F3000 X18.937 Y31.973 E1675.98733
G1 X17.291 Y33.62 E1676.14223
G1 X17.29 Y33.62 E1676.14229
G1 X12.829 Y32.425 E1676.4495
G1 X9.564 Y35.69 E1676.75665
G1 X9.563 Y35.691 E1676.75675
G1 X5.102 Y34.495 E1677.06397
G1 X1.837 Y37.76 E1677.37113
G1 X1.836 Y37.761 E1677.37122
G1 X-2.624 Y36.565 E1677.67838
G1 X-4.932 Y38.873 E1677.89555
G1 X-4.531 Y38.472 E1677.93323
G0 F6000 X-3.8 Y38.873
G1 F3000 X-3.034 Y38.672 E1677.97085
G1 X-1.903 Y38.672 E1678.00843
G1 X-0.771 Y38.672 E1678.04605
G1 X0.359 Y38.672 E1678.08369
G1 X1.49 Y38.672 E1678.12141
G1 X2.195 Y38.672 E1678.15904
G1 X1.836 Y37.761 E1678.22418
G0 F6000 X2.987 Y38.873
G1 F3000 X3.752 Y38.672 E1678.26186
G1 X4.884 Y38.672 E1678.29951
G1 X6.015 Y38.672 E1678.33713
G1 X7.147 Y38.672 E1678.37478
G1 X8.278 Y38.672 E1678.4124
G1 X9.409 Y38.672 E1678.45001
G1 X10.175 Y38.472 E1678.50268
G0 F6000 X10.416 Y38.873
G1 F3000 X9.563 Y35.691 E1678.72182
G0 F6000 X11.307 Y38.472
G1 F3000 X11.472 Y38.873 E1678.7595
G1 X12.803 Y38.672 E1678.7971
G1 X13.935 Y38.672 E1678.83475
G1 X15.066 Y38.672 E1678.87237
G1 X16.197 Y38.672 E1678.90999
G1 X16.964 Y38.472 E1678.96272
G0 F6000 X18.826 Y38.873
G1 F3000 X19.592 Y38.672 E1679.00038
G1 X20.723 Y38.672 E1679.038
G1 X21.489 Y38.472 E1679.09066
G0 F6000 X26.213 Y36.011
G1 F3000 X25.131 Y31.973 E1679.36875
G0 F6000 X25.325 Y32.374
G1 F3000 X25.147 Y31.986 E1679.40406
G1 X23.828 Y32.173 E1679.44162
G1 X22.696 Y32.173 E1679.47927
G1 X21.565 Y32.173 E1679.51698
G1 X20.434 Y32.173 E1679.55469
G1 X19.668 Y32.374 E1679.60737
G0 F6000 X16.674 Y31.973
G1 F3000 X15.908 Y32.174 E1679.6451
G1 X14.776 Y32.174 E1679.68284
G1 X13.645 Y32.174 E1679.72056
G1 X12.853 Y32.4 E1679.75843
G1 X12.428 Y31.973 E1679.78944
G1 X11.382 Y32.174 E1679.82725
G1 X10.25 Y32.174 E1679.86509
G1 X9.119 Y32.174 E1679.9029
G1 X7.988 Y32.175 E1679.9408
G1 X6.856 Y32.175 E1679.97873
G1 X5.725 Y32.175 E1680.01663
G1 X4.958 Y32.377 E1680.06939
G0 F6000 X4.426 Y31.973
G1 F3000 X5.102 Y34.495 E1680.24308
G0 F6000 X3.826 Y30.575
G0 X3.826 Y30.575
G0 X3.826 Y32.377
G1 F3000 X3.663 Y31.973 E1680.28104
G1 X2.33 Y32.175 E1680.31893
G1 X1.199 Y32.175 E1680.35683
G1 X0.068 Y32.175 E1680.39473
G1 X-1.062 Y32.175 E1680.43269
G1 X-2.194 Y32.175 E1680.47065
G1 X-3.325 Y32.175 E1680.50868
G1 X-4.094 Y32.378 E1680.56165
G0 F6000 X-3.82 Y32.104
G1 F3000 X-2.624 Y36.565 E1680.86886
G0 F6000 X-5.663 Y38.473
G1 F3000 X-6.429 Y38.673 E1680.90656
G1 X-7.56 Y38.673 E1680.94412
G1 X-8.692 Y38.673 E1680.98161
G1 X-9.458 Y38.873 E1681.03434
G0 F6000 X-9.466 Y38.873
G1 F3000 X-10.352 Y38.636 E1681.09541
G1 X-10.589 Y38.873 E1681.11776
G1 X-10.189 Y38.473 E1681.15534
G0 F6000 X-10.352 Y38.636
G1 F3000 X-11.547 Y34.175 E1681.46257
G0 F6000 X-12.015 Y32.379
G1 F3000 X-11.246 Y32.176 E1681.50061
G1 X-10.478 Y31.974 E1681.55337
G0 F6000 X-9.751 Y32.379
G1 F3000 X-9.347 Y31.974 E1681.59138
G1 X-11.547 Y34.174 E1681.79839
G1 X-11.547 Y34.175 E1681.79848
G1 X-16.008 Y32.979 E1682.10577
G1 X-19.274 Y36.244 E1682.41302
G1 X-19.275 Y36.245 E1682.41317
G1 X-23.736 Y35.049 E1682.72046
G1 X-27.001 Y38.315 E1683.0277
G1 X-27.002 Y38.315 E1683.02784
G1 X-31.463 Y37.12 E1683.33511
G1 X-32.698 Y38.354 E1683.45129
G1 X-32.297 Y37.954 E1683.48892
G0 F6000 X-31.685 Y38.473
G1 F3000 X-31.519 Y38.873 E1683.52663
G1 X-30.188 Y38.673 E1683.5642
G1 X-29.056 Y38.673 E1683.60173
G1 X-27.925 Y38.673 E1683.63931
G1 X-27.08 Y38.394 E1683.67693
G1 X-26.64 Y38.873 E1683.71534
G1 X-25.662 Y38.673 E1683.75291
G1 X-24.531 Y38.673 E1683.79049
G1 X-23.399 Y38.673 E1683.82811
G1 X-22.268 Y38.673 E1683.86569
G1 X-21.137 Y38.673 E1683.90328
G1 X-20.005 Y38.673 E1683.9408
G1 X-19.24 Y38.473 E1683.99334
G0 F6000 X-18.57 Y38.873
G1 F3000 X-19.275 Y36.245 E1684.17435
G0 F6000 X-18.109 Y38.473
G1 F3000 X-17.943 Y38.873 E1684.21205
G1 X-16.611 Y38.673 E1684.24966
G1 X-15.48 Y38.673 E1684.28724
G1 X-14.348 Y38.673 E1684.32486
G1 X-13.217 Y38.673 E1684.36244
G1 X-12.086 Y38.673 E1684.40003
G1 X-11.32 Y38.473 E1684.45263
G0 F6000 X-13.146 Y30.575
G0 X-13.146 Y30.575
G0 X-13.146 Y32.379
G1 F3000 X-13.306 Y31.974 E1684.49071
G1 X-14.64 Y32.176 E1684.52866
G1 X-15.772 Y32.177 E1684.56672
G1 X-16.409 Y32.177 E1684.60486
G1 X-16.008 Y32.979 E1684.66448
G0 F6000 X-17.266 Y31.974
G1 F3000 X-18.035 Y32.177 E1684.70262
G1 X-19.166 Y32.177 E1684.74074
G1 X-20.297 Y32.177 E1684.77886
G1 X-21.429 Y32.177 E1684.81711
G1 X-22.56 Y32.177 E1684.85523
G1 X-23.692 Y32.177 E1684.89348
G1 X-24.461 Y32.381 E1684.94647
G0 F6000 X-24.559 Y31.974
G1 F3000 X-23.736 Y35.049 E1685.1582
G0 F6000 X-25.593 Y32.381
G1 F3000 X-25.751 Y31.974 E1685.19646
G1 X-27.087 Y32.177 E1685.23469
G1 X-28.218 Y32.177 E1685.27291
G1 X-29.349 Y32.177 E1685.31112
G1 X-30.481 Y32.178 E1685.34937
G1 X-31.612 Y32.178 E1685.38768
G1 X-32.697 Y32.697 E1685.46775
G0 F6000 X-32.697 Y32.649
G1 F3000 X-32.659 Y32.659 E1685.4703
G1 X-32.658 Y32.658 E1685.47036
G1 X-31.974 Y31.974 E1685.53466
G0 F6000 X-32.659 Y32.659
G1 F3000 X-31.463 Y37.12 E1685.84187
G0 F6000 X-32.297 Y36.823
G1 F3000 X-32.698 Y36.657 E1685.87966
G1 X-32.497 Y35.325 E1685.91729
G1 X-32.497 Y34.194 E1685.95482
G1 X-32.297 Y33.429 E1686.0074
G1 F3600 E1677.6074
G1 Z1.66
G0 F6000 X-34.098 Y33.429
G0 X-8.62 Y30.575
G0 X-8.62 Y30.575
G0 X-8.62 Y32.379
G1 Z1.26
G1 F3600 E1686.3074
G1 F3000 X-7.851 Y32.176 E1686.34544
G1 X-6.72 Y32.176 E1686.3834
G1 X-5.589 Y32.176 E1686.42136
G1 X-4.821 Y31.974 E1686.47413
G0 F6000 X-4.306 Y31.974
G1 F3000 X-3.82 Y32.104 E1686.50753
G1 X-3.819 Y32.104 E1686.50753
G1 X-3.689 Y31.973 E1686.51976
G1 F3600 E1678.11976
G1 Z1.66
G0 F6000 X-3.689 Y30.575
G0 X7.843 Y40.245
G0 X20.941 Y40.233
G0 X22.3 Y52.37
G0 X22.3 Y52.37
G1 Z1.26
G1 F3600 E1686.81976
G1 F3000 X22.699 Y52.536 E1686.85734
G1 X22.499 Y53.867 E1686.89483
G1 X22.499 Y54.999 E1686.9323
G1 X22.499 Y56.13 E1686.96973
G1 X22.499 Y57.261 E1687.00716
G1 X22.499 Y58.393 E1687.04462
G1 X22.3 Y59.158 E1687.0972
G0 F6000 X22.3 Y59.809
G1 F3000 X24.463 Y60.389 E1687.24617
G1 X24.464 Y60.388 E1687.24626
G1 X27.729 Y57.122 E1687.55346
G1 X32.191 Y58.318 E1687.86075
G1 X32.191 Y58.317 E1687.86082
G1 X32.7 Y57.809 E1687.90865
G1 X32.3 Y58.209 E1687.94628
G0 F6000 X32.191 Y58.318
G1 F3000 X32.7 Y60.217 E1688.07706
G0 F6000 X32.7 Y60.072
G1 F3000 X32.5 Y60.837 E1688.1146
G1 X32.5 Y61.968 E1688.15213
G1 X32.5 Y63.1 E1688.18968
G1 X32.3 Y63.865 E1688.24228
G0 F6000 X32.7 Y63.466
G1 F3000 X30.121 Y66.045 E1688.4849
G1 X30.12 Y66.045 E1688.48497
G1 X25.659 Y64.85 E1688.79217
G1 X23.596 Y66.912 E1688.9862
G1 X23.996 Y66.513 E1689.02378
G0 F6000 X24.728 Y66.912
G1 F3000 X25.493 Y66.712 E1689.06133
G1 X26.624 Y66.712 E1689.09876
G1 X27.756 Y66.712 E1689.13622
G1 X28.887 Y66.712 E1689.17365
G1 X29.886 Y66.279 E1689.21113
G1 X30.368 Y66.912 E1689.2708
G1 X31.15 Y66.712 E1689.30832
G1 X32.107 Y66.32 E1689.34581
G1 X32.5 Y65.363 E1689.38332
G1 X32.7 Y64.597 E1689.43598
G0 F6000 X32.7 Y66.86
G1 F3000 X32.647 Y66.912 E1689.44092
G0 F6000 X25.659 Y64.85
G1 F3000 X24.463 Y60.389 E1689.74815
G0 F6000 X22.699 Y59.89
G1 F3000 X22.499 Y60.655 E1689.78569
G1 X22.499 Y61.787 E1689.82315
G1 X22.499 Y62.918 E1689.86058
G1 X22.499 Y64.05 E1689.89804
G1 X22.499 Y65.181 E1689.93547
G1 X22.582 Y66.229 E1689.97297
G1 X22.465 Y66.912 E1690.01907
G0 F6000 X27.729 Y57.122
G1 F3000 X26.534 Y52.661 E1690.32628
G0 F6000 X29.8 Y49.395
G1 F3000 X28.604 Y44.934 E1690.6335
G0 F6000 X32.7 Y51.021
G1 F3000 X32.5 Y51.786 E1690.67105
G1 X32.5 Y52.918 E1690.7086
G1 X32.5 Y54.049 E1690.74603
G1 X32.5 Y55.18 E1690.78346
G1 X32.5 Y56.312 E1690.82102
G1 X32.3 Y57.077 E1690.87361
G0 F6000 X32.7 Y58.94
G1 F3000 X32.3 Y59.34 E1690.91124
G0 F6000 X32.3 Y-16.461
G1 F3000 X32.7 Y-16.86 E1690.94887
G0 F6000 X32.7 Y-17.05
G1 F3000 X31.783 Y-20.47 E1691.18447
G0 F6000 X32.3 Y-19.855
G1 F3000 X32.7 Y-19.689 E1691.22218
G1 X32.5 Y-18.358 E1691.25964
G1 X32.3 Y-17.592 E1691.31224
G0 F6000 X32.3 Y-28.906
G1 F3000 X32.5 Y-29.671 E1691.3499
G1 X32.5 Y-30.803 E1691.38739
G1 X32.5 Y-31.934 E1691.42485
G1 X32.5 Y-33.066 E1691.46235
G1 X32.5 Y-34.197 E1691.49981
G1 X32.5 Y-35.328 E1691.53727
G1 X32.7 Y-36.094 E1691.59
G0 F6000 X31.463 Y-37.12
G1 F3000 X30.267 Y-41.581 E1691.89729
G0 F6000 X32.3 Y-44.745
G1 F3000 X32.5 Y-45.511 E1691.93492
G1 X32.5 Y-46.642 E1691.97239
G1 X32.7 Y-47.407 E1692.02505
G0 F6000 X20.9 Y-47.59
G0 X20.9 Y-47.59
G0 X22.7 Y-47.59
G1 F3000 X22.5 Y-46.824 E1692.06259
G1 X22.5 Y-45.692 E1692.10021
G1 X22.5 Y-44.561 E1692.13779
G1 X22.3 Y-43.796 E1692.19033
G0 F6000 X20.9 Y-43.796
G0 X22.7 Y-39.67
G0 X22.7 Y-39.67
G1 F3000 X22.3 Y-39.27 E1692.22791
G0 F6000 X22.54 Y-39.511
G1 F3000 X23.736 Y-35.049 E1692.53514
G0 F6000 X22.633 Y-38.472
G1 F3000 X22.301 Y-38.706 E1692.54146
G1 X21.136 Y-38.672 E1692.57906
G1 X20.005 Y-38.672 E1692.61668
G1 X18.873 Y-38.672 E1692.65433
G1 X17.742 Y-38.672 E1692.69195
G1 X16.61 Y-38.672 E1692.7296
G1 X15.845 Y-38.472 E1692.78218
G0 F6000 X16.245 Y-38.873
G1 F3000 X14.813 Y-37.441 E1692.91685
G1 X14.813 Y-37.44 E1692.91685
G1 X10.352 Y-38.636 E1693.22409
G1 X7.086 Y-35.37 E1693.53129
G1 X7.085 Y-35.37 E1693.53138
G1 X2.624 Y-36.565 E1693.83861
G1 X-0.64 Y-33.3 E1694.14567
G1 X-0.641 Y-33.299 E1694.1458
G1 X-5.102 Y-34.495 E1694.45311
G1 X-7.624 Y-31.973 E1694.69036
G1 X-7.224 Y-32.373 E1694.72799
G0 F6000 X-6.492 Y-31.973
G1 F3000 X-5.727 Y-32.173 E1694.7655
G1 X-4.595 Y-32.173 E1694.80302
G1 X-3.464 Y-32.173 E1694.84051
G1 X-2.333 Y-32.173 E1694.878
G1 X-1.201 Y-32.173 E1694.91553
G1 X-0.36 Y-32.173 E1694.95303
G1 X-0.641 Y-33.299 E1695.03031
G0 F6000 X0.295 Y-31.973
G1 F3000 X1.06 Y-32.173 E1695.068
G1 X2.192 Y-32.173 E1695.10555
G1 X3.323 Y-32.173 E1695.14298
G1 X4.455 Y-32.173 E1695.18054
G1 X5.586 Y-32.173 E1695.21797
G1 X6.717 Y-32.173 E1695.2554
G1 X7.483 Y-32.373 E1695.30808
G0 F6000 X7.995 Y-31.973
G1 F3000 X7.085 Y-35.37 E1695.54208
G0 F6000 X6.794 Y-40.274
G0 X6.794 Y-40.274
G0 X6.794 Y-38.472
G1 F3000 X7.559 Y-38.672 E1695.57983
G1 X8.691 Y-38.672 E1695.61748
G1 X9.872 Y-38.873 E1695.65504
G1 X10.27 Y-38.554 E1695.67135
G1 X10.954 Y-38.672 E1695.70899
G1 X12.085 Y-38.672 E1695.74661
G1 X13.216 Y-38.672 E1695.78422
G1 X14.348 Y-38.672 E1695.82187
G1 X15.114 Y-38.873 E1695.87457
G0 F6000 X14.813 Y-37.44
G1 F3000 X16.008 Y-32.979 E1696.18171
G0 F6000 X16.534 Y-32.373
G1 F3000 X16.134 Y-31.973 E1696.2193
G0 F6000 X15.402 Y-32.373
G1 F3000 X15.002 Y-31.973 E1696.25688
G1 X16.008 Y-32.979 E1696.35156
G1 X19.762 Y-31.973 E1696.61008
G0 F6000 X19.528 Y-31.973
G1 F3000 X19.362 Y-32.373 E1696.64772
G1 X18.03 Y-32.173 E1696.68534
G1 X17.265 Y-31.973 E1696.73792
G0 F6000 X14.271 Y-32.373
G1 F3000 X13.505 Y-32.173 E1696.77543
G1 X12.373 Y-32.173 E1696.81308
G1 X11.242 Y-32.173 E1696.85061
G1 X10.111 Y-32.173 E1696.88813
G1 X8.98 Y-32.173 E1696.92565
G1 X8.215 Y-31.973 E1696.97824
G0 F6000 X5.663 Y-40.274
G0 X5.663 Y-40.274
G0 X5.663 Y-38.472
G1 F3000 X5.497 Y-38.873 E1697.01603
G1 X4.165 Y-38.672 E1697.05366
G1 X3.034 Y-38.672 E1697.09128
G1 X2.269 Y-38.472 E1697.14386
G0 F6000 X2.006 Y-38.873
G1 F3000 X2.624 Y-36.565 E1697.30273
G0 F6000 X1.137 Y-40.274
G0 X1.137 Y-40.274
G0 X1.137 Y-38.472
G1 F3000 X0.971 Y-38.873 E1697.34052
G1 X-0.359 Y-38.672 E1697.3781
G1 X-1.49 Y-38.672 E1697.41575
G1 X-2.621 Y-38.672 E1697.4534
G1 X-3.752 Y-38.672 E1697.49105
G1 X-4.884 Y-38.672 E1697.52873
G1 X-5.649 Y-38.473 E1697.58136
G0 F6000 X-6.276 Y-38.873
G1 F3000 X-5.102 Y-34.495 E1697.8828
G0 F6000 X-8.355 Y-32.373
G1 F3000 X-9.121 Y-32.173 E1697.92035
G1 X-10.252 Y-32.173 E1697.95781
G1 X-11.018 Y-31.973 E1698.01052
G0 F6000 X-11.146 Y-31.973
G1 F3000 X-12.829 Y-32.425 E1698.12653
G1 X-13.28 Y-31.973 E1698.169
G1 X-12.881 Y-32.373 E1698.20658
G0 F6000 X-12.829 Y-32.425
G1 F3000 X-14.025 Y-36.886 E1698.51389
G0 F6000 X-13.569 Y-38.473
G1 F3000 X-13.169 Y-38.873 E1698.55152
G0 F6000 X-12.438 Y-38.473
G1 F3000 X-12.037 Y-38.873 E1698.5892
G1 X-14.024 Y-36.886 E1698.77612
G1 X-14.025 Y-36.886 E1698.77627
G1 X-18.486 Y-38.081 E1699.08356
G1 X-21.752 Y-34.816 E1699.39076
G1 X-21.752 Y-34.815 E1699.39083
G1 X-26.213 Y-36.011 E1699.69814
G1 X-29.479 Y-32.746 E1700.00533
G1 X-29.479 Y-32.745 E1700.0054
G1 X-32.697 Y-33.608 E1700.22711
G0 F6000 X-32.697 Y-34.053
G1 F3000 X-32.497 Y-34.818 E1700.26462
G1 X-32.497 Y-35.949 E1700.30218
G1 X-32.497 Y-37.08 E1700.33983
G1 X-32.497 Y-38.212 E1700.37751
G1 X-32.036 Y-38.673 E1700.40526
G1 X-30.905 Y-38.673 E1700.44285
G1 X-29.773 Y-38.673 E1700.48037
G1 X-28.642 Y-38.673 E1700.51796
G1 X-27.51 Y-38.673 E1700.55557
G1 X-26.745 Y-38.873 E1700.60812
G0 F6000 X-26.981 Y-38.873
G1 F3000 X-26.213 Y-36.011 E1700.80516
