; Generated with MatterSlice 1.0
; filamentDiameter = 1.75
; extrusionWidth = 0.8
; firstLayerExtrusionWidth = 1.04
; layerThickness = 0.2
; firstLayerThickness = 0.26
; automatic settings before start_gcode
G21 ; set units to millimeters
M107 ; fan off
M190 S83 ; wait for bed temperature to be reached
M104 T0 S235 ; start heating extruder 0
M109 T0 S235 ; wait for extruder 0
T0 ; set the active extruder to 0
; settings from start_gcode
G28 ; home all axes
G1 Z5 F5000 ; lift nozzle
; automatic settings after start_gcode
T0 ; set the active extruder to 0
G90 ; use absolute coordinates
G92 E0 ; reset the expected extruder position
M82 ; use absolute distance for extrusion
; Layer count: 325
; LAYER:0
M107
G0 F6000 X39.56 Y73.774 Z0.26
; TYPE:SKIRT
G1 Z0.26
G1 F3600 E0
G1 F1200 X15.44 Y73.774 E2.71155
G1 X15.44 Y45.734 E5.86379
G1 X-39.558 Y45.734 E12.04662
G1 X-39.558 Y25.124 E14.36358
G1 X18.44 Y25.116 E20.88356
G1 X18.44 Y-25.114 E26.53038
G1 X-39.558 Y-25.114 E33.05047
G1 X-39.558 Y-45.734 E35.36867
G1 X15.44 Y-45.734 E41.55139
G1 X15.44 Y-73.774 E44.70374
G1 X39.56 Y-73.774 E47.41529
G1 X39.56 Y73.774 E64.00242
G0 F6000 X38.52 Y72.734
G1 F1200 X16.48 Y72.734 E66.48014
G1 X16.48 Y44.694 E69.63238
G1 X-38.518 Y44.694 E75.81521
G1 X-38.518 Y26.163 E77.89845
G1 X19.48 Y26.155 E84.41843
G1 X19.48 Y-26.154 E90.29897
G1 X-38.518 Y-26.154 E96.81906
G1 X-38.518 Y-44.694 E98.90343
G1 X16.48 Y-44.694 E105.08615
G1 X16.48 Y-72.734 E108.2385
G1 X38.52 Y-72.734 E110.71622
G1 X38.52 Y72.734 E127.06951
G1 F3600 E118.66951
G1 Z0.66
G0 F6000 X34.48 Y68.694
; TYPE:WALL-OUTER
G1 Z0.26
G1 F3600 E127.26951
G1 F1200 X20.52 Y68.694 E128.83888
G1 X20.52 Y40.654 E131.99112
G1 X-34.478 Y40.654 E138.17395
G1 X-34.478 Y30.203 E139.34885
G1 X23.52 Y30.195 E145.86883
G1 X23.52 Y-30.194 E152.65771
G1 X-34.478 Y-30.194 E159.1778
G1 X-34.478 Y-40.654 E160.35382
G1 X20.52 Y-40.654 E166.53654
G1 X20.52 Y-68.694 E169.68889
G1 X34.48 Y-68.694 E171.25827
G1 X34.48 Y67.758 E186.59799
G0 F6000 X33.44 Y67.654
; TYPE:WALL-INNER
G1 F1200 X21.56 Y67.654 E187.93353
G1 X21.56 Y39.614 E191.08576
G1 X-33.438 Y39.614 E197.2686
G1 X-33.438 Y31.243 E198.20966
G1 X24.56 Y31.235 E204.72964
G1 X24.56 Y-31.234 E211.75236
G1 X-33.438 Y-31.234 E218.27245
G1 X-33.438 Y-39.614 E219.21463
G1 X21.56 Y-39.614 E225.39736
G1 X21.56 Y-67.654 E228.5497
G1 X33.44 Y-67.654 E229.88524
G1 X33.44 Y66.718 E244.99113
G0 F6000 X32.4 Y66.614
G1 F1200 X22.6 Y66.614 E246.09284
G1 X22.6 Y38.574 E249.24508
G1 X-32.398 Y38.574 E255.42791
G1 X-32.398 Y32.283 E256.13514
G1 X25.6 Y32.275 E262.65512
G1 X25.6 Y-32.274 E269.91167
G1 X-32.398 Y-32.274 E276.43176
G1 X-32.398 Y-38.574 E277.14012
G1 X22.6 Y-38.574 E283.32284
G1 X22.6 Y-66.614 E286.47519
G1 X32.4 Y-66.614 E287.5769
G1 X32.4 Y65.678 E302.44895
G0 F6000 X31.36 Y65.574
G1 F1200 X23.64 Y65.574 E303.31683
G1 X23.64 Y37.534 E306.46906
G1 X-31.358 Y37.534 E312.6519
G1 X-31.358 Y33.322 E313.12541
G1 X26.64 Y33.314 E319.64539
G1 X26.64 Y-33.314 E327.13566
G1 X-31.358 Y-33.314 E333.65575
G1 X-31.358 Y-37.534 E334.13027
G1 X23.64 Y-37.534 E340.31299
G1 X23.64 Y-65.574 E343.46534
G1 X31.36 Y-65.574 E344.33322
G1 X31.36 Y64.638 E358.97144
G0 F6000 X30.32 Y64.534
G1 F1200 X24.68 Y64.534 E359.60549
G1 X24.68 Y36.494 E362.75772
G1 X-30.318 Y36.494 E368.94056
G1 X-30.318 Y34.362 E369.18024
G1 X27.68 Y34.354 E375.70022
G1 X27.68 Y-34.354 E383.42432
G1 X-30.318 Y-34.354 E389.94441
G1 X-30.318 Y-36.494 E390.1851
G1 X24.68 Y-36.494 E396.36782
G1 X24.68 Y-64.534 E399.52017
G1 X30.32 Y-64.534 E400.15421
G1 X30.32 Y63.598 E414.55861
G0 F6000 X29.28 Y63.494
G1 F1200 X25.72 Y63.494 E414.95882
G1 X25.72 Y35.454 E418.11105
G1 X-29.278 Y35.454 E424.29389
G1 X-29.278 Y35.402 E424.29974
G1 X28.72 Y35.394 E430.81972
G1 X28.72 Y-35.394 E438.77765
G1 X-29.278 Y-35.394 E445.29774
G1 X-29.278 Y-35.454 E445.3046
G1 X25.72 Y-35.454 E451.48732
G1 X25.72 Y-63.494 E454.63967
G1 X29.28 Y-63.494 E455.03988
G1 X29.28 Y62.558 E469.21044
G0 F6000 X28.86 Y62.688
; TYPE:FILL
G1 F1200 X26.139 Y59.967 E469.64304
G0 F6000 X26.139 Y58.496
G1 F1200 X28.86 Y61.217 E470.07564
G0 F6000 X28.86 Y59.746
G1 F1200 X26.139 Y57.026 E470.50816
G0 F6000 X26.139 Y55.555
G1 F1200 X28.86 Y58.276 E470.94075
G0 F6000 X28.86 Y56.805
G1 F1200 X26.139 Y54.084 E471.37335
G0 F6000 X26.139 Y52.613
G1 F1200 X28.86 Y55.334 E471.80595
G0 F6000 X28.86 Y53.863
G1 F1200 X26.139 Y51.142 E472.23855
G0 F6000 X26.139 Y49.672
G1 F1200 X28.86 Y52.393 E472.67115
G0 F6000 X28.86 Y50.922
G1 F1200 X26.14 Y48.202 E473.10358
G0 F6000 X26.14 Y46.731
G1 F1200 X28.86 Y49.451 E473.53602
G0 F6000 X28.859 Y47.98
G1 F1200 X26.14 Y45.26 E473.96838
G0 F6000 X26.14 Y43.789
G1 F1200 X28.859 Y46.509 E474.40074
G0 F6000 X28.859 Y45.038
G1 F1200 X26.14 Y42.318 E474.8331
G0 F6000 X26.14 Y40.848
G1 F1200 X28.859 Y43.567 E475.26538
G0 F6000 X28.859 Y42.096
G1 F1200 X26.14 Y39.377 E475.69766
G0 F6000 X26.14 Y37.906
G1 F1200 X28.859 Y40.626 E476.13002
G0 F6000 X28.859 Y39.155
G1 F1200 X26.14 Y36.435 E476.56238
G0 F6000 X26.988 Y35.813
G1 F1200 X28.859 Y37.684 E476.85984
G0 F6000 X28.859 Y36.213
G1 F1200 X28.459 Y35.813 E476.92343
G0 F6000 X26.139 Y61.438
G1 F1200 X27.774 Y63.073 E477.18337
G0 F6000 X26.303 Y63.073
G1 F1200 X26.139 Y62.909 E477.20945
G0 F6000 X27.43 Y-35.813
G1 F1200 X26.14 Y-37.103 E477.41462
G0 F6000 X26.14 Y-38.574
G1 F1200 X28.859 Y-35.854 E477.8469
G0 F6000 X28.859 Y-37.325
G1 F1200 X26.14 Y-40.044 E478.27926
G0 F6000 X26.14 Y-41.515
G1 F1200 X28.859 Y-38.796 E478.71146
G0 F6000 X28.859 Y-40.266
G1 F1200 X26.14 Y-42.986 E479.14389
G0 F6000 X26.14 Y-44.457
G1 F1200 X28.859 Y-41.737 E479.57617
G0 F6000 X28.859 Y-43.208
G1 F1200 X26.14 Y-45.927 E480.00853
G0 F6000 X26.14 Y-47.398
G1 F1200 X28.859 Y-44.679 E480.44073
G0 F6000 X28.859 Y-46.15
G1 F1200 X26.14 Y-48.869 E480.87309
G0 F6000 X26.139 Y-50.341
G1 F1200 X28.859 Y-47.62 E481.30553
G0 F6000 X28.859 Y-49.091
G1 F1200 X26.139 Y-51.811 E481.73805
G0 F6000 X26.139 Y-53.282
G1 F1200 X28.86 Y-50.561 E482.17057
G0 F6000 X28.86 Y-52.032
G1 F1200 X26.139 Y-54.753 E482.60325
G0 F6000 X26.139 Y-56.224
G1 F1200 X28.86 Y-53.503 E483.03576
G0 F6000 X28.86 Y-54.974
G1 F1200 X26.139 Y-57.694 E483.46836
G0 F6000 X26.139 Y-59.165
G1 F1200 X28.86 Y-56.444 E483.90088
G0 F6000 X28.86 Y-57.915
G1 F1200 X26.139 Y-60.636 E484.33356
G0 F6000 X26.139 Y-62.107
G1 F1200 X28.86 Y-59.386 E484.76608
G0 F6000 X28.86 Y-60.857
G1 F1200 X26.644 Y-63.073 E485.11847
G0 F6000 X28.115 Y-63.073
G1 F1200 X28.86 Y-62.327 E485.23691
; LAYER:1
M106 S89
G1 F3600 E476.83691
G1 Z0.66
G0 F6000 X33.8 Y-68.014 Z0.46
; TYPE:WALL-INNER
G1 Z0.46
G1 F3600 E485.43691
G1 F3000 X33.8 Y68.014 E494.48546
G1 X21.2 Y68.014 E495.32362
G1 X21.2 Y39.974 E497.18885
G1 X-33.798 Y39.974 E500.84733
G1 X-33.798 Y30.875 E501.4526
G1 X24.2 Y30.875 E505.31057
G1 X24.2 Y-30.874 E509.41813
G1 X-33.798 Y-30.874 E513.27617
G1 X-33.798 Y-39.974 E513.88158
G1 X21.2 Y-39.974 E517.53999
G1 X21.2 Y-68.014 E519.40529
G1 X33.08 Y-68.014 E520.19555
G0 F6000 X33 Y-67.214
G1 F3000 X33 Y67.214 E529.13767
G1 X22 Y67.214 E529.86939
G1 X22 Y39.174 E531.73462
G1 X-32.998 Y39.174 E535.3931
G1 X-32.998 Y31.675 E535.89194
G1 X25 Y31.675 E539.74991
G1 X25 Y-31.674 E543.9639
G1 X-32.998 Y-31.674 E547.82195
G1 X-32.998 Y-39.174 E548.32092
G1 X22 Y-39.174 E551.97933
G1 X22 Y-67.214 E553.84463
G1 X32.28 Y-67.214 E554.52845
G0 F6000 X32.2 Y-66.414
G1 F3000 X32.2 Y66.414 E563.36414
G1 X22.8 Y66.414 E563.98943
G1 X22.8 Y38.374 E565.85466
G1 X-32.198 Y38.374 E569.51314
G1 X-32.198 Y32.475 E569.90555
G1 X25.8 Y32.475 E573.76352
G1 X25.8 Y-32.474 E578.08395
G1 X-32.198 Y-32.474 E581.94199
G1 X-32.198 Y-38.374 E582.33453
G1 X22.8 Y-38.374 E585.99294
G1 X22.8 Y-66.414 E587.85824
G1 X31.48 Y-66.414 E588.43563
G0 F6000 X31.4 Y-65.614
G1 F3000 X31.4 Y65.614 E597.16489
G1 X23.6 Y65.614 E597.68375
G1 X23.6 Y37.574 E599.54897
G1 X-31.398 Y37.574 E603.20746
G1 X-31.398 Y33.275 E603.49343
G1 X26.6 Y33.275 E607.3514
G1 X26.6 Y-33.274 E611.77826
G1 X-31.398 Y-33.274 E615.6363
G1 X-31.398 Y-37.574 E615.92241
G1 X23.6 Y-37.574 E619.58082
G1 X23.6 Y-65.614 E621.44612
G1 X30.68 Y-65.614 E621.91708
G0 F6000 X30.6 Y-64.814
G1 F3000 X30.6 Y64.814 E630.5399
G1 X24.4 Y64.814 E630.95233
G1 X24.4 Y36.774 E632.81756
G1 X-30.598 Y36.774 E636.47604
G1 X-30.598 Y34.075 E636.65558
G1 X27.4 Y34.075 E640.51355
G1 X27.4 Y-34.074 E645.04684
G1 X-30.598 Y-34.074 E648.90489
G1 X-30.598 Y-36.774 E649.08456
G1 X24.4 Y-36.774 E652.74297
G1 X24.4 Y-64.814 E654.60827
G1 X29.88 Y-64.814 E654.9728
G1 F3600 E646.5728
G1 Z0.86
G0 F6000 X34.6 Y-68.814
; TYPE:WALL-OUTER
G1 Z0.46
G1 F3600 E655.1728
G1 F2100 X34.6 Y68.814 E664.32778
G1 X20.4 Y68.814 E665.27237
G1 X20.4 Y40.774 E667.1376
G1 X-34.598 Y40.774 E670.79608
G1 X-34.598 Y30.075 E671.50778
G1 X23.4 Y30.075 E675.36576
G1 X23.4 Y-30.074 E679.36689
G1 X-34.598 Y-30.074 E683.22493
G1 X-34.598 Y-40.774 E683.93676
G1 X20.4 Y-40.774 E687.59518
G1 X20.4 Y-68.814 E689.46047
G1 X33.88 Y-68.814 E690.35716
G1 F3600 E681.95716
G1 Z0.86
G0 F6000 X30.3 Y-64.241
; TYPE:FILL
G1 Z0.46
G1 F3600 E690.55716
G1 F3000 X24.699 Y-58.641 E691.08398
G0 F6000 X24.699 Y-59.772
G1 F3000 X29.44 Y-64.512 E691.52998
G0 F6000 X28.309 Y-64.512
G1 F3000 X24.699 Y-60.903 E691.8695
G0 F6000 X24.699 Y-62.035
G1 F3000 X27.177 Y-64.512 E692.10261
G0 F6000 X26.046 Y-64.512
G1 F3000 X24.699 Y-63.166 E692.22923
G0 F6000 X24.699 Y-64.297
G1 F3000 X24.914 Y-64.512 E692.24951
G1 F3600 E683.84951
G1 Z0.86
G0 F6000 X30.3 Y-63.109
G1 Z0.46
G1 F3600 E692.44951
G1 F3000 X24.699 Y-57.509 E692.97632
G0 F6000 X24.699 Y-56.378
G1 F3000 X30.3 Y-61.978 E693.50323
G0 F6000 X30.3 Y-60.847
G1 F3000 X24.699 Y-55.246 E694.03009
G0 F6000 X24.699 Y-54.115
G1 F3000 X30.3 Y-59.715 E694.557
G0 F6000 X30.3 Y-58.584
G1 F3000 X24.699 Y-52.984 E695.08381
G0 F6000 X24.699 Y-51.852
G1 F3000 X30.3 Y-57.453 E695.61077
G0 F6000 X30.3 Y-56.321
G1 F3000 X24.699 Y-50.721 E696.13758
G0 F6000 X24.699 Y-49.59
G1 F3000 X30.3 Y-55.19 E696.66449
G0 F6000 X30.3 Y-54.059
G1 F3000 X24.699 Y-48.458 E697.19135
G0 F6000 X24.699 Y-47.327
G1 F3000 X30.3 Y-52.927 E697.71825
G0 F6000 X30.3 Y-51.796
G1 F3000 X24.699 Y-46.195 E698.24512
G0 F6000 X24.699 Y-45.064
G1 F3000 X30.3 Y-50.664 E698.77202
G0 F6000 X30.3 Y-49.533
G1 F3000 X24.699 Y-43.933 E699.29884
G0 F6000 X24.699 Y-42.801
G1 F3000 X30.3 Y-48.402 E699.82579
G0 F6000 X30.3 Y-47.27
G1 F3000 X24.699 Y-41.67 E700.35261
G0 F6000 X24.699 Y-40.539
G1 F3000 X30.3 Y-46.139 E700.87951
G0 F6000 X30.3 Y-45.008
G1 F3000 X24.699 Y-39.407 E701.40637
G0 F6000 X24.699 Y-38.276
G1 F3000 X30.3 Y-43.876 E701.93328
G0 F6000 X30.3 Y-42.745
G1 F3000 X24.699 Y-37.145 E702.4601
G0 F6000 X24.028 Y-36.473
G1 F3000 X21.928 Y-34.373 E702.6576
G0 F6000 X23.059 Y-34.373
G1 F3000 X30.3 Y-41.613 E703.33879
G0 F6000 X30.3 Y-40.482
G1 F3000 X24.19 Y-34.373 E703.91349
G0 F6000 X25.322 Y-34.373
G1 F3000 X30.3 Y-39.351 E704.38184
G0 F6000 X30.3 Y-38.219
G1 F3000 X26.453 Y-34.373 E704.74364
G0 F6000 X27.584 Y-34.373
G1 F3000 X30.3 Y-37.088 E704.99915
G0 F6000 X30.3 Y-35.957
G1 F3000 X27.699 Y-33.356 E705.24379
G0 F6000 X27.699 Y-32.224
G1 F3000 X30.3 Y-34.825 E705.48852
G0 F6000 X30.3 Y-33.694
G1 F3000 X27.699 Y-31.093 E705.73316
G0 F6000 X27.699 Y-29.962
G1 F3000 X30.3 Y-32.562 E705.97785
G0 F6000 X30.3 Y-31.431
G1 F3000 X27.699 Y-28.83 E706.22249
G0 F6000 X27.699 Y-27.699
G1 F3000 X30.3 Y-30.3 E706.46722
G0 F6000 X30.3 Y-29.168
G1 F3000 X27.699 Y-26.568 E706.71181
G0 F6000 X27.699 Y-25.436
G1 F3000 X30.3 Y-28.037 E706.95654
G0 F6000 X30.3 Y-26.906
G1 F3000 X27.699 Y-24.305 E707.20118
G0 F6000 X27.699 Y-23.174
G1 F3000 X30.3 Y-25.774 E707.44587
G0 F6000 X30.3 Y-24.643
G1 F3000 X27.699 Y-22.042 E707.69051
G0 F6000 X27.699 Y-20.911
G1 F3000 X30.3 Y-23.512 E707.93524
G0 F6000 X30.3 Y-22.38
G1 F3000 X27.699 Y-19.779 E708.17988
G0 F6000 X27.699 Y-18.648
G1 F3000 X30.3 Y-21.249 E708.42461
G0 F6000 X30.3 Y-20.117
G1 F3000 X27.699 Y-17.517 E708.66921
G0 F6000 X27.699 Y-16.385
G1 F3000 X30.3 Y-18.986 E708.91394
G0 F6000 X30.3 Y-17.855
G1 F3000 X27.699 Y-15.254 E709.15858
G0 F6000 X27.699 Y-14.123
G1 F3000 X30.3 Y-16.723 E709.40326
G0 F6000 X30.3 Y-15.592
G1 F3000 X27.699 Y-12.991 E709.6479
G0 F6000 X27.699 Y-11.86
G1 F3000 X30.3 Y-14.461 E709.89264
G0 F6000 X30.3 Y-13.329
G1 F3000 X27.699 Y-10.728 E710.13728
G0 F6000 X27.699 Y-9.597
G1 F3000 X30.3 Y-12.198 E710.38201
G0 F6000 X30.3 Y-11.066
G1 F3000 X27.699 Y-8.466 E710.6266
G0 F6000 X27.699 Y-7.334
G1 F3000 X30.3 Y-9.935 E710.87133
G0 F6000 X30.3 Y-8.804
G1 F3000 X27.699 Y-6.203 E711.11597
G0 F6000 X27.699 Y-5.072
G1 F3000 X30.3 Y-7.672 E711.36066
G0 F6000 X30.3 Y-6.541
G1 F3000 X27.699 Y-3.94 E711.6053
G0 F6000 X27.699 Y-2.809
G1 F3000 X30.3 Y-5.41 E711.85003
G0 F6000 X30.3 Y-4.278
G1 F3000 X27.699 Y-1.677 E712.09467
G0 F6000 X27.699 Y-0.546
G1 F3000 X30.3 Y-3.147 E712.3394
G0 F6000 X30.3 Y-2.015
G1 F3000 X27.7 Y0.584 E712.5839
G0 F6000 X27.7 Y1.715
G1 F3000 X30.3 Y-0.884 E712.82845
G0 F6000 X30.3 Y0.246
G1 F3000 X27.7 Y2.846 E713.07304
G0 F6000 X27.7 Y3.978
G1 F3000 X30.3 Y1.378 E713.31763
G0 F6000 X30.3 Y2.509
G1 F3000 X27.7 Y5.109 E713.56222
G0 F6000 X27.7 Y6.24
G1 F3000 X30.3 Y3.64 E713.80682
G0 F6000 X30.3 Y4.772
G1 F3000 X27.7 Y7.372 E714.05141
G0 F6000 X27.7 Y8.503
G1 F3000 X30.3 Y5.903 E714.296
G0 F6000 X30.3 Y7.035
G1 F3000 X27.7 Y9.635 E714.54059
G0 F6000 X27.7 Y10.766
G1 F3000 X30.3 Y8.166 E714.78518
G0 F6000 X30.3 Y9.297
G1 F3000 X27.7 Y11.897 E715.02978
G0 F6000 X27.7 Y13.029
G1 F3000 X30.3 Y10.429 E715.27437
G0 F6000 X30.3 Y11.56
G1 F3000 X27.7 Y14.16 E715.51896
G0 F6000 X27.7 Y15.291
G1 F3000 X30.3 Y12.691 E715.76355
G0 F6000 X30.3 Y13.823
G1 F3000 X27.7 Y16.423 E716.00814
G0 F6000 X27.7 Y17.554
G1 F3000 X30.3 Y14.954 E716.25274
G0 F6000 X30.3 Y16.085
G1 F3000 X27.7 Y18.686 E716.49737
G0 F6000 X27.7 Y19.817
G1 F3000 X30.3 Y17.217 E716.74197
G0 F6000 X30.3 Y18.348
G1 F3000 X27.7 Y20.948 E716.98656
G0 F6000 X27.7 Y22.08
G1 F3000 X30.3 Y19.48 E717.23115
G0 F6000 X30.3 Y20.611
G1 F3000 X27.7 Y23.211 E717.47574
G0 F6000 X27.7 Y24.342
G1 F3000 X30.3 Y21.742 E717.72034
G0 F6000 X30.3 Y22.874
G1 F3000 X27.7 Y25.474 E717.96493
G0 F6000 X27.7 Y26.605
G1 F3000 X30.3 Y24.005 E718.20952
G0 F6000 X30.3 Y25.136
G1 F3000 X27.7 Y27.736 E718.45411
G0 F6000 X27.7 Y28.868
G1 F3000 X30.3 Y26.268 E718.6987
G0 F6000 X30.3 Y27.399
G1 F3000 X27.7 Y29.999 E718.9433
G0 F6000 X27.7 Y31.131
G1 F3000 X30.3 Y28.531 E719.18789
G0 F6000 X30.3 Y29.662
G1 F3000 X27.7 Y32.262 E719.43248
G0 F6000 X27.7 Y33.393
G1 F3000 X30.3 Y30.793 E719.67707
G0 F6000 X30.3 Y31.925
G1 F3000 X24.699 Y37.525 E720.20393
G0 F6000 X24.62 Y36.473
G1 F3000 X26.72 Y34.373 E720.40149
G0 F6000 X25.588 Y34.373
G1 F3000 X23.489 Y36.473 E720.599
G0 F6000 X22.358 Y36.473
G1 F3000 X24.457 Y34.373 E720.7965
G0 F6000 X23.326 Y34.373
G1 F3000 X21.226 Y36.473 E720.99406
G0 F6000 X20.095 Y36.473
G1 F3000 X22.194 Y34.373 E721.19157
G0 F6000 X21.063 Y34.373
G1 F3000 X18.963 Y36.473 E721.38912
G0 F6000 X17.832 Y36.473
G1 F3000 X19.931 Y34.373 E721.58663
G0 F6000 X18.8 Y34.373
G1 F3000 X16.701 Y36.473 E721.78414
G0 F6000 X15.569 Y36.473
G1 F3000 X17.669 Y34.373 E721.98169
G0 F6000 X16.537 Y34.373
G1 F3000 X14.438 Y36.473 E722.1792
G0 F6000 X13.307 Y36.473
G1 F3000 X15.406 Y34.373 E722.37671
G0 F6000 X14.275 Y34.373
G1 F3000 X12.175 Y36.473 E722.57426
G0 F6000 X11.044 Y36.473
G1 F3000 X13.143 Y34.373 E722.77177
G0 F6000 X12.012 Y34.373
G1 F3000 X9.912 Y36.473 E722.96933
G0 F6000 X8.781 Y36.473
G1 F3000 X10.88 Y34.373 E723.16684
G0 F6000 X9.749 Y34.373
G1 F3000 X7.65 Y36.473 E723.36434
G0 F6000 X6.518 Y36.473
G1 F3000 X8.618 Y34.373 E723.5619
G0 F6000 X7.486 Y34.373
G1 F3000 X5.387 Y36.473 E723.75941
G0 F6000 X4.256 Y36.473
G1 F3000 X6.355 Y34.373 E723.95692
G0 F6000 X5.224 Y34.373
G1 F3000 X3.124 Y36.473 E724.15447
G0 F6000 X1.993 Y36.473
G1 F3000 X4.092 Y34.373 E724.35198
G0 F6000 X2.961 Y34.373
G1 F3000 X0.861 Y36.473 E724.54953
G0 F6000 X-0.269 Y36.473
G1 F3000 X1.829 Y34.373 E724.74695
G0 F6000 X0.698 Y34.373
G1 F3000 X-1.4 Y36.473 E724.94441
G0 F6000 X-2.532 Y36.473
G1 F3000 X-0.432 Y34.373 E725.14192
G0 F6000 X-1.564 Y34.373
G1 F3000 X-3.663 Y36.473 E725.33947
G0 F6000 X-4.794 Y36.473
G1 F3000 X-2.695 Y34.373 E725.53693
G0 F6000 X-3.826 Y34.373
G1 F3000 X-5.926 Y36.473 E725.73454
G0 F6000 X-7.057 Y36.473
G1 F3000 X-4.958 Y34.373 E725.932
G0 F6000 X-6.089 Y34.373
G1 F3000 X-8.189 Y36.473 E726.1296
G0 F6000 X-9.32 Y36.473
G1 F3000 X-7.22 Y34.373 E726.32711
G0 F6000 X-8.352 Y34.373
G1 F3000 X-10.451 Y36.473 E726.52466
G0 F6000 X-11.583 Y36.473
G1 F3000 X-9.483 Y34.373 E726.72217
G0 F6000 X-10.615 Y34.373
G1 F3000 X-12.714 Y36.473 E726.91972
G0 F6000 X-13.845 Y36.473
G1 F3000 X-11.746 Y34.373 E727.11719
G0 F6000 X-12.877 Y34.373
G1 F3000 X-14.977 Y36.473 E727.31479
G0 F6000 X-16.108 Y36.473
G1 F3000 X-14.009 Y34.373 E727.51225
G0 F6000 X-15.14 Y34.373
G1 F3000 X-17.239 Y36.473 E727.7098
G0 F6000 X-18.371 Y36.473
G1 F3000 X-16.271 Y34.373 E727.90731
G0 F6000 X-17.403 Y34.373
G1 F3000 X-19.502 Y36.473 E728.10487
G0 F6000 X-20.634 Y36.473
G1 F3000 X-18.534 Y34.373 E728.30238
G0 F6000 X-19.666 Y34.373
G1 F3000 X-21.765 Y36.473 E728.49993
G0 F6000 X-22.896 Y36.473
G1 F3000 X-20.797 Y34.373 E728.69739
G0 F6000 X-21.928 Y34.373
G1 F3000 X-24.028 Y36.473 E728.89499
G0 F6000 X-25.159 Y36.473
G1 F3000 X-23.06 Y34.373 E729.09245
G0 F6000 X-24.191 Y34.373
G1 F3000 X-26.29 Y36.473 E729.29001
G0 F6000 X-27.422 Y36.473
G1 F3000 X-25.322 Y34.373 E729.48752
G0 F6000 X-26.454 Y34.373
G1 F3000 X-28.553 Y36.473 E729.68507
G0 F6000 X-29.685 Y36.473
G1 F3000 X-27.585 Y34.373 E729.88258
G0 F6000 X-28.717 Y34.373
G1 F3000 X-30.297 Y35.954 E730.03131
G0 F6000 X-30.298 Y34.823
G1 F3000 X-29.848 Y34.373 E730.0736
G1 F3600 E721.6736
G1 Z0.86
G0 F6000 X24.699 Y38.656
G1 Z0.46
G1 F3600 E730.2736
G1 F3000 X30.3 Y33.056 E730.80046
G0 F6000 X30.3 Y34.187
G1 F3000 X24.699 Y39.788 E731.32737
G0 F6000 X24.699 Y40.919
G1 F3000 X30.3 Y35.319 E731.85423
G0 F6000 X30.3 Y36.45
G1 F3000 X24.699 Y42.05 E732.38109
G0 F6000 X24.699 Y43.182
G1 F3000 X30.3 Y37.582 E732.90795
G0 F6000 X30.3 Y38.713
G1 F3000 X24.699 Y44.313 E733.43481
G0 F6000 X24.699 Y45.445
G1 F3000 X30.3 Y39.844 E733.96172
G0 F6000 X30.3 Y40.976
G1 F3000 X24.699 Y46.576 E734.48858
G0 F6000 X24.699 Y47.707
G1 F3000 X30.3 Y42.107 E735.01544
G0 F6000 X30.3 Y43.238
G1 F3000 X24.699 Y48.839 E735.54235
G0 F6000 X24.699 Y49.97
G1 F3000 X30.3 Y44.37 E736.06921
G0 F6000 X30.3 Y45.501
G1 F3000 X24.699 Y51.101 E736.59607
G0 F6000 X24.699 Y52.233
G1 F3000 X30.3 Y46.632 E737.12298
G0 F6000 X30.3 Y47.764
G1 F3000 X24.699 Y53.364 E737.64984
G0 F6000 X24.699 Y54.496
G1 F3000 X30.3 Y48.895 E738.17674
G0 F6000 X30.3 Y50.027
G1 F3000 X24.699 Y55.627 E738.7036
G0 F6000 X24.699 Y56.758
G1 F3000 X30.3 Y51.158 E739.23047
G0 F6000 X30.3 Y52.289
G1 F3000 X24.699 Y57.89 E739.75737
G0 F6000 X24.699 Y59.021
G1 F3000 X30.3 Y53.421 E740.28423
G0 F6000 X30.3 Y54.552
G1 F3000 X24.699 Y60.152 E740.81109
G0 F6000 X24.699 Y61.284
G1 F3000 X30.3 Y55.683 E741.338
G0 F6000 X30.3 Y56.815
G1 F3000 X24.699 Y62.415 E741.86486
G0 F6000 X24.699 Y63.546
G1 F3000 X30.3 Y57.946 E742.39172
G0 F6000 X30.3 Y59.078
G1 F3000 X24.865 Y64.512 E742.90297
G0 F6000 X25.996 Y64.512
G1 F3000 X30.3 Y60.209 E743.30782
G0 F6000 X30.3 Y61.34
G1 F3000 X27.128 Y64.512 E743.60622
G0 F6000 X28.259 Y64.512
G1 F3000 X30.3 Y62.472 E743.79818
G0 F6000 X30.3 Y63.603
G1 F3000 X29.39 Y64.512 E743.88374
G1 F3600 E735.48374
G1 Z0.86
G0 F6000 X23.817 Y0.391
G0 X23.941 Y-30.615
G0 X20.796 Y-34.373
G0 X20.796 Y-34.373
G1 Z0.46
G1 F3600 E744.08374
G1 F3000 X22.896 Y-36.473 E744.28134
G0 F6000 X21.765 Y-36.473
G1 F3000 X19.665 Y-34.373 E744.47885
G0 F6000 X18.533 Y-34.373
G1 F3000 X20.634 Y-36.473 E744.67649
G0 F6000 X19.502 Y-36.473
G1 F3000 X17.402 Y-34.373 E744.874
G0 F6000 X16.271 Y-34.373
G1 F3000 X18.371 Y-36.473 E745.07161
G0 F6000 X17.239 Y-36.473
G1 F3000 X15.139 Y-34.373 E745.26911
G0 F6000 X14.008 Y-34.373
G1 F3000 X16.108 Y-36.473 E745.46672
G0 F6000 X14.977 Y-36.473
G1 F3000 X12.877 Y-34.373 E745.66422
G0 F6000 X11.745 Y-34.373
G1 F3000 X13.845 Y-36.473 E745.86183
G0 F6000 X12.714 Y-36.473
G1 F3000 X10.614 Y-34.373 E746.05933
G0 F6000 X9.483 Y-34.373
G1 F3000 X11.583 Y-36.473 E746.25694
G0 F6000 X10.451 Y-36.473
G1 F3000 X8.351 Y-34.373 E746.45444
G0 F6000 X7.22 Y-34.373
G1 F3000 X9.32 Y-36.473 E746.65205
G0 F6000 X8.189 Y-36.473
G1 F3000 X6.088 Y-34.373 E746.8496
G0 F6000 X4.957 Y-34.373
G1 F3000 X7.057 Y-36.473 E747.0472
G0 F6000 X5.926 Y-36.473
G1 F3000 X3.826 Y-34.373 E747.24471
G0 F6000 X2.694 Y-34.373
G1 F3000 X4.794 Y-36.473 E747.44231
G0 F6000 X3.663 Y-36.473
G1 F3000 X1.563 Y-34.373 E747.63982
G0 F6000 X0.432 Y-34.373
G1 F3000 X2.532 Y-36.473 E747.83742
G0 F6000 X1.4 Y-36.473
G1 F3000 X-0.699 Y-34.373 E748.03488
G0 F6000 X-1.829 Y-34.373
G1 F3000 X0.269 Y-36.473 E748.23235
G0 F6000 X-0.861 Y-36.473
G1 F3000 X-2.961 Y-34.373 E748.4299
G0 F6000 X-4.092 Y-34.373
G1 F3000 X-1.993 Y-36.473 E748.62741
G0 F6000 X-3.124 Y-36.473
G1 F3000 X-5.224 Y-34.373 E748.82496
G0 F6000 X-6.355 Y-34.373
G1 F3000 X-4.256 Y-36.473 E749.02247
G0 F6000 X-5.387 Y-36.473
G1 F3000 X-7.486 Y-34.373 E749.21998
G0 F6000 X-8.618 Y-34.373
G1 F3000 X-6.518 Y-36.473 E749.41754
G0 F6000 X-7.65 Y-36.473
G1 F3000 X-9.749 Y-34.373 E749.61504
G0 F6000 X-10.88 Y-34.373
G1 F3000 X-8.781 Y-36.473 E749.81255
G0 F6000 X-9.912 Y-36.473
G1 F3000 X-12.012 Y-34.373 E750.01011
G0 F6000 X-13.143 Y-34.373
G1 F3000 X-11.044 Y-36.473 E750.20762
G0 F6000 X-12.175 Y-36.473
G1 F3000 X-14.275 Y-34.373 E750.40517
G0 F6000 X-15.406 Y-34.373
G1 F3000 X-13.307 Y-36.473 E750.60268
G0 F6000 X-14.438 Y-36.473
G1 F3000 X-16.537 Y-34.373 E750.80019
G0 F6000 X-17.669 Y-34.373
G1 F3000 X-15.569 Y-36.473 E750.99774
G0 F6000 X-16.701 Y-36.473
G1 F3000 X-18.8 Y-34.373 E751.19525
G0 F6000 X-19.931 Y-34.373
G1 F3000 X-17.832 Y-36.473 E751.39276
G0 F6000 X-18.963 Y-36.473
G1 F3000 X-21.063 Y-34.373 E751.59031
G0 F6000 X-22.194 Y-34.373
G1 F3000 X-20.095 Y-36.473 E751.78782
G0 F6000 X-21.226 Y-36.473
G1 F3000 X-23.326 Y-34.373 E751.98538
G0 F6000 X-24.457 Y-34.373
G1 F3000 X-22.358 Y-36.473 E752.18288
G0 F6000 X-23.489 Y-36.473
G1 F3000 X-25.588 Y-34.373 E752.38039
G0 F6000 X-26.72 Y-34.373
G1 F3000 X-24.62 Y-36.473 E752.57795
G0 F6000 X-25.752 Y-36.473
G1 F3000 X-27.851 Y-34.373 E752.77546
G0 F6000 X-28.982 Y-34.373
G1 F3000 X-26.883 Y-36.473 E752.97296
G0 F6000 X-28.014 Y-36.473
G1 F3000 X-30.114 Y-34.373 E753.17052
G0 F6000 X-30.298 Y-35.321
G1 F3000 X-29.146 Y-36.473 E753.27889
G0 F6000 X-30.277 Y-36.473
G1 F3000 X-30.297 Y-36.453 E753.28078
; LAYER:2
G0 F6000 X-33.798 Y-39.974 Z0.66
; TYPE:WALL-INNER
G1 F3000 X21.2 Y-39.974 E756.93919
G1 X21.2 Y-68.014 E758.80449
G1 X33.8 Y-68.014 E759.64264
G1 X33.8 Y68.014 E768.69119
G1 X21.2 Y68.014 E769.52935
G1 X21.2 Y39.974 E771.39458
G1 X-33.798 Y39.974 E775.05306
G1 X-33.798 Y30.875 E775.65833
G1 X24.2 Y30.875 E779.5163
G1 X24.2 Y-30.874 E783.62386
G1 X-33.798 Y-30.874 E787.48191
G1 X-33.798 Y-39.254 E788.03941
G0 F6000 X-32.998 Y-39.174
G1 F3000 X22 Y-39.174 E791.69783
G1 X22 Y-67.214 E793.56312
G1 X33 Y-67.214 E794.29485
G1 X33 Y67.214 E803.23697
G1 X22 Y67.214 E803.96869
G1 X22 Y39.174 E805.83392
G1 X-32.998 Y39.174 E809.4924
G1 X-32.998 Y31.675 E809.99124
G1 X25 Y31.675 E813.84921
G1 X25 Y-31.674 E818.0632
G1 X-32.998 Y-31.674 E821.92125
G1 X-32.998 Y-38.454 E822.37232
G0 F6000 X-32.198 Y-38.374
G1 F3000 X22.8 Y-38.374 E826.03074
G1 X22.8 Y-66.414 E827.89603
G1 X32.2 Y-66.414 E828.52132
G1 X32.2 Y66.414 E837.35701
G1 X22.8 Y66.414 E837.9823
G1 X22.8 Y38.374 E839.84753
G1 X-32.198 Y38.374 E843.50601
G1 X-32.198 Y32.475 E843.89841
G1 X25.8 Y32.475 E847.75639
G1 X25.8 Y-32.474 E852.07681
G1 X-32.198 Y-32.474 E855.93486
G1 X-32.198 Y-37.654 E856.2795
G0 F6000 X-31.398 Y-37.574
G1 F3000 X23.6 Y-37.574 E859.93791
G1 X23.6 Y-65.614 E861.80321
G1 X31.4 Y-65.614 E862.32207
G1 X31.4 Y65.614 E871.05132
G1 X23.6 Y65.614 E871.57018
G1 X23.6 Y37.574 E873.43541
G1 X-31.398 Y37.574 E877.09389
G1 X-31.398 Y33.275 E877.37986
G1 X26.6 Y33.275 E881.23784
G1 X26.6 Y-33.274 E885.66469
G1 X-31.398 Y-33.274 E889.52274
G1 X-31.398 Y-36.854 E889.76095
G0 F6000 X-30.598 Y-36.774
G1 F3000 X24.4 Y-36.774 E893.41936
G1 X24.4 Y-64.814 E895.28466
G1 X30.6 Y-64.814 E895.69708
G1 X30.6 Y64.814 E904.31991
G1 X24.4 Y64.814 E904.73233
G1 X24.4 Y36.774 E906.59756
G1 X-30.598 Y36.774 E910.25604
G1 X-30.598 Y34.075 E910.43558
G1 X27.4 Y34.075 E914.29356
G1 X27.4 Y-34.074 E918.82685
G1 X-30.598 Y-34.074 E922.68489
G1 X-30.598 Y-36.054 E922.81666
G1 F3600 E914.41666
G1 Z1.06
G0 F6000 X-34.598 Y-40.774
; TYPE:WALL-OUTER
G1 Z0.66
G1 F3600 E923.01666
G1 F2100 X20.4 Y-40.774 E926.67508
G1 X20.4 Y-68.814 E928.54038
G1 X34.6 Y-68.814 E929.48496
G1 X34.6 Y68.814 E938.63995
G1 X20.4 Y68.814 E939.58454
G1 X20.4 Y40.774 E941.44976
G1 X-34.598 Y40.774 E945.10825
G1 X-34.598 Y30.075 E945.81995
G1 X23.4 Y30.075 E949.67792
G1 X23.4 Y-30.074 E953.67905
G1 X-34.598 Y-30.074 E957.53709
G1 X-34.598 Y-40.054 E958.20103
G1 F3600 E949.80103
G1 Z1.06
G0 F6000 X-30.297 Y-35.954
; TYPE:FILL
G1 Z0.66
G1 F3600 E958.40103
G1 F3000 X-28.717 Y-34.373 E958.54962
G0 F6000 X-29.848 Y-34.373
G1 F3000 X-30.298 Y-34.823 E958.59205
G0 F6000 X-29.685 Y-36.473
G1 F3000 X-27.585 Y-34.373 E958.78951
G0 F6000 X-26.454 Y-34.373
G1 F3000 X-28.553 Y-36.473 E958.98711
G0 F6000 X-27.422 Y-36.473
G1 F3000 X-25.322 Y-34.373 E959.18457
G0 F6000 X-24.191 Y-34.373
G1 F3000 X-26.29 Y-36.473 E959.38218
G0 F6000 X-25.159 Y-36.473
G1 F3000 X-23.06 Y-34.373 E959.57959
G0 F6000 X-21.928 Y-34.373
G1 F3000 X-24.028 Y-36.473 E959.77724
G0 F6000 X-22.896 Y-36.473
G1 F3000 X-20.797 Y-34.373 E959.97465
G0 F6000 X-19.666 Y-34.373
G1 F3000 X-21.765 Y-36.473 E960.17225
G0 F6000 X-20.634 Y-36.473
G1 F3000 X-18.534 Y-34.373 E960.36972
G0 F6000 X-17.403 Y-34.373
G1 F3000 X-19.502 Y-36.473 E960.56732
G0 F6000 X-18.371 Y-36.473
G1 F3000 X-16.271 Y-34.373 E960.76478
G0 F6000 X-15.14 Y-34.373
G1 F3000 X-17.239 Y-36.473 E960.96238
G0 F6000 X-16.108 Y-36.473
G1 F3000 X-14.009 Y-34.373 E961.1598
G0 F6000 X-12.877 Y-34.373
G1 F3000 X-14.977 Y-36.473 E961.35744
G0 F6000 X-13.845 Y-36.473
G1 F3000 X-11.746 Y-34.373 E961.55486
G0 F6000 X-10.615 Y-34.373
G1 F3000 X-12.714 Y-36.473 E961.75246
G0 F6000 X-11.583 Y-36.473
G1 F3000 X-9.483 Y-34.373 E961.94992
G0 F6000 X-8.352 Y-34.373
G1 F3000 X-10.451 Y-36.473 E962.14752
G0 F6000 X-9.32 Y-36.473
G1 F3000 X-7.22 Y-34.373 E962.34498
G0 F6000 X-6.089 Y-34.373
G1 F3000 X-8.189 Y-36.473 E962.54263
G0 F6000 X-7.057 Y-36.473
G1 F3000 X-4.958 Y-34.373 E962.74005
G0 F6000 X-3.826 Y-34.373
G1 F3000 X-5.926 Y-36.473 E962.9377
G0 F6000 X-4.794 Y-36.473
G1 F3000 X-2.695 Y-34.373 E963.13511
G0 F6000 X-1.564 Y-34.373
G1 F3000 X-3.663 Y-36.473 E963.33271
G0 F6000 X-2.532 Y-36.473
G1 F3000 X-0.432 Y-34.373 E963.53017
G0 F6000 X0.699 Y-34.373
G1 F3000 X-1.4 Y-36.473 E963.72773
G0 F6000 X-0.269 Y-36.473
G1 F3000 X1.83 Y-34.373 E963.92514
G0 F6000 X2.962 Y-34.373
G1 F3000 X0.861 Y-36.473 E964.12279
G0 F6000 X1.993 Y-36.473
G1 F3000 X4.093 Y-34.373 E964.3203
G0 F6000 X5.224 Y-34.373
G1 F3000 X3.124 Y-36.473 E964.5179
G0 F6000 X4.256 Y-36.473
G1 F3000 X6.356 Y-34.373 E964.71541
G0 F6000 X7.487 Y-34.373
G1 F3000 X5.387 Y-36.473 E964.91301
G0 F6000 X6.518 Y-36.473
G1 F3000 X8.618 Y-34.373 E965.11052
G0 F6000 X9.75 Y-34.373
G1 F3000 X7.65 Y-36.473 E965.30812
G0 F6000 X8.781 Y-36.473
G1 F3000 X10.881 Y-34.373 E965.50563
G0 F6000 X12.013 Y-34.373
G1 F3000 X9.912 Y-36.473 E965.70328
G0 F6000 X11.044 Y-36.473
G1 F3000 X13.144 Y-34.373 E965.90079
G0 F6000 X14.275 Y-34.373
G1 F3000 X12.175 Y-36.473 E966.09839
G0 F6000 X13.307 Y-36.473
G1 F3000 X15.407 Y-34.373 E966.2959
G0 F6000 X16.538 Y-34.373
G1 F3000 X14.438 Y-36.473 E966.4935
G0 F6000 X15.569 Y-36.473
G1 F3000 X17.669 Y-34.373 E966.69101
G0 F6000 X18.801 Y-34.373
G1 F3000 X16.701 Y-36.473 E966.88861
G0 F6000 X17.832 Y-36.473
G1 F3000 X19.932 Y-34.373 E967.08612
G0 F6000 X21.064 Y-34.373
G1 F3000 X18.963 Y-36.473 E967.28377
G0 F6000 X20.095 Y-36.473
G1 F3000 X22.195 Y-34.373 E967.48128
G0 F6000 X23.326 Y-34.373
G1 F3000 X21.226 Y-36.473 E967.67888
G0 F6000 X22.358 Y-36.473
G1 F3000 X24.458 Y-34.373 E967.87639
G0 F6000 X25.589 Y-34.373
G1 F3000 X23.489 Y-36.473 E968.07399
G0 F6000 X24.62 Y-36.473
G1 F3000 X26.72 Y-34.373 E968.2715
G0 F6000 X27.699 Y-33.394
G1 F3000 X30.3 Y-30.793 E968.51614
G0 F6000 X30.3 Y-29.662
G1 F3000 X27.699 Y-32.263 E968.76087
G0 F6000 X27.699 Y-31.131
G1 F3000 X30.3 Y-28.531 E969.00546
G0 F6000 X30.3 Y-27.399
G1 F3000 X27.699 Y-30 E969.2502
G0 F6000 X27.699 Y-28.869
G1 F3000 X30.3 Y-26.268 E969.49483
G0 F6000 X30.3 Y-25.136
G1 F3000 X27.699 Y-27.737 E969.73957
G0 F6000 X27.699 Y-26.606
G1 F3000 X30.3 Y-24.005 E969.98421
G0 F6000 X30.3 Y-22.874
G1 F3000 X27.699 Y-25.474 E970.22889
G0 F6000 X27.699 Y-24.343
G1 F3000 X30.3 Y-21.742 E970.47353
G0 F6000 X30.3 Y-20.611
G1 F3000 X27.699 Y-23.212 E970.71826
G0 F6000 X27.699 Y-22.08
G1 F3000 X30.3 Y-19.48 E970.96286
G0 F6000 X30.3 Y-18.348
G1 F3000 X27.699 Y-20.949 E971.20759
G0 F6000 X27.699 Y-19.818
G1 F3000 X30.3 Y-17.217 E971.45223
G0 F6000 X30.3 Y-16.085
G1 F3000 X27.699 Y-18.686 E971.69696
G0 F6000 X27.699 Y-17.555
G1 F3000 X30.3 Y-14.954 E971.9416
G0 F6000 X30.3 Y-13.823
G1 F3000 X27.699 Y-16.423 E972.18629
G0 F6000 X27.699 Y-15.292
G1 F3000 X30.3 Y-12.691 E972.43093
G0 F6000 X30.3 Y-11.56
G1 F3000 X27.699 Y-14.161 E972.67566
G0 F6000 X27.699 Y-13.029
G1 F3000 X30.3 Y-10.429 E972.92025
G0 F6000 X30.3 Y-9.297
G1 F3000 X27.699 Y-11.898 E973.16499
G0 F6000 X27.699 Y-10.767
G1 F3000 X30.3 Y-8.166 E973.40962
G0 F6000 X30.3 Y-7.035
G1 F3000 X27.699 Y-9.635 E973.65431
G0 F6000 X27.699 Y-8.504
G1 F3000 X30.3 Y-5.903 E973.89895
G0 F6000 X30.3 Y-4.772
G1 F3000 X27.699 Y-7.373 E974.14368
G0 F6000 X27.699 Y-6.241
G1 F3000 X30.3 Y-3.64 E974.38832
G0 F6000 X30.3 Y-2.509
G1 F3000 X27.699 Y-5.11 E974.63305
G0 F6000 X27.699 Y-3.978
G1 F3000 X30.3 Y-1.378 E974.87765
G0 F6000 X30.3 Y-0.246
G1 F3000 X27.699 Y-2.847 E975.12238
G0 F6000 X27.699 Y-1.716
G1 F3000 X30.3 Y0.884 E975.36697
G0 F6000 X30.3 Y2.015
G1 F3000 X27.699 Y-0.584 E975.61156
G0 F6000 X27.7 Y0.547
G1 F3000 X30.3 Y3.147 E975.85616
G0 F6000 X30.3 Y4.278
G1 F3000 X27.7 Y1.678 E976.10075
G0 F6000 X27.7 Y2.81
G1 F3000 X30.3 Y5.41 E976.34534
G0 F6000 X30.3 Y6.541
G1 F3000 X27.7 Y3.941 E976.58993
G0 F6000 X27.7 Y5.072
G1 F3000 X30.3 Y7.672 E976.83452
G0 F6000 X30.3 Y8.804
G1 F3000 X27.7 Y6.204 E977.07912
G0 F6000 X27.7 Y7.335
G1 F3000 X30.3 Y9.935 E977.32371
G0 F6000 X30.3 Y11.066
G1 F3000 X27.7 Y8.466 E977.5683
G0 F6000 X27.7 Y9.598
G1 F3000 X30.3 Y12.198 E977.81289
G0 F6000 X30.3 Y13.329
G1 F3000 X27.7 Y10.729 E978.05748
G0 F6000 X27.7 Y11.861
G1 F3000 X30.3 Y14.461 E978.30208
G0 F6000 X30.3 Y15.592
G1 F3000 X27.7 Y12.992 E978.54667
G0 F6000 X27.7 Y14.123
G1 F3000 X30.3 Y16.723 E978.79126
G0 F6000 X30.3 Y17.855
G1 F3000 X27.7 Y15.255 E979.03585
G0 F6000 X27.7 Y16.386
G1 F3000 X30.3 Y18.986 E979.28045
G0 F6000 X30.3 Y20.117
G1 F3000 X27.7 Y17.517 E979.52504
G0 F6000 X27.7 Y18.649
G1 F3000 X30.3 Y21.249 E979.76963
G0 F6000 X30.3 Y22.38
G1 F3000 X27.7 Y19.78 E980.01422
G0 F6000 X27.7 Y20.911
G1 F3000 X30.3 Y23.512 E980.25886
G0 F6000 X30.3 Y24.643
G1 F3000 X27.7 Y22.043 E980.50345
G0 F6000 X27.7 Y23.174
G1 F3000 X30.3 Y25.774 E980.74804
G0 F6000 X30.3 Y26.906
G1 F3000 X27.7 Y24.306 E980.99264
G0 F6000 X27.7 Y25.437
G1 F3000 X30.3 Y28.037 E981.23723
G0 F6000 X30.3 Y29.168
G1 F3000 X27.7 Y26.568 E981.48182
G0 F6000 X27.7 Y27.7
G1 F3000 X30.3 Y30.3 E981.72641
G0 F6000 X30.3 Y31.431
G1 F3000 X27.7 Y28.831 E981.971
G0 F6000 X27.7 Y29.962
G1 F3000 X30.3 Y32.562 E982.2156
G0 F6000 X30.3 Y33.694
G1 F3000 X27.7 Y31.094 E982.46019
G0 F6000 X27.7 Y32.225
G1 F3000 X30.3 Y34.825 E982.70478
G0 F6000 X30.3 Y35.957
G1 F3000 X27.7 Y33.357 E982.94937
G0 F6000 X27.585 Y34.373
G1 F3000 X30.3 Y37.088 E983.20478
G0 F6000 X30.3 Y38.219
G1 F3000 X26.454 Y34.373 E983.56659
G0 F6000 X25.322 Y34.373
G1 F3000 X30.3 Y39.351 E984.03489
G0 F6000 X30.3 Y40.482
G1 F3000 X24.191 Y34.373 E984.60959
G0 F6000 X23.06 Y34.373
G1 F3000 X30.3 Y41.613 E985.29068
G0 F6000 X30.3 Y42.745
G1 F3000 X24.699 Y37.145 E985.81754
G0 F6000 X24.028 Y36.473
G1 F3000 X21.928 Y34.373 E986.0151
G0 F6000 X20.797 Y34.373
G1 F3000 X22.896 Y36.473 E986.21261
G0 F6000 X21.765 Y36.473
G1 F3000 X19.666 Y34.373 E986.41012
G0 F6000 X18.534 Y34.373
G1 F3000 X20.634 Y36.473 E986.60767
G0 F6000 X19.502 Y36.473
G1 F3000 X17.403 Y34.373 E986.80518
G0 F6000 X16.271 Y34.373
G1 F3000 X18.371 Y36.473 E987.00273
G0 F6000 X17.239 Y36.473
G1 F3000 X15.14 Y34.373 E987.20024
G0 F6000 X14.009 Y34.373
G1 F3000 X16.108 Y36.473 E987.39775
G0 F6000 X14.977 Y36.473
G1 F3000 X12.877 Y34.373 E987.59531
G0 F6000 X11.746 Y34.373
G1 F3000 X13.845 Y36.473 E987.79281
G0 F6000 X12.714 Y36.473
G1 F3000 X10.615 Y34.373 E987.99032
G0 F6000 X9.483 Y34.373
G1 F3000 X11.583 Y36.473 E988.18788
G0 F6000 X10.451 Y36.473
G1 F3000 X8.352 Y34.373 E988.38538
G0 F6000 X7.22 Y34.373
G1 F3000 X9.32 Y36.473 E988.58294
G0 F6000 X8.189 Y36.473
G1 F3000 X6.089 Y34.373 E988.78049
G0 F6000 X4.958 Y34.373
G1 F3000 X7.057 Y36.473 E988.978
G0 F6000 X5.926 Y36.473
G1 F3000 X3.826 Y34.373 E989.17556
G0 F6000 X2.695 Y34.373
G1 F3000 X4.794 Y36.473 E989.37307
G0 F6000 X3.663 Y36.473
G1 F3000 X1.564 Y34.373 E989.57057
G0 F6000 X0.432 Y34.373
G1 F3000 X2.532 Y36.473 E989.76813
G0 F6000 X1.4 Y36.473
G1 F3000 X-0.698 Y34.373 E989.96559
G0 F6000 X-1.829 Y34.373
G1 F3000 X0.269 Y36.473 E990.163
G0 F6000 X-0.861 Y36.473
G1 F3000 X-2.961 Y34.373 E990.36061
G0 F6000 X-4.092 Y34.373
G1 F3000 X-1.993 Y36.473 E990.55807
G0 F6000 X-3.124 Y36.473
G1 F3000 X-5.224 Y34.373 E990.75567
G0 F6000 X-6.355 Y34.373
G1 F3000 X-4.256 Y36.473 E990.95313
G0 F6000 X-5.387 Y36.473
G1 F3000 X-7.486 Y34.373 E991.15069
G0 F6000 X-8.618 Y34.373
G1 F3000 X-6.518 Y36.473 E991.34819
G0 F6000 X-7.65 Y36.473
G1 F3000 X-9.749 Y34.373 E991.54575
G0 F6000 X-10.88 Y34.373
G1 F3000 X-8.781 Y36.473 E991.74321
G0 F6000 X-9.912 Y36.473
G1 F3000 X-12.012 Y34.373 E991.94081
G0 F6000 X-13.143 Y34.373
G1 F3000 X-11.044 Y36.473 E992.13827
G0 F6000 X-12.175 Y36.473
G1 F3000 X-14.275 Y34.373 E992.33588
G0 F6000 X-15.406 Y34.373
G1 F3000 X-13.307 Y36.473 E992.53334
G0 F6000 X-14.438 Y36.473
G1 F3000 X-16.537 Y34.373 E992.73089
G0 F6000 X-17.669 Y34.373
G1 F3000 X-15.569 Y36.473 E992.9284
G0 F6000 X-16.701 Y36.473
G1 F3000 X-18.8 Y34.373 E993.12596
G0 F6000 X-19.931 Y34.373
G1 F3000 X-17.832 Y36.473 E993.32342
G0 F6000 X-18.963 Y36.473
G1 F3000 X-21.063 Y34.373 E993.52102
G0 F6000 X-22.194 Y34.373
G1 F3000 X-20.095 Y36.473 E993.71848
G0 F6000 X-21.226 Y36.473
G1 F3000 X-23.326 Y34.373 E993.91608
G0 F6000 X-24.457 Y34.373
G1 F3000 X-22.358 Y36.473 E994.11354
G0 F6000 X-23.489 Y36.473
G1 F3000 X-25.588 Y34.373 E994.3111
G0 F6000 X-26.72 Y34.373
G1 F3000 X-24.62 Y36.473 E994.50861
G0 F6000 X-25.752 Y36.473
G1 F3000 X-27.851 Y34.373 E994.70616
G0 F6000 X-28.982 Y34.373
G1 F3000 X-26.883 Y36.473 E994.90362
G0 F6000 X-28.014 Y36.473
G1 F3000 X-30.114 Y34.373 E995.10122
G0 F6000 X-30.298 Y35.321
G1 F3000 X-29.146 Y36.473 E995.20955
G0 F6000 X-30.277 Y36.473
G1 F3000 X-30.297 Y36.453 E995.21148
G1 F3600 E986.81148
G1 Z1.06
G0 F6000 X24.699 Y38.276
G1 Z0.66
G1 F3600 E995.41148
G1 F3000 X30.3 Y43.876 E995.93834
G0 F6000 X30.3 Y45.008
G1 F3000 X24.699 Y39.407 E996.46525
G0 F6000 X24.699 Y40.539
G1 F3000 X30.3 Y46.139 E996.99211
G0 F6000 X30.3 Y47.27
G1 F3000 X24.699 Y41.67 E997.51897
G0 F6000 X24.699 Y42.801
G1 F3000 X30.3 Y48.402 E998.04588
G0 F6000 X30.3 Y49.533
G1 F3000 X24.699 Y43.933 E998.57274
G0 F6000 X24.699 Y45.064
G1 F3000 X30.3 Y50.664 E999.0996
G0 F6000 X30.3 Y51.796
G1 F3000 X24.699 Y46.195 E999.62651
G0 F6000 X24.699 Y47.327
G1 F3000 X30.3 Y52.927 E1000.15337
G0 F6000 X30.3 Y54.059
G1 F3000 X24.699 Y48.458 E1000.68027
G0 F6000 X24.699 Y49.59
G1 F3000 X30.3 Y55.19 E1001.20714
G0 F6000 X30.3 Y56.321
G1 F3000 X24.699 Y50.721 E1001.734
G0 F6000 X24.699 Y51.852
G1 F3000 X30.3 Y57.453 E1002.2609
G0 F6000 X30.3 Y58.584
G1 F3000 X24.699 Y52.984 E1002.78776
G0 F6000 X24.699 Y54.115
G1 F3000 X30.3 Y59.715 E1003.31463
G0 F6000 X30.3 Y60.847
G1 F3000 X24.699 Y55.246 E1003.84153
G0 F6000 X24.699 Y56.378
G1 F3000 X30.3 Y61.978 E1004.36839
G0 F6000 X30.3 Y63.109
G1 F3000 X24.699 Y57.509 E1004.89525
G0 F6000 X24.699 Y58.641
G1 F3000 X30.3 Y64.241 E1005.42211
G0 F6000 X29.44 Y64.512
G1 F3000 X24.699 Y59.772 E1005.86807
G0 F6000 X24.699 Y60.903
G1 F3000 X28.309 Y64.512 E1006.20763
G0 F6000 X27.177 Y64.512
G1 F3000 X24.699 Y62.035 E1006.4407
G0 F6000 X24.699 Y63.166
G1 F3000 X26.046 Y64.512 E1006.56737
G0 F6000 X24.914 Y64.512
G1 F3000 X24.699 Y64.297 E1006.5876
G0 F6000 X30.3 Y-31.925
G1 F3000 X24.699 Y-37.525 E1007.1145
G0 F6000 X24.699 Y-38.656
G1 F3000 X30.3 Y-33.056 E1007.64132
G0 F6000 X30.3 Y-34.187
G1 F3000 X24.699 Y-39.788 E1008.16827
G0 F6000 X24.699 Y-40.919
G1 F3000 X30.3 Y-35.319 E1008.69509
G0 F6000 X30.3 Y-36.45
G1 F3000 X24.699 Y-42.05 E1009.22199
G0 F6000 X24.699 Y-43.182
G1 F3000 X30.3 Y-37.582 E1009.74881
G0 F6000 X30.3 Y-38.713
G1 F3000 X24.699 Y-44.313 E1010.27572
G0 F6000 X24.699 Y-45.445
G1 F3000 X30.3 Y-39.844 E1010.80258
G0 F6000 X30.3 Y-40.976
G1 F3000 X24.699 Y-46.576 E1011.32948
G0 F6000 X24.699 Y-47.707
G1 F3000 X30.3 Y-42.107 E1011.8563
G0 F6000 X30.3 Y-43.238
G1 F3000 X24.699 Y-48.839 E1012.38325
G0 F6000 X24.699 Y-49.97
G1 F3000 X30.3 Y-44.37 E1012.91007
G0 F6000 X30.3 Y-45.501
G1 F3000 X24.699 Y-51.101 E1013.43697
G0 F6000 X24.699 Y-52.233
G1 F3000 X30.3 Y-46.632 E1013.96383
G0 F6000 X30.3 Y-47.764
G1 F3000 X24.699 Y-53.364 E1014.49074
G0 F6000 X24.699 Y-54.496
G1 F3000 X30.3 Y-48.895 E1015.0176
G0 F6000 X30.3 Y-50.027
G1 F3000 X24.699 Y-55.627 E1015.54451
G0 F6000 X24.699 Y-56.758
G1 F3000 X30.3 Y-51.158 E1016.07132
G0 F6000 X30.3 Y-52.289
G1 F3000 X24.699 Y-57.89 E1016.59828
G0 F6000 X24.699 Y-59.021
G1 F3000 X30.3 Y-53.421 E1017.12509
G0 F6000 X30.3 Y-54.552
G1 F3000 X24.699 Y-60.152 E1017.652
G0 F6000 X24.699 Y-61.284
G1 F3000 X30.3 Y-55.683 E1018.17886
G0 F6000 X30.3 Y-56.815
G1 F3000 X24.699 Y-62.415 E1018.70577
G0 F6000 X24.699 Y-63.546
G1 F3000 X30.3 Y-57.946 E1019.23258
G0 F6000 X30.3 Y-59.078
G1 F3000 X24.865 Y-64.512 E1019.74387
G0 F6000 X25.996 Y-64.512
G1 F3000 X30.3 Y-60.209 E1020.14867
G0 F6000 X30.3 Y-61.34
G1 F3000 X27.128 Y-64.512 E1020.44712
G0 F6000 X28.259 Y-64.512
G1 F3000 X30.3 Y-62.472 E1020.63903
G0 F6000 X30.3 Y-63.603
G1 F3000 X29.39 Y-64.512 E1020.72464
; LAYER:3
G1 F3600 E1012.32464
G1 Z1.06
G0 F6000 X33.8 Y-68.014 Z0.86
; TYPE:WALL-INNER
G1 Z0.86
G1 F3600 E1020.92464
G1 F3000 X33.8 Y68.014 E1029.97319
G1 X21.2 Y68.014 E1030.81135
G1 X21.2 Y39.974 E1032.67658
G1 X-33.798 Y39.974 E1036.33506
G1 X-33.798 Y30.875 E1036.94033
G1 X24.2 Y30.875 E1040.7983
G1 X24.2 Y-30.874 E1044.90586
G1 X-33.798 Y-30.874 E1048.76391
G1 X-33.798 Y-39.974 E1049.36931
G1 X21.2 Y-39.974 E1053.02772
G1 X21.2 Y-68.014 E1054.89302
G1 X33.08 Y-68.014 E1055.68328
G0 F6000 X33 Y-67.214
G1 F3000 X33 Y67.214 E1064.6254
G1 X22 Y67.214 E1065.35712
G1 X22 Y39.174 E1067.22235
G1 X-32.998 Y39.174 E1070.88083
G1 X-32.998 Y31.675 E1071.37967
G1 X25 Y31.675 E1075.23764
G1 X25 Y-31.674 E1079.45164
G1 X-32.998 Y-31.674 E1083.30968
G1 X-32.998 Y-39.174 E1083.80865
G1 X22 Y-39.174 E1087.46706
G1 X22 Y-67.214 E1089.33236
G1 X32.28 Y-67.214 E1090.01619
G0 F6000 X32.2 Y-66.414
G1 F3000 X32.2 Y66.414 E1098.85187
G1 X22.8 Y66.414 E1099.47716
G1 X22.8 Y38.374 E1101.34239
G1 X-32.198 Y38.374 E1105.00087
G1 X-32.198 Y32.475 E1105.39328
G1 X25.8 Y32.475 E1109.25125
G1 X25.8 Y-32.474 E1113.57168
G1 X-32.198 Y-32.474 E1117.42972
G1 X-32.198 Y-38.374 E1117.82226
G1 X22.8 Y-38.374 E1121.48067
G1 X22.8 Y-66.414 E1123.34597
G1 X31.48 Y-66.414 E1123.92336
G0 F6000 X31.4 Y-65.614
G1 F3000 X31.4 Y65.614 E1132.65262
G1 X23.6 Y65.614 E1133.17148
G1 X23.6 Y37.574 E1135.03671
G1 X-31.398 Y37.574 E1138.69519
G1 X-31.398 Y33.275 E1138.98116
G1 X26.6 Y33.275 E1142.83913
G1 X26.6 Y-33.274 E1147.26599
G1 X-31.398 Y-33.274 E1151.12403
G1 X-31.398 Y-37.574 E1151.41014
G1 X23.6 Y-37.574 E1155.06855
G1 X23.6 Y-65.614 E1156.93385
G1 X30.68 Y-65.614 E1157.40481
G0 F6000 X30.6 Y-64.814
G1 F3000 X30.6 Y64.814 E1166.02763
G1 X24.4 Y64.814 E1166.44006
G1 X24.4 Y36.774 E1168.30529
G1 X-30.598 Y36.774 E1171.96377
G1 X-30.598 Y34.075 E1172.14331
G1 X27.4 Y34.075 E1176.00128
G1 X27.4 Y-34.074 E1180.53457
G1 X-30.598 Y-34.074 E1184.39262
G1 X-30.598 Y-36.774 E1184.57229
G1 X24.4 Y-36.774 E1188.2307
G1 X24.4 Y-64.814 E1190.096
G1 X29.88 Y-64.814 E1190.46053
G1 F3600 E1182.06053
G1 Z1.26
G0 F6000 X34.6 Y-68.814
; TYPE:WALL-OUTER
G1 Z0.86
G1 F3600 E1190.66053
G1 F2100 X34.6 Y68.814 E1199.81551
G1 X20.4 Y68.814 E1200.7601
G1 X20.4 Y40.774 E1202.62533
G1 X-34.598 Y40.774 E1206.28381
G1 X-34.598 Y30.075 E1206.99551
G1 X23.4 Y30.075 E1210.85349
G1 X23.4 Y-30.074 E1214.85462
G1 X-34.598 Y-30.074 E1218.71266
G1 X-34.598 Y-40.774 E1219.42449
G1 X20.4 Y-40.774 E1223.08291
G1 X20.4 Y-68.814 E1224.9482
G1 X33.88 Y-68.814 E1225.8449
G1 F3600 E1217.4449
G1 Z1.26
G0 F6000 X30.3 Y-64.241
; TYPE:FILL
G1 Z0.86
G1 F3600 E1226.0449
G1 F3000 X24.699 Y-58.641 E1226.57171
G0 F6000 X24.699 Y-59.772
G1 F3000 X29.44 Y-64.512 E1227.01771
G0 F6000 X28.309 Y-64.512
G1 F3000 X24.699 Y-60.903 E1227.35723
G0 F6000 X24.699 Y-62.035
G1 F3000 X27.177 Y-64.512 E1227.59034
G0 F6000 X26.046 Y-64.512
G1 F3000 X24.699 Y-63.166 E1227.71697
G0 F6000 X24.699 Y-64.297
G1 F3000 X24.914 Y-64.512 E1227.73724
G1 F3600 E1219.33724
G1 Z1.26
G0 F6000 X30.3 Y-63.109
G1 Z0.86
G1 F3600 E1227.93724
G1 F3000 X24.699 Y-57.509 E1228.46405
G0 F6000 X24.699 Y-56.378
G1 F3000 X30.3 Y-61.978 E1228.99096
G0 F6000 X30.3 Y-60.847
G1 F3000 X24.699 Y-55.246 E1229.51782
G0 F6000 X24.699 Y-54.115
G1 F3000 X30.3 Y-59.715 E1230.04473
G0 F6000 X30.3 Y-58.584
G1 F3000 X24.699 Y-52.984 E1230.57154
G0 F6000 X24.699 Y-51.852
G1 F3000 X30.3 Y-57.453 E1231.0985
G0 F6000 X30.3 Y-56.321
G1 F3000 X24.699 Y-50.721 E1231.62531
G0 F6000 X24.699 Y-49.59
G1 F3000 X30.3 Y-55.19 E1232.15222
G0 F6000 X30.3 Y-54.059
G1 F3000 X24.699 Y-48.458 E1232.67908
G0 F6000 X24.699 Y-47.327
G1 F3000 X30.3 Y-52.927 E1233.20599
G0 F6000 X30.3 Y-51.796
G1 F3000 X24.699 Y-46.195 E1233.73285
G0 F6000 X24.699 Y-45.064
G1 F3000 X30.3 Y-50.664 E1234.25975
G0 F6000 X30.3 Y-49.533
G1 F3000 X24.699 Y-43.933 E1234.78657
G0 F6000 X24.699 Y-42.801
G1 F3000 X30.3 Y-48.402 E1235.31352
G0 F6000 X30.3 Y-47.27
G1 F3000 X24.699 Y-41.67 E1235.84034
G0 F6000 X24.699 Y-40.539
G1 F3000 X30.3 Y-46.139 E1236.36724
G0 F6000 X30.3 Y-45.008
G1 F3000 X24.699 Y-39.407 E1236.89411
G0 F6000 X24.699 Y-38.276
G1 F3000 X30.3 Y-43.876 E1237.42101
G0 F6000 X30.3 Y-42.745
G1 F3000 X24.699 Y-37.145 E1237.94783
G0 F6000 X24.028 Y-36.473
G1 F3000 X21.928 Y-34.373 E1238.14533
G0 F6000 X23.059 Y-34.373
G1 F3000 X30.3 Y-41.613 E1238.82652
G0 F6000 X30.3 Y-40.482
G1 F3000 X24.19 Y-34.373 E1239.40122
G0 F6000 X25.322 Y-34.373
G1 F3000 X30.3 Y-39.351 E1239.86957
G0 F6000 X30.3 Y-38.219
G1 F3000 X26.453 Y-34.373 E1240.23138
G0 F6000 X27.584 Y-34.373
G1 F3000 X30.3 Y-37.088 E1240.48688
G0 F6000 X30.3 Y-35.957
G1 F3000 X27.699 Y-33.356 E1240.73152
G0 F6000 X27.699 Y-32.224
G1 F3000 X30.3 Y-34.825 E1240.97625
G0 F6000 X30.3 Y-33.694
G1 F3000 X27.699 Y-31.093 E1241.22089
G0 F6000 X27.699 Y-29.962
G1 F3000 X30.3 Y-32.562 E1241.46558
G0 F6000 X30.3 Y-31.431
G1 F3000 X27.699 Y-28.83 E1241.71022
G0 F6000 X27.699 Y-27.699
G1 F3000 X30.3 Y-30.3 E1241.95495
G0 F6000 X30.3 Y-29.168
G1 F3000 X27.699 Y-26.568 E1242.19954
G0 F6000 X27.699 Y-25.436
G1 F3000 X30.3 Y-28.037 E1242.44428
G0 F6000 X30.3 Y-26.906
G1 F3000 X27.699 Y-24.305 E1242.68891
G0 F6000 X27.699 Y-23.174
G1 F3000 X30.3 Y-25.774 E1242.9336
G0 F6000 X30.3 Y-24.643
G1 F3000 X27.699 Y-22.042 E1243.17824
G0 F6000 X27.699 Y-20.911
G1 F3000 X30.3 Y-23.512 E1243.42297
G0 F6000 X30.3 Y-22.38
G1 F3000 X27.699 Y-19.779 E1243.66761
G0 F6000 X27.699 Y-18.648
G1 F3000 X30.3 Y-21.249 E1243.91235
G0 F6000 X30.3 Y-20.117
G1 F3000 X27.699 Y-17.517 E1244.15694
G0 F6000 X27.699 Y-16.385
G1 F3000 X30.3 Y-18.986 E1244.40167
G0 F6000 X30.3 Y-17.855
G1 F3000 X27.699 Y-15.254 E1244.64631
G0 F6000 X27.699 Y-14.123
G1 F3000 X30.3 Y-16.723 E1244.891
G0 F6000 X30.3 Y-15.592
G1 F3000 X27.699 Y-12.991 E1245.13563
G0 F6000 X27.699 Y-11.86
G1 F3000 X30.3 Y-14.461 E1245.38037
G0 F6000 X30.3 Y-13.329
G1 F3000 X27.699 Y-10.728 E1245.62501
G0 F6000 X27.699 Y-9.597
G1 F3000 X30.3 Y-12.198 E1245.86974
G0 F6000 X30.3 Y-11.066
G1 F3000 X27.699 Y-8.466 E1246.11433
G0 F6000 X27.699 Y-7.334
G1 F3000 X30.3 Y-9.935 E1246.35907
G0 F6000 X30.3 Y-8.804
G1 F3000 X27.699 Y-6.203 E1246.6037
G0 F6000 X27.699 Y-5.072
G1 F3000 X30.3 Y-7.672 E1246.84839
G0 F6000 X30.3 Y-6.541
G1 F3000 X27.699 Y-3.94 E1247.09303
G0 F6000 X27.699 Y-2.809
G1 F3000 X30.3 Y-5.41 E1247.33776
G0 F6000 X30.3 Y-4.278
G1 F3000 X27.699 Y-1.677 E1247.5824
G0 F6000 X27.699 Y-0.546
G1 F3000 X30.3 Y-3.147 E1247.82714
G0 F6000 X30.3 Y-2.015
G1 F3000 X27.7 Y0.584 E1248.07163
G0 F6000 X27.7 Y1.715
G1 F3000 X30.3 Y-0.884 E1248.31618
G0 F6000 X30.3 Y0.246
G1 F3000 X27.7 Y2.846 E1248.56077
G0 F6000 X27.7 Y3.978
G1 F3000 X30.3 Y1.378 E1248.80536
G0 F6000 X30.3 Y2.509
G1 F3000 X27.7 Y5.109 E1249.04995
G0 F6000 X27.7 Y6.24
G1 F3000 X30.3 Y3.64 E1249.29455
G0 F6000 X30.3 Y4.772
G1 F3000 X27.7 Y7.372 E1249.53914
G0 F6000 X27.7 Y8.503
G1 F3000 X30.3 Y5.903 E1249.78373
G0 F6000 X30.3 Y7.035
G1 F3000 X27.7 Y9.635 E1250.02832
G0 F6000 X27.7 Y10.766
G1 F3000 X30.3 Y8.166 E1250.27291
G0 F6000 X30.3 Y9.297
G1 F3000 X27.7 Y11.897 E1250.51751
G0 F6000 X27.7 Y13.029
G1 F3000 X30.3 Y10.429 E1250.7621
G0 F6000 X30.3 Y11.56
G1 F3000 X27.7 Y14.16 E1251.00669
G0 F6000 X27.7 Y15.291
G1 F3000 X30.3 Y12.691 E1251.25128
G0 F6000 X30.3 Y13.823
G1 F3000 X27.7 Y16.423 E1251.49588
G0 F6000 X27.7 Y17.554
G1 F3000 X30.3 Y14.954 E1251.74047
G0 F6000 X30.3 Y16.085
G1 F3000 X27.7 Y18.686 E1251.98511
G0 F6000 X27.7 Y19.817
G1 F3000 X30.3 Y17.217 E1252.2297
G0 F6000 X30.3 Y18.348
G1 F3000 X27.7 Y20.948 E1252.47429
G0 F6000 X27.7 Y22.08
G1 F3000 X30.3 Y19.48 E1252.71888
G0 F6000 X30.3 Y20.611
G1 F3000 X27.7 Y23.211 E1252.96347
G0 F6000 X27.7 Y24.342
G1 F3000 X30.3 Y21.742 E1253.20807
G0 F6000 X30.3 Y22.874
G1 F3000 X27.7 Y25.474 E1253.45266
G0 F6000 X27.7 Y26.605
G1 F3000 X30.3 Y24.005 E1253.69725
G0 F6000 X30.3 Y25.136
G1 F3000 X27.7 Y27.736 E1253.94184
G0 F6000 X27.7 Y28.868
G1 F3000 X30.3 Y26.268 E1254.18643
G0 F6000 X30.3 Y27.399
G1 F3000 X27.7 Y29.999 E1254.43103
G0 F6000 X27.7 Y31.131
G1 F3000 X30.3 Y28.531 E1254.67562
G0 F6000 X30.3 Y29.662
G1 F3000 X27.7 Y32.262 E1254.92021
G0 F6000 X27.7 Y33.393
G1 F3000 X30.3 Y30.793 E1255.1648
G0 F6000 X30.3 Y31.925
G1 F3000 X24.699 Y37.525 E1255.69166
G0 F6000 X24.62 Y36.473
G1 F3000 X26.72 Y34.373 E1255.88922
G0 F6000 X25.588 Y34.373
G1 F3000 X23.489 Y36.473 E1256.08673
G0 F6000 X22.358 Y36.473
G1 F3000 X24.457 Y34.373 E1256.28424
G0 F6000 X23.326 Y34.373
G1 F3000 X21.226 Y36.473 E1256.48179
G0 F6000 X20.095 Y36.473
G1 F3000 X22.194 Y34.373 E1256.6793
G0 F6000 X21.063 Y34.373
G1 F3000 X18.963 Y36.473 E1256.87685
G0 F6000 X17.832 Y36.473
G1 F3000 X19.931 Y34.373 E1257.07436
G0 F6000 X18.8 Y34.373
G1 F3000 X16.701 Y36.473 E1257.27187
G0 F6000 X15.569 Y36.473
G1 F3000 X17.669 Y34.373 E1257.46942
G0 F6000 X16.537 Y34.373
G1 F3000 X14.438 Y36.473 E1257.66693
G0 F6000 X13.307 Y36.473
G1 F3000 X15.406 Y34.373 E1257.86444
G0 F6000 X14.275 Y34.373
G1 F3000 X12.175 Y36.473 E1258.062
G0 F6000 X11.044 Y36.473
G1 F3000 X13.143 Y34.373 E1258.2595
G0 F6000 X12.012 Y34.373
G1 F3000 X9.912 Y36.473 E1258.45706
G0 F6000 X8.781 Y36.473
G1 F3000 X10.88 Y34.373 E1258.65457
G0 F6000 X9.749 Y34.373
G1 F3000 X7.65 Y36.473 E1258.85208
G0 F6000 X6.518 Y36.473
G1 F3000 X8.618 Y34.373 E1259.04963
G0 F6000 X7.486 Y34.373
G1 F3000 X5.387 Y36.473 E1259.24714
G0 F6000 X4.256 Y36.473
G1 F3000 X6.355 Y34.373 E1259.44465
G0 F6000 X5.224 Y34.373
G1 F3000 X3.124 Y36.473 E1259.6422
G0 F6000 X1.993 Y36.473
G1 F3000 X4.092 Y34.373 E1259.83971
G0 F6000 X2.961 Y34.373
G1 F3000 X0.861 Y36.473 E1260.03727
G0 F6000 X-0.269 Y36.473
G1 F3000 X1.829 Y34.373 E1260.23468
G0 F6000 X0.698 Y34.373
G1 F3000 X-1.4 Y36.473 E1260.43214
G0 F6000 X-2.532 Y36.473
G1 F3000 X-0.432 Y34.373 E1260.62965
G0 F6000 X-1.564 Y34.373
G1 F3000 X-3.663 Y36.473 E1260.8272
G0 F6000 X-4.794 Y36.473
G1 F3000 X-2.695 Y34.373 E1261.02466
G0 F6000 X-3.826 Y34.373
G1 F3000 X-5.926 Y36.473 E1261.22227
G0 F6000 X-7.057 Y36.473
G1 F3000 X-4.958 Y34.373 E1261.41973
G0 F6000 X-6.089 Y34.373
G1 F3000 X-8.189 Y36.473 E1261.61733
G0 F6000 X-9.32 Y36.473
G1 F3000 X-7.22 Y34.373 E1261.81484
G0 F6000 X-8.352 Y34.373
G1 F3000 X-10.451 Y36.473 E1262.01239
G0 F6000 X-11.583 Y36.473
G1 F3000 X-9.483 Y34.373 E1262.2099
G0 F6000 X-10.615 Y34.373
G1 F3000 X-12.714 Y36.473 E1262.40746
G0 F6000 X-13.845 Y36.473
G1 F3000 X-11.746 Y34.373 E1262.60492
G0 F6000 X-12.877 Y34.373
G1 F3000 X-14.977 Y36.473 E1262.80252
G0 F6000 X-16.108 Y36.473
G1 F3000 X-14.009 Y34.373 E1262.99998
G0 F6000 X-15.14 Y34.373
G1 F3000 X-17.239 Y36.473 E1263.19754
G0 F6000 X-18.371 Y36.473
G1 F3000 X-16.271 Y34.373 E1263.39504
G0 F6000 X-17.403 Y34.373
G1 F3000 X-19.502 Y36.473 E1263.5926
G0 F6000 X-20.634 Y36.473
G1 F3000 X-18.534 Y34.373 E1263.79011
G0 F6000 X-19.666 Y34.373
G1 F3000 X-21.765 Y36.473 E1263.98766
G0 F6000 X-22.896 Y36.473
G1 F3000 X-20.797 Y34.373 E1264.18512
G0 F6000 X-21.928 Y34.373
G1 F3000 X-24.028 Y36.473 E1264.38273
G0 F6000 X-25.159 Y36.473
G1 F3000 X-23.06 Y34.373 E1264.58019
G0 F6000 X-24.191 Y34.373
G1 F3000 X-26.29 Y36.473 E1264.77774
G0 F6000 X-27.422 Y36.473
G1 F3000 X-25.322 Y34.373 E1264.97525
G0 F6000 X-26.454 Y34.373
G1 F3000 X-28.553 Y36.473 E1265.1728
G0 F6000 X-29.685 Y36.473
G1 F3000 X-27.585 Y34.373 E1265.37031
G0 F6000 X-28.717 Y34.373
G1 F3000 X-30.297 Y35.954 E1265.51904
G0 F6000 X-30.298 Y34.823
G1 F3000 X-29.848 Y34.373 E1265.56133
G1 F3600 E1257.16133
G1 Z1.26
G0 F6000 X24.699 Y38.656
G1 Z0.86
G1 F3600 E1265.76133
G1 F3000 X30.3 Y33.056 E1266.28819
G0 F6000 X30.3 Y34.187
G1 F3000 X24.699 Y39.788 E1266.8151
G0 F6000 X24.699 Y40.919
G1 F3000 X30.3 Y35.319 E1267.34196
G0 F6000 X30.3 Y36.45
G1 F3000 X24.699 Y42.05 E1267.86882
G0 F6000 X24.699 Y43.182
G1 F3000 X30.3 Y37.582 E1268.39568
G0 F6000 X30.3 Y38.713
G1 F3000 X24.699 Y44.313 E1268.92254
G0 F6000 X24.699 Y45.445
G1 F3000 X30.3 Y39.844 E1269.44945
G0 F6000 X30.3 Y40.976
G1 F3000 X24.699 Y46.576 E1269.97631
G0 F6000 X24.699 Y47.707
G1 F3000 X30.3 Y42.107 E1270.50317
G0 F6000 X30.3 Y43.238
G1 F3000 X24.699 Y48.839 E1271.03008
G0 F6000 X24.699 Y49.97
G1 F3000 X30.3 Y44.37 E1271.55694
G0 F6000 X30.3 Y45.501
G1 F3000 X24.699 Y51.101 E1272.0838
G0 F6000 X24.699 Y52.233
G1 F3000 X30.3 Y46.632 E1272.61071
G0 F6000 X30.3 Y47.764
G1 F3000 X24.699 Y53.364 E1273.13757
G0 F6000 X24.699 Y54.496
G1 F3000 X30.3 Y48.895 E1273.66448
G0 F6000 X30.3 Y50.027
G1 F3000 X24.699 Y55.627 E1274.19134
G0 F6000 X24.699 Y56.758
G1 F3000 X30.3 Y51.158 E1274.7182
G0 F6000 X30.3 Y52.289
G1 F3000 X24.699 Y57.89 E1275.2451
G0 F6000 X24.699 Y59.021
G1 F3000 X30.3 Y53.421 E1275.77197
G0 F6000 X30.3 Y54.552
G1 F3000 X24.699 Y60.152 E1276.29883
G0 F6000 X24.699 Y61.284
G1 F3000 X30.3 Y55.683 E1276.82573
G0 F6000 X30.3 Y56.815
G1 F3000 X24.699 Y62.415 E1277.35259
G0 F6000 X24.699 Y63.546
G1 F3000 X30.3 Y57.946 E1277.87946
G0 F6000 X30.3 Y59.078
G1 F3000 X24.865 Y64.512 E1278.3907
G0 F6000 X25.996 Y64.512
G1 F3000 X30.3 Y60.209 E1278.79555
G0 F6000 X30.3 Y61.34
G1 F3000 X27.128 Y64.512 E1279.09395
G0 F6000 X28.259 Y64.512
G1 F3000 X30.3 Y62.472 E1279.28591
G0 F6000 X30.3 Y63.603
G1 F3000 X29.39 Y64.512 E1279.37147
G1 F3600 E1270.97147
G1 Z1.26
G0 F6000 X23.817 Y0.391
G0 X23.941 Y-30.615
G0 X20.796 Y-34.373
G0 X20.796 Y-34.373
G1 Z0.86
G1 F3600 E1279.57147
G1 F3000 X22.896 Y-36.473 E1279.76907
G0 F6000 X21.765 Y-36.473
G1 F3000 X19.665 Y-34.373 E1279.96658
G0 F6000 X18.533 Y-34.373
G1 F3000 X20.634 Y-36.473 E1280.16423
G0 F6000 X19.502 Y-36.473
G1 F3000 X17.402 Y-34.373 E1280.36173
G0 F6000 X16.271 Y-34.373
G1 F3000 X18.371 Y-36.473 E1280.55934
G0 F6000 X17.239 Y-36.473
G1 F3000 X15.139 Y-34.373 E1280.75684
G0 F6000 X14.008 Y-34.373
G1 F3000 X16.108 Y-36.473 E1280.95445
G0 F6000 X14.977 Y-36.473
G1 F3000 X12.877 Y-34.373 E1281.15195
G0 F6000 X11.745 Y-34.373
G1 F3000 X13.845 Y-36.473 E1281.34956
G0 F6000 X12.714 Y-36.473
G1 F3000 X10.614 Y-34.373 E1281.54707
G0 F6000 X9.483 Y-34.373
G1 F3000 X11.583 Y-36.473 E1281.74467
G0 F6000 X10.451 Y-36.473
G1 F3000 X8.351 Y-34.373 E1281.94218
G0 F6000 X7.22 Y-34.373
G1 F3000 X9.32 Y-36.473 E1282.13978
G0 F6000 X8.189 Y-36.473
G1 F3000 X6.088 Y-34.373 E1282.33733
G0 F6000 X4.957 Y-34.373
G1 F3000 X7.057 Y-36.473 E1282.53493
G0 F6000 X5.926 Y-36.473
G1 F3000 X3.826 Y-34.373 E1282.73244
G0 F6000 X2.694 Y-34.373
G1 F3000 X4.794 Y-36.473 E1282.93005
G0 F6000 X3.663 Y-36.473
G1 F3000 X1.563 Y-34.373 E1283.12755
G0 F6000 X0.432 Y-34.373
G1 F3000 X2.532 Y-36.473 E1283.32516
G0 F6000 X1.4 Y-36.473
G1 F3000 X-0.699 Y-34.373 E1283.52262
G0 F6000 X-1.829 Y-34.373
G1 F3000 X0.269 Y-36.473 E1283.72008
G0 F6000 X-0.861 Y-36.473
G1 F3000 X-2.961 Y-34.373 E1283.91763
G0 F6000 X-4.092 Y-34.373
G1 F3000 X-1.993 Y-36.473 E1284.11514
G0 F6000 X-3.124 Y-36.473
G1 F3000 X-5.224 Y-34.373 E1284.3127
G0 F6000 X-6.355 Y-34.373
G1 F3000 X-4.256 Y-36.473 E1284.5102
G0 F6000 X-5.387 Y-36.473
G1 F3000 X-7.486 Y-34.373 E1284.70771
G0 F6000 X-8.618 Y-34.373
G1 F3000 X-6.518 Y-36.473 E1284.90527
G0 F6000 X-7.65 Y-36.473
G1 F3000 X-9.749 Y-34.373 E1285.10278
G0 F6000 X-10.88 Y-34.373
G1 F3000 X-8.781 Y-36.473 E1285.30028
G0 F6000 X-9.912 Y-36.473
G1 F3000 X-12.012 Y-34.373 E1285.49784
G0 F6000 X-13.143 Y-34.373
G1 F3000 X-11.044 Y-36.473 E1285.69535
G0 F6000 X-12.175 Y-36.473
G1 F3000 X-14.275 Y-34.373 E1285.8929
G0 F6000 X-15.406 Y-34.373
G1 F3000 X-13.307 Y-36.473 E1286.09041
G0 F6000 X-14.438 Y-36.473
G1 F3000 X-16.537 Y-34.373 E1286.28792
G0 F6000 X-17.669 Y-34.373
G1 F3000 X-15.569 Y-36.473 E1286.48547
G0 F6000 X-16.701 Y-36.473
G1 F3000 X-18.8 Y-34.373 E1286.68298
G0 F6000 X-19.931 Y-34.373
G1 F3000 X-17.832 Y-36.473 E1286.88049
G0 F6000 X-18.963 Y-36.473
G1 F3000 X-21.063 Y-34.373 E1287.07804
G0 F6000 X-22.194 Y-34.373
G1 F3000 X-20.095 Y-36.473 E1287.27555
G0 F6000 X-21.226 Y-36.473
G1 F3000 X-23.326 Y-34.373 E1287.47311
G0 F6000 X-24.457 Y-34.373
G1 F3000 X-22.358 Y-36.473 E1287.67062
G0 F6000 X-23.489 Y-36.473
G1 F3000 X-25.588 Y-34.373 E1287.86812
G0 F6000 X-26.72 Y-34.373
G1 F3000 X-24.62 Y-36.473 E1288.06568
G0 F6000 X-25.752 Y-36.473
G1 F3000 X-27.851 Y-34.373 E1288.26319
G0 F6000 X-28.982 Y-34.373
G1 F3000 X-26.883 Y-36.473 E1288.4607
G0 F6000 X-28.014 Y-36.473
G1 F3000 X-30.114 Y-34.373 E1288.65825
G0 F6000 X-30.298 Y-35.321
G1 F3000 X-29.146 Y-36.473 E1288.76662
G0 F6000 X-30.277 Y-36.473
G1 F3000 X-30.297 Y-36.453 E1288.76851
; LAYER:4
G0 F6000 X-33.798 Y-39.974 Z1.06
; TYPE:WALL-INNER
G1 F3000 X21.2 Y-39.974 E1292.42692
G1 X21.2 Y-68.014 E1294.29222
G1 X33.8 Y-68.014 E1295.13037
G1 X33.8 Y68.014 E1304.17893
G1 X21.2 Y68.014 E1305.01708
G1 X21.2 Y39.974 E1306.88231
G1 X-33.798 Y39.974 E1310.54079
G1 X-33.798 Y30.875 E1311.14606
G1 X24.2 Y30.875 E1315.00404
G1 X24.2 Y-30.874 E1319.1116
G1 X-33.798 Y-30.874 E1322.96964
G1 X-33.798 Y-39.254 E1323.52714
G0 F6000 X-32.998 Y-39.174
G1 F3000 X22 Y-39.174 E1327.18556
G1 X22 Y-67.214 E1329.05086
G1 X33 Y-67.214 E1329.78258
G1 X33 Y67.214 E1338.7247
G1 X22 Y67.214 E1339.45642
G1 X22 Y39.174 E1341.32165
G1 X-32.998 Y39.174 E1344.98013
G1 X-32.998 Y31.675 E1345.47897
G1 X25 Y31.675 E1349.33694
G1 X25 Y-31.674 E1353.55094
G1 X-32.998 Y-31.674 E1357.40898
G1 X-32.998 Y-38.454 E1357.86005
G0 F6000 X-32.198 Y-38.374
G1 F3000 X22.8 Y-38.374 E1361.51847
G1 X22.8 Y-66.414 E1363.38376
G1 X32.2 Y-66.414 E1364.00905
G1 X32.2 Y66.414 E1372.84474
G1 X22.8 Y66.414 E1373.47003
G1 X22.8 Y38.374 E1375.33526
G1 X-32.198 Y38.374 E1378.99374
G1 X-32.198 Y32.475 E1379.38614
G1 X25.8 Y32.475 E1383.24412
G1 X25.8 Y-32.474 E1387.56455
G1 X-32.198 Y-32.474 E1391.42259
G1 X-32.198 Y-37.654 E1391.76723
G0 F6000 X-31.398 Y-37.574
G1 F3000 X23.6 Y-37.574 E1395.42565
G1 X23.6 Y-65.614 E1397.29094
G1 X31.4 Y-65.614 E1397.8098
G1 X31.4 Y65.614 E1406.53905
G1 X23.6 Y65.614 E1407.05791
G1 X23.6 Y37.574 E1408.92314
G1 X-31.398 Y37.574 E1412.58162
G1 X-31.398 Y33.275 E1412.86759
G1 X26.6 Y33.275 E1416.72557
G1 X26.6 Y-33.274 E1421.15243
G1 X-31.398 Y-33.274 E1425.01047
G1 X-31.398 Y-36.854 E1425.24868
G0 F6000 X-30.598 Y-36.774
G1 F3000 X24.4 Y-36.774 E1428.90709
G1 X24.4 Y-64.814 E1430.77239
G1 X30.6 Y-64.814 E1431.18481
G1 X30.6 Y64.814 E1439.80764
G1 X24.4 Y64.814 E1440.22006
G1 X24.4 Y36.774 E1442.08529
G1 X-30.598 Y36.774 E1445.74377
G1 X-30.598 Y34.075 E1445.92331
G1 X27.4 Y34.075 E1449.78129
G1 X27.4 Y-34.074 E1454.31458
G1 X-30.598 Y-34.074 E1458.17262
G1 X-30.598 Y-36.054 E1458.3044
G1 F3600 E1449.9044
G1 Z1.46
G0 F6000 X-34.598 Y-40.774
; TYPE:WALL-OUTER
G1 Z1.06
G1 F3600 E1458.5044
G1 F2100 X20.4 Y-40.774 E1462.16281
G1 X20.4 Y-68.814 E1464.02811
G1 X34.6 Y-68.814 E1464.97269
G1 X34.6 Y68.814 E1474.12768
G1 X20.4 Y68.814 E1475.07227
G1 X20.4 Y40.774 E1476.9375
G1 X-34.598 Y40.774 E1480.59598
G1 X-34.598 Y30.075 E1481.30768
G1 X23.4 Y30.075 E1485.16565
G1 X23.4 Y-30.074 E1489.16678
G1 X-34.598 Y-30.074 E1493.02482
G1 X-34.598 Y-40.054 E1493.68876
G1 F3600 E1485.28876
G1 Z1.46
G0 F6000 X-30.297 Y-35.954
; TYPE:FILL
G1 Z1.06
G1 F3600 E1493.88876
G1 F3000 X-28.717 Y-34.373 E1494.03735
G0 F6000 X-29.848 Y-34.373
G1 F3000 X-30.298 Y-34.823 E1494.07978
G0 F6000 X-29.685 Y-36.473
G1 F3000 X-27.585 Y-34.373 E1494.27724
G0 F6000 X-26.454 Y-34.373
G1 F3000 X-28.553 Y-36.473 E1494.47484
G0 F6000 X-27.422 Y-36.473
G1 F3000 X-25.322 Y-34.373 E1494.6723
G0 F6000 X-24.191 Y-34.373
G1 F3000 X-26.29 Y-36.473 E1494.86991
G0 F6000 X-25.159 Y-36.473
G1 F3000 X-23.06 Y-34.373 E1495.06732
G0 F6000 X-21.928 Y-34.373
G1 F3000 X-24.028 Y-36.473 E1495.26497
G0 F6000 X-22.896 Y-36.473
G1 F3000 X-20.797 Y-34.373 E1495.46238
G0 F6000 X-19.666 Y-34.373
G1 F3000 X-21.765 Y-36.473 E1495.65999
G0 F6000 X-20.634 Y-36.473
G1 F3000 X-18.534 Y-34.373 E1495.85745
G0 F6000 X-17.403 Y-34.373
G1 F3000 X-19.502 Y-36.473 E1496.05505
G0 F6000 X-18.371 Y-36.473
G1 F3000 X-16.271 Y-34.373 E1496.25251
G0 F6000 X-15.14 Y-34.373
G1 F3000 X-17.239 Y-36.473 E1496.45011
G0 F6000 X-16.108 Y-36.473
G1 F3000 X-14.009 Y-34.373 E1496.64753
G0 F6000 X-12.877 Y-34.373
G1 F3000 X-14.977 Y-36.473 E1496.84518
G0 F6000 X-13.845 Y-36.473
G1 F3000 X-11.746 Y-34.373 E1497.04259
G0 F6000 X-10.615 Y-34.373
G1 F3000 X-12.714 Y-36.473 E1497.24019
G0 F6000 X-11.583 Y-36.473
G1 F3000 X-9.483 Y-34.373 E1497.43765
G0 F6000 X-8.352 Y-34.373
G1 F3000 X-10.451 Y-36.473 E1497.63526
G0 F6000 X-9.32 Y-36.473
G1 F3000 X-7.22 Y-34.373 E1497.83272
G0 F6000 X-6.089 Y-34.373
G1 F3000 X-8.189 Y-36.473 E1498.03037
G0 F6000 X-7.057 Y-36.473
G1 F3000 X-4.958 Y-34.373 E1498.22778
G0 F6000 X-3.826 Y-34.373
G1 F3000 X-5.926 Y-36.473 E1498.42543
G0 F6000 X-4.794 Y-36.473
G1 F3000 X-2.695 Y-34.373 E1498.62284
G0 F6000 X-1.564 Y-34.373
G1 F3000 X-3.663 Y-36.473 E1498.82044
G0 F6000 X-2.532 Y-36.473
G1 F3000 X-0.432 Y-34.373 E1499.01791
G0 F6000 X0.699 Y-34.373
G1 F3000 X-1.4 Y-36.473 E1499.21546
G0 F6000 X-0.269 Y-36.473
G1 F3000 X1.83 Y-34.373 E1499.41288
G0 F6000 X2.962 Y-34.373
G1 F3000 X0.861 Y-36.473 E1499.61052
G0 F6000 X1.993 Y-36.473
G1 F3000 X4.093 Y-34.373 E1499.80803
G0 F6000 X5.224 Y-34.373
G1 F3000 X3.124 Y-36.473 E1500.00563
G0 F6000 X4.256 Y-36.473
G1 F3000 X6.356 Y-34.373 E1500.20314
G0 F6000 X7.487 Y-34.373
G1 F3000 X5.387 Y-36.473 E1500.40074
G0 F6000 X6.518 Y-36.473
G1 F3000 X8.618 Y-34.373 E1500.59825
G0 F6000 X9.75 Y-34.373
G1 F3000 X7.65 Y-36.473 E1500.79586
G0 F6000 X8.781 Y-36.473
G1 F3000 X10.881 Y-34.373 E1500.99336
G0 F6000 X12.013 Y-34.373
G1 F3000 X9.912 Y-36.473 E1501.19101
G0 F6000 X11.044 Y-36.473
G1 F3000 X13.144 Y-34.373 E1501.38852
G0 F6000 X14.275 Y-34.373
G1 F3000 X12.175 Y-36.473 E1501.58612
G0 F6000 X13.307 Y-36.473
G1 F3000 X15.407 Y-34.373 E1501.78363
G0 F6000 X16.538 Y-34.373
G1 F3000 X14.438 Y-36.473 E1501.98123
G0 F6000 X15.569 Y-36.473
G1 F3000 X17.669 Y-34.373 E1502.17874
G0 F6000 X18.801 Y-34.373
G1 F3000 X16.701 Y-36.473 E1502.37634
G0 F6000 X17.832 Y-36.473
G1 F3000 X19.932 Y-34.373 E1502.57385
G0 F6000 X21.064 Y-34.373
G1 F3000 X18.963 Y-36.473 E1502.7715
G0 F6000 X20.095 Y-36.473
G1 F3000 X22.195 Y-34.373 E1502.96901
G0 F6000 X23.326 Y-34.373
G1 F3000 X21.226 Y-36.473 E1503.16661
G0 F6000 X22.358 Y-36.473
G1 F3000 X24.458 Y-34.373 E1503.36412
G0 F6000 X25.589 Y-34.373
G1 F3000 X23.489 Y-36.473 E1503.56172
G0 F6000 X24.62 Y-36.473
G1 F3000 X26.72 Y-34.373 E1503.75923
G0 F6000 X27.699 Y-33.394
G1 F3000 X30.3 Y-30.793 E1504.00387
G0 F6000 X30.3 Y-29.662
G1 F3000 X27.699 Y-32.263 E1504.2486
G0 F6000 X27.699 Y-31.131
G1 F3000 X30.3 Y-28.531 E1504.49319
G0 F6000 X30.3 Y-27.399
G1 F3000 X27.699 Y-30 E1504.73793
G0 F6000 X27.699 Y-28.869
G1 F3000 X30.3 Y-26.268 E1504.98257
G0 F6000 X30.3 Y-25.136
G1 F3000 X27.699 Y-27.737 E1505.2273
G0 F6000 X27.699 Y-26.606
G1 F3000 X30.3 Y-24.005 E1505.47194
G0 F6000 X30.3 Y-22.874
G1 F3000 X27.699 Y-25.474 E1505.71662
G0 F6000 X27.699 Y-24.343
G1 F3000 X30.3 Y-21.742 E1505.96126
G0 F6000 X30.3 Y-20.611
G1 F3000 X27.699 Y-23.212 E1506.206
G0 F6000 X27.699 Y-22.08
G1 F3000 X30.3 Y-19.48 E1506.45059
G0 F6000 X30.3 Y-18.348
G1 F3000 X27.699 Y-20.949 E1506.69532
G0 F6000 X27.699 Y-19.818
G1 F3000 X30.3 Y-17.217 E1506.93996
G0 F6000 X30.3 Y-16.085
G1 F3000 X27.699 Y-18.686 E1507.18469
G0 F6000 X27.699 Y-17.555
G1 F3000 X30.3 Y-14.954 E1507.42933
G0 F6000 X30.3 Y-13.823
G1 F3000 X27.699 Y-16.423 E1507.67402
G0 F6000 X27.699 Y-15.292
G1 F3000 X30.3 Y-12.691 E1507.91866
G0 F6000 X30.3 Y-11.56
G1 F3000 X27.699 Y-14.161 E1508.16339
G0 F6000 X27.699 Y-13.029
G1 F3000 X30.3 Y-10.429 E1508.40798
G0 F6000 X30.3 Y-9.297
G1 F3000 X27.699 Y-11.898 E1508.65272
G0 F6000 X27.699 Y-10.767
G1 F3000 X30.3 Y-8.166 E1508.89736
G0 F6000 X30.3 Y-7.035
G1 F3000 X27.699 Y-9.635 E1509.14204
G0 F6000 X27.699 Y-8.504
G1 F3000 X30.3 Y-5.903 E1509.38668
G0 F6000 X30.3 Y-4.772
G1 F3000 X27.699 Y-7.373 E1509.63141
G0 F6000 X27.699 Y-6.241
G1 F3000 X30.3 Y-3.64 E1509.87605
G0 F6000 X30.3 Y-2.509
G1 F3000 X27.699 Y-5.11 E1510.12079
G0 F6000 X27.699 Y-3.978
G1 F3000 X30.3 Y-1.378 E1510.36538
G0 F6000 X30.3 Y-0.246
G1 F3000 X27.699 Y-2.847 E1510.61011
G0 F6000 X27.699 Y-1.716
G1 F3000 X30.3 Y0.884 E1510.8547
G0 F6000 X30.3 Y2.015
G1 F3000 X27.699 Y-0.584 E1511.0993
G0 F6000 X27.7 Y0.547
G1 F3000 X30.3 Y3.147 E1511.34389
G0 F6000 X30.3 Y4.278
G1 F3000 X27.7 Y1.678 E1511.58848
G0 F6000 X27.7 Y2.81
G1 F3000 X30.3 Y5.41 E1511.83307
G0 F6000 X30.3 Y6.541
G1 F3000 X27.7 Y3.941 E1512.07766
G0 F6000 X27.7 Y5.072
G1 F3000 X30.3 Y7.672 E1512.32226
G0 F6000 X30.3 Y8.804
G1 F3000 X27.7 Y6.204 E1512.56685
G0 F6000 X27.7 Y7.335
G1 F3000 X30.3 Y9.935 E1512.81144
G0 F6000 X30.3 Y11.066
G1 F3000 X27.7 Y8.466 E1513.05603
G0 F6000 X27.7 Y9.598
G1 F3000 X30.3 Y12.198 E1513.30062
G0 F6000 X30.3 Y13.329
G1 F3000 X27.7 Y10.729 E1513.54522
G0 F6000 X27.7 Y11.861
G1 F3000 X30.3 Y14.461 E1513.78981
G0 F6000 X30.3 Y15.592
G1 F3000 X27.7 Y12.992 E1514.0344
G0 F6000 X27.7 Y14.123
G1 F3000 X30.3 Y16.723 E1514.27899
G0 F6000 X30.3 Y17.855
G1 F3000 X27.7 Y15.255 E1514.52358
G0 F6000 X27.7 Y16.386
G1 F3000 X30.3 Y18.986 E1514.76818
G0 F6000 X30.3 Y20.117
G1 F3000 X27.7 Y17.517 E1515.01277
G0 F6000 X27.7 Y18.649
G1 F3000 X30.3 Y21.249 E1515.25736
G0 F6000 X30.3 Y22.38
G1 F3000 X27.7 Y19.78 E1515.50195
G0 F6000 X27.7 Y20.911
G1 F3000 X30.3 Y23.512 E1515.74659
G0 F6000 X30.3 Y24.643
G1 F3000 X27.7 Y22.043 E1515.99118
G0 F6000 X27.7 Y23.174
G1 F3000 X30.3 Y25.774 E1516.23578
G0 F6000 X30.3 Y26.906
G1 F3000 X27.7 Y24.306 E1516.48037
G0 F6000 X27.7 Y25.437
G1 F3000 X30.3 Y28.037 E1516.72496
G0 F6000 X30.3 Y29.168
G1 F3000 X27.7 Y26.568 E1516.96955
G0 F6000 X27.7 Y27.7
G1 F3000 X30.3 Y30.3 E1517.21414
G0 F6000 X30.3 Y31.431
G1 F3000 X27.7 Y28.831 E1517.45874
G0 F6000 X27.7 Y29.962
G1 F3000 X30.3 Y32.562 E1517.70333
G0 F6000 X30.3 Y33.694
G1 F3000 X27.7 Y31.094 E1517.94792
G0 F6000 X27.7 Y32.225
G1 F3000 X30.3 Y34.825 E1518.19251
G0 F6000 X30.3 Y35.957
G1 F3000 X27.7 Y33.357 E1518.4371
G0 F6000 X27.585 Y34.373
G1 F3000 X30.3 Y37.088 E1518.69252
G0 F6000 X30.3 Y38.219
G1 F3000 X26.454 Y34.373 E1519.05432
G0 F6000 X25.322 Y34.373
G1 F3000 X30.3 Y39.351 E1519.52262
G0 F6000 X30.3 Y40.482
G1 F3000 X24.191 Y34.373 E1520.09732
G0 F6000 X23.06 Y34.373
G1 F3000 X30.3 Y41.613 E1520.77841
G0 F6000 X30.3 Y42.745
G1 F3000 X24.699 Y37.145 E1521.30528
G0 F6000 X24.028 Y36.473
G1 F3000 X21.928 Y34.373 E1521.50283
G0 F6000 X20.797 Y34.373
G1 F3000 X22.896 Y36.473 E1521.70034
G0 F6000 X21.765 Y36.473
G1 F3000 X19.666 Y34.373 E1521.89785
G0 F6000 X18.534 Y34.373
G1 F3000 X20.634 Y36.473 E1522.0954
G0 F6000 X19.502 Y36.473
G1 F3000 X17.403 Y34.373 E1522.29291
G0 F6000 X16.271 Y34.373
G1 F3000 X18.371 Y36.473 E1522.49047
G0 F6000 X17.239 Y36.473
G1 F3000 X15.14 Y34.373 E1522.68797
G0 F6000 X14.009 Y34.373
G1 F3000 X16.108 Y36.473 E1522.88548
G0 F6000 X14.977 Y36.473
G1 F3000 X12.877 Y34.373 E1523.08304
G0 F6000 X11.746 Y34.373
G1 F3000 X13.845 Y36.473 E1523.28054
G0 F6000 X12.714 Y36.473
G1 F3000 X10.615 Y34.373 E1523.47805
G0 F6000 X9.483 Y34.373
G1 F3000 X11.583 Y36.473 E1523.67561
G0 F6000 X10.451 Y36.473
G1 F3000 X8.352 Y34.373 E1523.87312
G0 F6000 X7.22 Y34.373
G1 F3000 X9.32 Y36.473 E1524.07067
G0 F6000 X8.189 Y36.473
G1 F3000 X6.089 Y34.373 E1524.26823
G0 F6000 X4.958 Y34.373
G1 F3000 X7.057 Y36.473 E1524.46573
G0 F6000 X5.926 Y36.473
G1 F3000 X3.826 Y34.373 E1524.66329
G0 F6000 X2.695 Y34.373
G1 F3000 X4.794 Y36.473 E1524.8608
G0 F6000 X3.663 Y36.473
G1 F3000 X1.564 Y34.373 E1525.05831
G0 F6000 X0.432 Y34.373
G1 F3000 X2.532 Y36.473 E1525.25586
G0 F6000 X1.4 Y36.473
G1 F3000 X-0.698 Y34.373 E1525.45332
G0 F6000 X-1.829 Y34.373
G1 F3000 X0.269 Y36.473 E1525.65074
G0 F6000 X-0.861 Y36.473
G1 F3000 X-2.961 Y34.373 E1525.84834
G0 F6000 X-4.092 Y34.373
G1 F3000 X-1.993 Y36.473 E1526.0458
G0 F6000 X-3.124 Y36.473
G1 F3000 X-5.224 Y34.373 E1526.2434
G0 F6000 X-6.355 Y34.373
G1 F3000 X-4.256 Y36.473 E1526.44086
G0 F6000 X-5.387 Y36.473
G1 F3000 X-7.486 Y34.373 E1526.63842
G0 F6000 X-8.618 Y34.373
G1 F3000 X-6.518 Y36.473 E1526.83593
G0 F6000 X-7.65 Y36.473
G1 F3000 X-9.749 Y34.373 E1527.03348
G0 F6000 X-10.88 Y34.373
G1 F3000 X-8.781 Y36.473 E1527.23094
G0 F6000 X-9.912 Y36.473
G1 F3000 X-12.012 Y34.373 E1527.42854
G0 F6000 X-13.143 Y34.373
G1 F3000 X-11.044 Y36.473 E1527.62601
G0 F6000 X-12.175 Y36.473
G1 F3000 X-14.275 Y34.373 E1527.82361
G0 F6000 X-15.406 Y34.373
G1 F3000 X-13.307 Y36.473 E1528.02107
G0 F6000 X-14.438 Y36.473
G1 F3000 X-16.537 Y34.373 E1528.21862
G0 F6000 X-17.669 Y34.373
G1 F3000 X-15.569 Y36.473 E1528.41613
G0 F6000 X-16.701 Y36.473
G1 F3000 X-18.8 Y34.373 E1528.61369
G0 F6000 X-19.931 Y34.373
G1 F3000 X-17.832 Y36.473 E1528.81115
G0 F6000 X-18.963 Y36.473
G1 F3000 X-21.063 Y34.373 E1529.00875
G0 F6000 X-22.194 Y34.373
G1 F3000 X-20.095 Y36.473 E1529.20621
G0 F6000 X-21.226 Y36.473
G1 F3000 X-23.326 Y34.373 E1529.40381
G0 F6000 X-24.457 Y34.373
G1 F3000 X-22.358 Y36.473 E1529.60127
G0 F6000 X-23.489 Y36.473
G1 F3000 X-25.588 Y34.373 E1529.79883
G0 F6000 X-26.72 Y34.373
G1 F3000 X-24.62 Y36.473 E1529.99634
G0 F6000 X-25.752 Y36.473
G1 F3000 X-27.851 Y34.373 E1530.19389
G0 F6000 X-28.982 Y34.373
G1 F3000 X-26.883 Y36.473 E1530.39135
G0 F6000 X-28.014 Y36.473
G1 F3000 X-30.114 Y34.373 E1530.58896
G0 F6000 X-30.298 Y35.321
G1 F3000 X-29.146 Y36.473 E1530.69728
G0 F6000 X-30.277 Y36.473
G1 F3000 X-30.297 Y36.453 E1530.69921
G1 F3600 E1522.29921
G1 Z1.46
G0 F6000 X24.699 Y38.276
G1 Z1.06
G1 F3600 E1530.89921
G1 F3000 X30.3 Y43.876 E1531.42607
G0 F6000 X30.3 Y45.008
G1 F3000 X24.699 Y39.407 E1531.95298
G0 F6000 X24.699 Y40.539
G1 F3000 X30.3 Y46.139 E1532.47984
G0 F6000 X30.3 Y47.27
G1 F3000 X24.699 Y41.67 E1533.0067
G0 F6000 X24.699 Y42.801
G1 F3000 X30.3 Y48.402 E1533.53361
G0 F6000 X30.3 Y49.533
G1 F3000 X24.699 Y43.933 E1534.06047
G0 F6000 X24.699 Y45.064
G1 F3000 X30.3 Y50.664 E1534.58733
G0 F6000 X30.3 Y51.796
G1 F3000 X24.699 Y46.195 E1535.11424
G0 F6000 X24.699 Y47.327
G1 F3000 X30.3 Y52.927 E1535.6411
G0 F6000 X30.3 Y54.059
G1 F3000 X24.699 Y48.458 E1536.16801
G0 F6000 X24.699 Y49.59
G1 F3000 X30.3 Y55.19 E1536.69487
G0 F6000 X30.3 Y56.321
G1 F3000 X24.699 Y50.721 E1537.22173
G0 F6000 X24.699 Y51.852
G1 F3000 X30.3 Y57.453 E1537.74864
G0 F6000 X30.3 Y58.584
G1 F3000 X24.699 Y52.984 E1538.2755
G0 F6000 X24.699 Y54.115
G1 F3000 X30.3 Y59.715 E1538.80236
G0 F6000 X30.3 Y60.847
G1 F3000 X24.699 Y55.246 E1539.32926
G0 F6000 X24.699 Y56.378
G1 F3000 X30.3 Y61.978 E1539.85613
G0 F6000 X30.3 Y63.109
G1 F3000 X24.699 Y57.509 E1540.38299
G0 F6000 X24.699 Y58.641
G1 F3000 X30.3 Y64.241 E1540.90985
G0 F6000 X29.44 Y64.512
G1 F3000 X24.699 Y59.772 E1541.3558
G0 F6000 X24.699 Y60.903
G1 F3000 X28.309 Y64.512 E1541.69536
G0 F6000 X27.177 Y64.512
G1 F3000 X24.699 Y62.035 E1541.92843
G0 F6000 X24.699 Y63.166
G1 F3000 X26.046 Y64.512 E1542.0551
G0 F6000 X24.914 Y64.512
G1 F3000 X24.699 Y64.297 E1542.07533
G0 F6000 X30.3 Y-31.925
G1 F3000 X24.699 Y-37.525 E1542.60224
G0 F6000 X24.699 Y-38.656
G1 F3000 X30.3 Y-33.056 E1543.12905
G0 F6000 X30.3 Y-34.187
G1 F3000 X24.699 Y-39.788 E1543.656
G0 F6000 X24.699 Y-40.919
G1 F3000 X30.3 Y-35.319 E1544.18282
G0 F6000 X30.3 Y-36.45
G1 F3000 X24.699 Y-42.05 E1544.70973
G0 F6000 X24.699 Y-43.182
G1 F3000 X30.3 Y-37.582 E1545.23654
G0 F6000 X30.3 Y-38.713
G1 F3000 X24.699 Y-44.313 E1545.76345
G0 F6000 X24.699 Y-45.445
G1 F3000 X30.3 Y-39.844 E1546.29031
G0 F6000 X30.3 Y-40.976
G1 F3000 X24.699 Y-46.576 E1546.81722
G0 F6000 X24.699 Y-47.707
G1 F3000 X30.3 Y-42.107 E1547.34403
G0 F6000 X30.3 Y-43.238
G1 F3000 X24.699 Y-48.839 E1547.87098
G0 F6000 X24.699 Y-49.97
G1 F3000 X30.3 Y-44.37 E1548.3978
G0 F6000 X30.3 Y-45.501
G1 F3000 X24.699 Y-51.101 E1548.9247
G0 F6000 X24.699 Y-52.233
G1 F3000 X30.3 Y-46.632 E1549.45157
G0 F6000 X30.3 Y-47.764
G1 F3000 X24.699 Y-53.364 E1549.97847
G0 F6000 X24.699 Y-54.496
G1 F3000 X30.3 Y-48.895 E1550.50533
G0 F6000 X30.3 Y-50.027
G1 F3000 X24.699 Y-55.627 E1551.03224
G0 F6000 X24.699 Y-56.758
G1 F3000 X30.3 Y-51.158 E1551.55906
G0 F6000 X30.3 Y-52.289
G1 F3000 X24.699 Y-57.89 E1552.08601
G0 F6000 X24.699 Y-59.021
G1 F3000 X30.3 Y-53.421 E1552.61282
G0 F6000 X30.3 Y-54.552
G1 F3000 X24.699 Y-60.152 E1553.13973
G0 F6000 X24.699 Y-61.284
G1 F3000 X30.3 Y-55.683 E1553.66659
G0 F6000 X30.3 Y-56.815
G1 F3000 X24.699 Y-62.415 E1554.1935
G0 F6000 X24.699 Y-63.546
G1 F3000 X30.3 Y-57.946 E1554.72031
G0 F6000 X30.3 Y-59.078
G1 F3000 X24.865 Y-64.512 E1555.23161
G0 F6000 X25.996 Y-64.512
G1 F3000 X30.3 Y-60.209 E1555.63641
G0 F6000 X30.3 Y-61.34
G1 F3000 X27.128 Y-64.512 E1555.93485
G0 F6000 X28.259 Y-64.512
G1 F3000 X30.3 Y-62.472 E1556.12677
G0 F6000 X30.3 Y-63.603
G1 F3000 X29.39 Y-64.512 E1556.21237
; LAYER:5
G1 F3600 E1547.81237
G1 Z1.46
G0 F6000 X33.8 Y-68.014 Z1.26
; TYPE:WALL-INNER
G1 Z1.26
G1 F3600 E1556.41237
G1 F3000 X33.8 Y68.014 E1565.46093
G1 X21.2 Y68.014 E1566.29908
G1 X21.2 Y39.974 E1568.16431
G1 X-33.798 Y39.974 E1571.82279
G1 X-33.798 Y30.875 E1572.42806
G1 X24.2 Y30.875 E1576.28603
G1 X24.2 Y-30.874 E1580.39359
G1 X-33.798 Y-30.874 E1584.25164
G1 X-33.798 Y-39.974 E1584.85704
G1 X21.2 Y-39.974 E1588.51545
G1 X21.2 Y-68.014 E1590.38075
G1 X33.08 Y-68.014 E1591.17101
G0 F6000 X33 Y-67.214
G1 F3000 X33 Y67.214 E1600.11313
G1 X22 Y67.214 E1600.84485
G1 X22 Y39.174 E1602.71008
G1 X-32.998 Y39.174 E1606.36856
G1 X-32.998 Y31.675 E1606.8674
G1 X25 Y31.675 E1610.72537
G1 X25 Y-31.674 E1614.93937
G1 X-32.998 Y-31.674 E1618.79741
G1 X-32.998 Y-39.174 E1619.29638
G1 X22 Y-39.174 E1622.95479
G1 X22 Y-67.214 E1624.82009
G1 X32.28 Y-67.214 E1625.50392
G0 F6000 X32.2 Y-66.414
G1 F3000 X32.2 Y66.414 E1634.3396
G1 X22.8 Y66.414 E1634.9649
G1 X22.8 Y38.374 E1636.83012
G1 X-32.198 Y38.374 E1640.48861
G1 X-32.198 Y32.475 E1640.88101
G1 X25.8 Y32.475 E1644.73898
G1 X25.8 Y-32.474 E1649.05941
G1 X-32.198 Y-32.474 E1652.91745
G1 X-32.198 Y-38.374 E1653.30999
G1 X22.8 Y-38.374 E1656.9684
G1 X22.8 Y-66.414 E1658.8337
G1 X31.48 Y-66.414 E1659.41109
G0 F6000 X31.4 Y-65.614
G1 F3000 X31.4 Y65.614 E1668.14035
G1 X23.6 Y65.614 E1668.65921
G1 X23.6 Y37.574 E1670.52444
G1 X-31.398 Y37.574 E1674.18292
G1 X-31.398 Y33.275 E1674.46889
G1 X26.6 Y33.275 E1678.32687
G1 X26.6 Y-33.274 E1682.75372
G1 X-31.398 Y-33.274 E1686.61177
G1 X-31.398 Y-37.574 E1686.89787
G1 X23.6 Y-37.574 E1690.55628
G1 X23.6 Y-65.614 E1692.42158
G1 X30.68 Y-65.614 E1692.89254
G0 F6000 X30.6 Y-64.814
G1 F3000 X30.6 Y64.814 E1701.51537
G1 X24.4 Y64.814 E1701.92779
G1 X24.4 Y36.774 E1703.79302
G1 X-30.598 Y36.774 E1707.4515
G1 X-30.598 Y34.075 E1707.63104
G1 X27.4 Y34.075 E1711.48902
G1 X27.4 Y-34.074 E1716.02231
G1 X-30.598 Y-34.074 E1719.88035
G1 X-30.598 Y-36.774 E1720.06002
G1 X24.4 Y-36.774 E1723.71843
G1 X24.4 Y-64.814 E1725.58373
G1 X29.88 Y-64.814 E1725.94826
G1 F3600 E1717.54826
G1 Z1.66
G0 F6000 X34.6 Y-68.814
; TYPE:WALL-OUTER
G1 Z1.26
G1 F3600 E1726.14826
G1 F2100 X34.6 Y68.814 E1735.30325
G1 X20.4 Y68.814 E1736.24783
G1 X20.4 Y40.774 E1738.11306
G1 X-34.598 Y40.774 E1741.77154
G1 X-34.598 Y30.075 E1742.48324
G1 X23.4 Y30.075 E1746.34122
G1 X23.4 Y-30.074 E1750.34235
G1 X-34.598 Y-30.074 E1754.20039
G1 X-34.598 Y-40.774 E1754.91222
G1 X20.4 Y-40.774 E1758.57064
G1 X20.4 Y-68.814 E1760.43593
G1 X33.88 Y-68.814 E1761.33263
G1 F3600 E1752.93263
G1 Z1.66
G0 F6000 X30.3 Y-64.241
; TYPE:FILL
G1 Z1.26
G1 F3600 E1761.53263
G1 F3000 X24.699 Y-58.641 E1762.05944
G0 F6000 X24.699 Y-59.772
G1 F3000 X29.44 Y-64.512 E1762.50545
G0 F6000 X28.309 Y-64.512
G1 F3000 X24.699 Y-60.903 E1762.84496
G0 F6000 X24.699 Y-62.035
G1 F3000 X27.177 Y-64.512 E1763.07807
G0 F6000 X26.046 Y-64.512
G1 F3000 X24.699 Y-63.166 E1763.2047
G0 F6000 X24.699 Y-64.297
G1 F3000 X24.914 Y-64.512 E1763.22497
G1 F3600 E1754.82497
G1 Z1.66
G0 F6000 X30.3 Y-63.109
G1 Z1.26
G1 F3600 E1763.42497
G1 F3000 X24.699 Y-57.509 E1763.95178
G0 F6000 X24.699 Y-56.378
G1 F3000 X30.3 Y-61.978 E1764.47869
G0 F6000 X30.3 Y-60.847
G1 F3000 X24.699 Y-55.246 E1765.00555
G0 F6000 X24.699 Y-54.115
G1 F3000 X30.3 Y-59.715 E1765.53246
G0 F6000 X30.3 Y-58.584
G1 F3000 X24.699 Y-52.984 E1766.05927
G0 F6000 X24.699 Y-51.852
G1 F3000 X30.3 Y-57.453 E1766.58623
G0 F6000 X30.3 Y-56.321
G1 F3000 X24.699 Y-50.721 E1767.11304
G0 F6000 X24.699 Y-49.59
G1 F3000 X30.3 Y-55.19 E1767.63995
G0 F6000 X30.3 Y-54.059
G1 F3000 X24.699 Y-48.458 E1768.16681
G0 F6000 X24.699 Y-47.327
G1 F3000 X30.3 Y-52.927 E1768.69372
G0 F6000 X30.3 Y-51.796
G1 F3000 X24.699 Y-46.195 E1769.22058
G0 F6000 X24.699 Y-45.064
G1 F3000 X30.3 Y-50.664 E1769.74749
G0 F6000 X30.3 Y-49.533
G1 F3000 X24.699 Y-43.933 E1770.2743
G0 F6000 X24.699 Y-42.801
G1 F3000 X30.3 Y-48.402 E1770.80125
G0 F6000 X30.3 Y-47.27
G1 F3000 X24.699 Y-41.67 E1771.32807
G0 F6000 X24.699 Y-40.539
G1 F3000 X30.3 Y-46.139 E1771.85498
G0 F6000 X30.3 Y-45.008
G1 F3000 X24.699 Y-39.407 E1772.38184
G0 F6000 X24.699 Y-38.276
G1 F3000 X30.3 Y-43.876 E1772.90874
G0 F6000 X30.3 Y-42.745
G1 F3000 X24.699 Y-37.145 E1773.43556
G0 F6000 X24.028 Y-36.473
G1 F3000 X21.928 Y-34.373 E1773.63307
G0 F6000 X23.059 Y-34.373
G1 F3000 X30.3 Y-41.613 E1774.31426
G0 F6000 X30.3 Y-40.482
G1 F3000 X24.19 Y-34.373 E1774.88895
G0 F6000 X25.322 Y-34.373
G1 F3000 X30.3 Y-39.351 E1775.3573
G0 F6000 X30.3 Y-38.219
G1 F3000 X26.453 Y-34.373 E1775.71911
G0 F6000 X27.584 Y-34.373
G1 F3000 X30.3 Y-37.088 E1775.97461
G0 F6000 X30.3 Y-35.957
G1 F3000 X27.699 Y-33.356 E1776.21925
G0 F6000 X27.699 Y-32.224
G1 F3000 X30.3 Y-34.825 E1776.46398
G0 F6000 X30.3 Y-33.694
G1 F3000 X27.699 Y-31.093 E1776.70862
G0 F6000 X27.699 Y-29.962
G1 F3000 X30.3 Y-32.562 E1776.95331
G0 F6000 X30.3 Y-31.431
G1 F3000 X27.699 Y-28.83 E1777.19795
G0 F6000 X27.699 Y-27.699
G1 F3000 X30.3 Y-30.3 E1777.44268
G0 F6000 X30.3 Y-29.168
G1 F3000 X27.699 Y-26.568 E1777.68727
G0 F6000 X27.699 Y-25.436
G1 F3000 X30.3 Y-28.037 E1777.93201
G0 F6000 X30.3 Y-26.906
G1 F3000 X27.699 Y-24.305 E1778.17665
G0 F6000 X27.699 Y-23.174
G1 F3000 X30.3 Y-25.774 E1778.42133
G0 F6000 X30.3 Y-24.643
G1 F3000 X27.699 Y-22.042 E1778.66597
G0 F6000 X27.699 Y-20.911
G1 F3000 X30.3 Y-23.512 E1778.9107
G0 F6000 X30.3 Y-22.38
G1 F3000 X27.699 Y-19.779 E1779.15534
G0 F6000 X27.699 Y-18.648
G1 F3000 X30.3 Y-21.249 E1779.40008
G0 F6000 X30.3 Y-20.117
G1 F3000 X27.699 Y-17.517 E1779.64467
G0 F6000 X27.699 Y-16.385
G1 F3000 X30.3 Y-18.986 E1779.8894
G0 F6000 X30.3 Y-17.855
G1 F3000 X27.699 Y-15.254 E1780.13404
G0 F6000 X27.699 Y-14.123
G1 F3000 X30.3 Y-16.723 E1780.37873
G0 F6000 X30.3 Y-15.592
G1 F3000 X27.699 Y-12.991 E1780.62337
G0 F6000 X27.699 Y-11.86
G1 F3000 X30.3 Y-14.461 E1780.8681
G0 F6000 X30.3 Y-13.329
G1 F3000 X27.699 Y-10.728 E1781.11274
G0 F6000 X27.699 Y-9.597
G1 F3000 X30.3 Y-12.198 E1781.35747
G0 F6000 X30.3 Y-11.066
G1 F3000 X27.699 Y-8.466 E1781.60206
G0 F6000 X27.699 Y-7.334
G1 F3000 X30.3 Y-9.935 E1781.8468
G0 F6000 X30.3 Y-8.804
G1 F3000 X27.699 Y-6.203 E1782.09144
G0 F6000 X27.699 Y-5.072
G1 F3000 X30.3 Y-7.672 E1782.33612
G0 F6000 X30.3 Y-6.541
G1 F3000 X27.699 Y-3.94 E1782.58076
G0 F6000 X27.699 Y-2.809
G1 F3000 X30.3 Y-5.41 E1782.82549
G0 F6000 X30.3 Y-4.278
G1 F3000 X27.699 Y-1.677 E1783.07013
G0 F6000 X27.699 Y-0.546
G1 F3000 X30.3 Y-3.147 E1783.31487
G0 F6000 X30.3 Y-2.015
G1 F3000 X27.7 Y0.584 E1783.55936
G0 F6000 X27.7 Y1.715
G1 F3000 X30.3 Y-0.884 E1783.80391
G0 F6000 X30.3 Y0.246
G1 F3000 X27.7 Y2.846 E1784.0485
G0 F6000 X27.7 Y3.978
G1 F3000 X30.3 Y1.378 E1784.29309
G0 F6000 X30.3 Y2.509
G1 F3000 X27.7 Y5.109 E1784.53769
G0 F6000 X27.7 Y6.24
G1 F3000 X30.3 Y3.64 E1784.78228
G0 F6000 X30.3 Y4.772
G1 F3000 X27.7 Y7.372 E1785.02687
G0 F6000 X27.7 Y8.503
G1 F3000 X30.3 Y5.903 E1785.27146
G0 F6000 X30.3 Y7.035
G1 F3000 X27.7 Y9.635 E1785.51605
G0 F6000 X27.7 Y10.766
G1 F3000 X30.3 Y8.166 E1785.76065
G0 F6000 X30.3 Y9.297
G1 F3000 X27.7 Y11.897 E1786.00524
G0 F6000 X27.7 Y13.029
G1 F3000 X30.3 Y10.429 E1786.24983
G0 F6000 X30.3 Y11.56
G1 F3000 X27.7 Y14.16 E1786.49442
G0 F6000 X27.7 Y15.291
G1 F3000 X30.3 Y12.691 E1786.73901
G0 F6000 X30.3 Y13.823
G1 F3000 X27.7 Y16.423 E1786.98361
G0 F6000 X27.7 Y17.554
G1 F3000 X30.3 Y14.954 E1787.2282
G0 F6000 X30.3 Y16.085
G1 F3000 X27.7 Y18.686 E1787.47284
G0 F6000 X27.7 Y19.817
G1 F3000 X30.3 Y17.217 E1787.71743
G0 F6000 X30.3 Y18.348
G1 F3000 X27.7 Y20.948 E1787.96202
G0 F6000 X27.7 Y22.08
G1 F3000 X30.3 Y19.48 E1788.20661
G0 F6000 X30.3 Y20.611
G1 F3000 X27.7 Y23.211 E1788.45121
G0 F6000 X27.7 Y24.342
G1 F3000 X30.3 Y21.742 E1788.6958
G0 F6000 X30.3 Y22.874
G1 F3000 X27.7 Y25.474 E1788.94039
G0 F6000 X27.7 Y26.605
G1 F3000 X30.3 Y24.005 E1789.18498
G0 F6000 X30.3 Y25.136
G1 F3000 X27.7 Y27.736 E1789.42957
G0 F6000 X27.7 Y28.868
G1 F3000 X30.3 Y26.268 E1789.67417
G0 F6000 X30.3 Y27.399
G1 F3000 X27.7 Y29.999 E1789.91876
G0 F6000 X27.7 Y31.131
G1 F3000 X30.3 Y28.531 E1790.16335
G0 F6000 X30.3 Y29.662
G1 F3000 X27.7 Y32.262 E1790.40794
G0 F6000 X27.7 Y33.393
G1 F3000 X30.3 Y30.793 E1790.65253
G0 F6000 X30.3 Y31.925
G1 F3000 X24.699 Y37.525 E1791.1794
G0 F6000 X24.62 Y36.473
G1 F3000 X26.72 Y34.373 E1791.37695
G0 F6000 X25.588 Y34.373
G1 F3000 X23.489 Y36.473 E1791.57446
G0 F6000 X22.358 Y36.473
G1 F3000 X24.457 Y34.373 E1791.77197
G0 F6000 X23.326 Y34.373
G1 F3000 X21.226 Y36.473 E1791.96952
G0 F6000 X20.095 Y36.473
G1 F3000 X22.194 Y34.373 E1792.16703
G0 F6000 X21.063 Y34.373
G1 F3000 X18.963 Y36.473 E1792.36458
G0 F6000 X17.832 Y36.473
G1 F3000 X19.931 Y34.373 E1792.56209
G0 F6000 X18.8 Y34.373
G1 F3000 X16.701 Y36.473 E1792.7596
G0 F6000 X15.569 Y36.473
G1 F3000 X17.669 Y34.373 E1792.95716
G0 F6000 X16.537 Y34.373
G1 F3000 X14.438 Y36.473 E1793.15466
G0 F6000 X13.307 Y36.473
G1 F3000 X15.406 Y34.373 E1793.35217
G0 F6000 X14.275 Y34.373
G1 F3000 X12.175 Y36.473 E1793.54973
G0 F6000 X11.044 Y36.473
G1 F3000 X13.143 Y34.373 E1793.74724
G0 F6000 X12.012 Y34.373
G1 F3000 X9.912 Y36.473 E1793.94479
G0 F6000 X8.781 Y36.473
G1 F3000 X10.88 Y34.373 E1794.1423
G0 F6000 X9.749 Y34.373
G1 F3000 X7.65 Y36.473 E1794.33981
G0 F6000 X6.518 Y36.473
G1 F3000 X8.618 Y34.373 E1794.53736
G0 F6000 X7.486 Y34.373
G1 F3000 X5.387 Y36.473 E1794.73487
G0 F6000 X4.256 Y36.473
G1 F3000 X6.355 Y34.373 E1794.93238
G0 F6000 X5.224 Y34.373
G1 F3000 X3.124 Y36.473 E1795.12993
G0 F6000 X1.993 Y36.473
G1 F3000 X4.092 Y34.373 E1795.32744
G0 F6000 X2.961 Y34.373
G1 F3000 X0.861 Y36.473 E1795.525
G0 F6000 X-0.269 Y36.473
G1 F3000 X1.829 Y34.373 E1795.72241
G0 F6000 X0.698 Y34.373
G1 F3000 X-1.4 Y36.473 E1795.91987
G0 F6000 X-2.532 Y36.473
G1 F3000 X-0.432 Y34.373 E1796.11738
G0 F6000 X-1.564 Y34.373
G1 F3000 X-3.663 Y36.473 E1796.31493
G0 F6000 X-4.794 Y36.473
G1 F3000 X-2.695 Y34.373 E1796.5124
G0 F6000 X-3.826 Y34.373
G1 F3000 X-5.926 Y36.473 E1796.71
G0 F6000 X-7.057 Y36.473
G1 F3000 X-4.958 Y34.373 E1796.90746
G0 F6000 X-6.089 Y34.373
G1 F3000 X-8.189 Y36.473 E1797.10506
G0 F6000 X-9.32 Y36.473
G1 F3000 X-7.22 Y34.373 E1797.30257
G0 F6000 X-8.352 Y34.373
G1 F3000 X-10.451 Y36.473 E1797.50012
G0 F6000 X-11.583 Y36.473
G1 F3000 X-9.483 Y34.373 E1797.69763
G0 F6000 X-10.615 Y34.373
G1 F3000 X-12.714 Y36.473 E1797.89519
G0 F6000 X-13.845 Y36.473
G1 F3000 X-11.746 Y34.373 E1798.09265
G0 F6000 X-12.877 Y34.373
G1 F3000 X-14.977 Y36.473 E1798.29025
G0 F6000 X-16.108 Y36.473
G1 F3000 X-14.009 Y34.373 E1798.48771
G0 F6000 X-15.14 Y34.373
G1 F3000 X-17.239 Y36.473 E1798.68527
G0 F6000 X-18.371 Y36.473
G1 F3000 X-16.271 Y34.373 E1798.88278
G0 F6000 X-17.403 Y34.373
G1 F3000 X-19.502 Y36.473 E1799.08033
G0 F6000 X-20.634 Y36.473
G1 F3000 X-18.534 Y34.373 E1799.27784
G0 F6000 X-19.666 Y34.373
G1 F3000 X-21.765 Y36.473 E1799.47539
G0 F6000 X-22.896 Y36.473
G1 F3000 X-20.797 Y34.373 E1799.67285
G0 F6000 X-21.928 Y34.373
G1 F3000 X-24.028 Y36.473 E1799.87046
G0 F6000 X-25.159 Y36.473
G1 F3000 X-23.06 Y34.373 E1800.06792
G0 F6000 X-24.191 Y34.373
G1 F3000 X-26.29 Y36.473 E1800.26547
G0 F6000 X-27.422 Y36.473
G1 F3000 X-25.322 Y34.373 E1800.46298
G0 F6000 X-26.454 Y34.373
G1 F3000 X-28.553 Y36.473 E1800.66054
G0 F6000 X-29.685 Y36.473
G1 F3000 X-27.585 Y34.373 E1800.85804
G0 F6000 X-28.717 Y34.373
G1 F3000 X-30.297 Y35.954 E1801.00678
G0 F6000 X-30.298 Y34.823
G1 F3000 X-29.848 Y34.373 E1801.04906
G1 F3600 E1792.64906
G1 Z1.66
G0 F6000 X24.699 Y38.656
G1 Z1.26
G1 F3600 E1801.24906
G1 F3000 X30.3 Y33.056 E1801.77592
G0 F6000 X30.3 Y34.187
G1 F3000 X24.699 Y39.788 E1802.30283
G0 F6000 X24.699 Y40.919
G1 F3000 X30.3 Y35.319 E1802.82969
G0 F6000 X30.3 Y36.45
G1 F3000 X24.699 Y42.05 E1803.35655
G0 F6000 X24.699 Y43.182
G1 F3000 X30.3 Y37.582 E1803.88341
G0 F6000 X30.3 Y38.713
G1 F3000 X24.699 Y44.313 E1804.41027
G0 F6000 X24.699 Y45.445
G1 F3000 X30.3 Y39.844 E1804.93718
G0 F6000 X30.3 Y40.976
G1 F3000 X24.699 Y46.576 E1805.46404
G0 F6000 X24.699 Y47.707
G1 F3000 X30.3 Y42.107 E1805.9909
G0 F6000 X30.3 Y43.238
G1 F3000 X24.699 Y48.839 E1806.51781
G0 F6000 X24.699 Y49.97
G1 F3000 X30.3 Y44.37 E1807.04467
G0 F6000 X30.3 Y45.501
G1 F3000 X24.699 Y51.101 E1807.57153
G0 F6000 X24.699 Y52.233
G1 F3000 X30.3 Y46.632 E1808.09844
G0 F6000 X30.3 Y47.764
G1 F3000 X24.699 Y53.364 E1808.6253
G0 F6000 X24.699 Y54.496
G1 F3000 X30.3 Y48.895 E1809.15221
G0 F6000 X30.3 Y50.027
G1 F3000 X24.699 Y55.627 E1809.67907
G0 F6000 X24.699 Y56.758
G1 F3000 X30.3 Y51.158 E1810.20593
G0 F6000 X30.3 Y52.289
G1 F3000 X24.699 Y57.89 E1810.73284
G0 F6000 X24.699 Y59.021
G1 F3000 X30.3 Y53.421 E1811.2597
G0 F6000 X30.3 Y54.552
G1 F3000 X24.699 Y60.152 E1811.78656
G0 F6000 X24.699 Y61.284
G1 F3000 X30.3 Y55.683 E1812.31347
G0 F6000 X30.3 Y56.815
G1 F3000 X24.699 Y62.415 E1812.84033
G0 F6000 X24.699 Y63.546
G1 F3000 X30.3 Y57.946 E1813.36719
G0 F6000 X30.3 Y59.078
G1 F3000 X24.865 Y64.512 E1813.87843
G0 F6000 X25.996 Y64.512
G1 F3000 X30.3 Y60.209 E1814.28328
G0 F6000 X30.3 Y61.34
G1 F3000 X27.128 Y64.512 E1814.58168
G0 F6000 X28.259 Y64.512
G1 F3000 X30.3 Y62.472 E1814.77364
G0 F6000 X30.3 Y63.603
G1 F3000 X29.39 Y64.512 E1814.8592
G1 F3600 E1806.4592
G1 Z1.66
G0 F6000 X23.817 Y0.391
G0 X23.941 Y-30.615
G0 X20.796 Y-34.373
G0 X20.796 Y-34.373
G1 Z1.26
G1 F3600 E1815.0592
G1 F3000 X22.896 Y-36.473 E1815.2568
G0 F6000 X21.765 Y-36.473
G1 F3000 X19.665 Y-34.373 E1815.45431
G0 F6000 X18.533 Y-34.373
G1 F3000 X20.634 Y-36.473 E1815.65196
G0 F6000 X19.502 Y-36.473
G1 F3000 X17.402 Y-34.373 E1815.84947
G0 F6000 X16.271 Y-34.373
G1 F3000 X18.371 Y-36.473 E1816.04707
G0 F6000 X17.239 Y-36.473
G1 F3000 X15.139 Y-34.373 E1816.24458
G0 F6000 X14.008 Y-34.373
G1 F3000 X16.108 Y-36.473 E1816.44218
G0 F6000 X14.977 Y-36.473
G1 F3000 X12.877 Y-34.373 E1816.63969
G0 F6000 X11.745 Y-34.373
G1 F3000 X13.845 Y-36.473 E1816.83729
G0 F6000 X12.714 Y-36.473
G1 F3000 X10.614 Y-34.373 E1817.0348
G0 F6000 X9.483 Y-34.373
G1 F3000 X11.583 Y-36.473 E1817.2324
G0 F6000 X10.451 Y-36.473
G1 F3000 X8.351 Y-34.373 E1817.42991
G0 F6000 X7.22 Y-34.373
G1 F3000 X9.32 Y-36.473 E1817.62751
G0 F6000 X8.189 Y-36.473
G1 F3000 X6.088 Y-34.373 E1817.82506
G0 F6000 X4.957 Y-34.373
G1 F3000 X7.057 Y-36.473 E1818.02267
G0 F6000 X5.926 Y-36.473
G1 F3000 X3.826 Y-34.373 E1818.22017
G0 F6000 X2.694 Y-34.373
G1 F3000 X4.794 Y-36.473 E1818.41778
G0 F6000 X3.663 Y-36.473
G1 F3000 X1.563 Y-34.373 E1818.61528
G0 F6000 X0.432 Y-34.373
G1 F3000 X2.532 Y-36.473 E1818.81289
G0 F6000 X1.4 Y-36.473
G1 F3000 X-0.699 Y-34.373 E1819.01035
G0 F6000 X-1.829 Y-34.373
G1 F3000 X0.269 Y-36.473 E1819.20781
G0 F6000 X-0.861 Y-36.473
G1 F3000 X-2.961 Y-34.373 E1819.40536
G0 F6000 X-4.092 Y-34.373
G1 F3000 X-1.993 Y-36.473 E1819.60287
G0 F6000 X-3.124 Y-36.473
G1 F3000 X-5.224 Y-34.373 E1819.80043
G0 F6000 X-6.355 Y-34.373
G1 F3000 X-4.256 Y-36.473 E1819.99794
G0 F6000 X-5.387 Y-36.473
G1 F3000 X-7.486 Y-34.373 E1820.19544
G0 F6000 X-8.618 Y-34.373
G1 F3000 X-6.518 Y-36.473 E1820.393
G0 F6000 X-7.65 Y-36.473
G1 F3000 X-9.749 Y-34.373 E1820.59051
G0 F6000 X-10.88 Y-34.373
G1 F3000 X-8.781 Y-36.473 E1820.78802
G0 F6000 X-9.912 Y-36.473
G1 F3000 X-12.012 Y-34.373 E1820.98557
G0 F6000 X-13.143 Y-34.373
G1 F3000 X-11.044 Y-36.473 E1821.18308
G0 F6000 X-12.175 Y-36.473
G1 F3000 X-14.275 Y-34.373 E1821.38063
G0 F6000 X-15.406 Y-34.373
G1 F3000 X-13.307 Y-36.473 E1821.57814
G0 F6000 X-14.438 Y-36.473
G1 F3000 X-16.537 Y-34.373 E1821.77565
G0 F6000 X-17.669 Y-34.373
G1 F3000 X-15.569 Y-36.473 E1821.9732
G0 F6000 X-16.701 Y-36.473
G1 F3000 X-18.8 Y-34.373 E1822.17071
G0 F6000 X-19.931 Y-34.373
G1 F3000 X-17.832 Y-36.473 E1822.36822
G0 F6000 X-18.963 Y-36.473
G1 F3000 X-21.063 Y-34.373 E1822.56578
G0 F6000 X-22.194 Y-34.373
G1 F3000 X-20.095 Y-36.473 E1822.76328
G0 F6000 X-21.226 Y-36.473
G1 F3000 X-23.326 Y-34.373 E1822.96084
G0 F6000 X-24.457 Y-34.373
G1 F3000 X-22.358 Y-36.473 E1823.15835
G0 F6000 X-23.489 Y-36.473
G1 F3000 X-25.588 Y-34.373 E1823.35586
G0 F6000 X-26.72 Y-34.373
G1 F3000 X-24.62 Y-36.473 E1823.55341
G0 F6000 X-25.752 Y-36.473
G1 F3000 X-27.851 Y-34.373 E1823.75092
G0 F6000 X-28.982 Y-34.373
G1 F3000 X-26.883 Y-36.473 E1823.94843
G0 F6000 X-28.014 Y-36.473
G1 F3000 X-30.114 Y-34.373 E1824.14598
G0 F6000 X-30.298 Y-35.321
G1 F3000 X-29.146 Y-36.473 E1824.25436
G0 F6000 X-30.277 Y-36.473
G1 F3000 X-30.297 Y-36.453 E1824.25624
; LAYER:6
G0 F6000 X-33.798 Y-39.974 Z1.46
; TYPE:WALL-INNER
G1 F3000 X21.2 Y-39.974 E1827.91465
G1 X21.2 Y-68.014 E1829.77995
G1 X33.8 Y-68.014 E1830.6181
G1 X33.8 Y68.014 E1839.66666
G1 X21.2 Y68.014 E1840.50481
G1 X21.2 Y39.974 E1842.37004
G1 X-33.798 Y39.974 E1846.02852
G1 X-33.798 Y30.875 E1846.63379
G1 X24.2 Y30.875 E1850.49177
G1 X24.2 Y-30.874 E1854.59933
G1 X-33.798 Y-30.874 E1858.45737
G1 X-33.798 Y-39.254 E1859.01488
G0 F6000 X-32.998 Y-39.174
G1 F3000 X22 Y-39.174 E1862.67329
G1 X22 Y-67.214 E1864.53859
G1 X33 Y-67.214 E1865.27031
G1 X33 Y67.214 E1874.21243
G1 X22 Y67.214 E1874.94415
G1 X22 Y39.174 E1876.80938
G1 X-32.998 Y39.174 E1880.46786
G1 X-32.998 Y31.675 E1880.9667
G1 X25 Y31.675 E1884.82467
G1 X25 Y-31.674 E1889.03867
G1 X-32.998 Y-31.674 E1892.89671
G1 X-32.998 Y-38.454 E1893.34778
G0 F6000 X-32.198 Y-38.374
G1 F3000 X22.8 Y-38.374 E1897.0062
G1 X22.8 Y-66.414 E1898.87149
G1 X32.2 Y-66.414 E1899.49678
G1 X32.2 Y66.414 E1908.33247
G1 X22.8 Y66.414 E1908.95776
G1 X22.8 Y38.374 E1910.82299
G1 X-32.198 Y38.374 E1914.48147
G1 X-32.198 Y32.475 E1914.87388
G1 X25.8 Y32.475 E1918.73185
G1 X25.8 Y-32.474 E1923.05228
G1 X-32.198 Y-32.474 E1926.91032
G1 X-32.198 Y-37.654 E1927.25496
G0 F6000 X-31.398 Y-37.574
G1 F3000 X23.6 Y-37.574 E1930.91338
G1 X23.6 Y-65.614 E1932.77867
G1 X31.4 Y-65.614 E1933.29753
G1 X31.4 Y65.614 E1942.02679
G1 X23.6 Y65.614 E1942.54564
G1 X23.6 Y37.574 E1944.41087
G1 X-31.398 Y37.574 E1948.06935
G1 X-31.398 Y33.275 E1948.35532
G1 X26.6 Y33.275 E1952.2133
G1 X26.6 Y-33.274 E1956.64016
G1 X-31.398 Y-33.274 E1960.4982
G1 X-31.398 Y-36.854 E1960.73641
G0 F6000 X-30.598 Y-36.774
G1 F3000 X24.4 Y-36.774 E1964.39483
G1 X24.4 Y-64.814 E1966.26012
G1 X30.6 Y-64.814 E1966.67255
G1 X30.6 Y64.814 E1975.29537
G1 X24.4 Y64.814 E1975.70779
G1 X24.4 Y36.774 E1977.57302
G1 X-30.598 Y36.774 E1981.2315
G1 X-30.598 Y34.075 E1981.41104
G1 X27.4 Y34.075 E1985.26902
G1 X27.4 Y-34.074 E1989.80231
G1 X-30.598 Y-34.074 E1993.66035
G1 X-30.598 Y-36.054 E1993.79213
G1 F3600 E1985.39213
G1 Z1.86
G0 F6000 X-34.598 Y-40.774
; TYPE:WALL-OUTER
G1 Z1.46
G1 F3600 E1993.99213
G1 F2100 X20.4 Y-40.774 E1997.65054
G1 X20.4 Y-68.814 E1999.51584
G1 X34.6 Y-68.814 E2000.46043
G1 X34.6 Y68.814 E2009.61541
G1 X20.4 Y68.814 E2010.56
G1 X20.4 Y40.774 E2012.42523
G1 X-34.598 Y40.774 E2016.08371
G1 X-34.598 Y30.075 E2016.79541
G1 X23.4 Y30.075 E2020.65339
G1 X23.4 Y-30.074 E2024.65451
G1 X-34.598 Y-30.074 E2028.51256
G1 X-34.598 Y-40.054 E2029.17649
G1 F3600 E2020.77649
G1 Z1.86
G0 F6000 X-30.297 Y-35.954
; TYPE:FILL
G1 Z1.46
G1 F3600 E2029.37649
G1 F3000 X-28.717 Y-34.373 E2029.52508
G0 F6000 X-29.848 Y-34.373
G1 F3000 X-30.298 Y-34.823 E2029.56751
G0 F6000 X-29.685 Y-36.473
G1 F3000 X-27.585 Y-34.373 E2029.76497
G0 F6000 X-26.454 Y-34.373
G1 F3000 X-28.553 Y-36.473 E2029.96258
G0 F6000 X-27.422 Y-36.473
G1 F3000 X-25.322 Y-34.373 E2030.16004
G0 F6000 X-24.191 Y-34.373
G1 F3000 X-26.29 Y-36.473 E2030.35764
G0 F6000 X-25.159 Y-36.473
G1 F3000 X-23.06 Y-34.373 E2030.55505
G0 F6000 X-21.928 Y-34.373
G1 F3000 X-24.028 Y-36.473 E2030.7527
G0 F6000 X-22.896 Y-36.473
G1 F3000 X-20.797 Y-34.373 E2030.95012
G0 F6000 X-19.666 Y-34.373
G1 F3000 X-21.765 Y-36.473 E2031.14772
G0 F6000 X-20.634 Y-36.473
G1 F3000 X-18.534 Y-34.373 E2031.34518
G0 F6000 X-17.403 Y-34.373
G1 F3000 X-19.502 Y-36.473 E2031.54278
G0 F6000 X-18.371 Y-36.473
G1 F3000 X-16.271 Y-34.373 E2031.74024
G0 F6000 X-15.14 Y-34.373
G1 F3000 X-17.239 Y-36.473 E2031.93784
G0 F6000 X-16.108 Y-36.473
G1 F3000 X-14.009 Y-34.373 E2032.13526
G0 F6000 X-12.877 Y-34.373
G1 F3000 X-14.977 Y-36.473 E2032.33291
G0 F6000 X-13.845 Y-36.473
G1 F3000 X-11.746 Y-34.373 E2032.53032
G0 F6000 X-10.615 Y-34.373
G1 F3000 X-12.714 Y-36.473 E2032.72792
G0 F6000 X-11.583 Y-36.473
G1 F3000 X-9.483 Y-34.373 E2032.92538
G0 F6000 X-8.352 Y-34.373
G1 F3000 X-10.451 Y-36.473 E2033.12299
G0 F6000 X-9.32 Y-36.473
G1 F3000 X-7.22 Y-34.373 E2033.32045
G0 F6000 X-6.089 Y-34.373
G1 F3000 X-8.189 Y-36.473 E2033.5181
G0 F6000 X-7.057 Y-36.473
G1 F3000 X-4.958 Y-34.373 E2033.71551
G0 F6000 X-3.826 Y-34.373
G1 F3000 X-5.926 Y-36.473 E2033.91316
G0 F6000 X-4.794 Y-36.473
G1 F3000 X-2.695 Y-34.373 E2034.11057
G0 F6000 X-1.564 Y-34.373
G1 F3000 X-3.663 Y-36.473 E2034.30818
G0 F6000 X-2.532 Y-36.473
G1 F3000 X-0.432 Y-34.373 E2034.50564
G0 F6000 X0.699 Y-34.373
G1 F3000 X-1.4 Y-36.473 E2034.70319
G0 F6000 X-0.269 Y-36.473
G1 F3000 X1.83 Y-34.373 E2034.90061
G0 F6000 X2.962 Y-34.373
G1 F3000 X0.861 Y-36.473 E2035.09826
G0 F6000 X1.993 Y-36.473
G1 F3000 X4.093 Y-34.373 E2035.29576
G0 F6000 X5.224 Y-34.373
G1 F3000 X3.124 Y-36.473 E2035.49337
G0 F6000 X4.256 Y-36.473
G1 F3000 X6.356 Y-34.373 E2035.69087
G0 F6000 X7.487 Y-34.373
G1 F3000 X5.387 Y-36.473 E2035.88848
G0 F6000 X6.518 Y-36.473
G1 F3000 X8.618 Y-34.373 E2036.08598
G0 F6000 X9.75 Y-34.373
G1 F3000 X7.65 Y-36.473 E2036.28359
G0 F6000 X8.781 Y-36.473
G1 F3000 X10.881 Y-34.373 E2036.48109
G0 F6000 X12.013 Y-34.373
G1 F3000 X9.912 Y-36.473 E2036.67874
G0 F6000 X11.044 Y-36.473
G1 F3000 X13.144 Y-34.373 E2036.87625
G0 F6000 X14.275 Y-34.373
G1 F3000 X12.175 Y-36.473 E2037.07385
G0 F6000 X13.307 Y-36.473
G1 F3000 X15.407 Y-34.373 E2037.27136
G0 F6000 X16.538 Y-34.373
G1 F3000 X14.438 Y-36.473 E2037.46896
G0 F6000 X15.569 Y-36.473
G1 F3000 X17.669 Y-34.373 E2037.66647
G0 F6000 X18.801 Y-34.373
G1 F3000 X16.701 Y-36.473 E2037.86407
G0 F6000 X17.832 Y-36.473
G1 F3000 X19.932 Y-34.373 E2038.06158
G0 F6000 X21.064 Y-34.373
G1 F3000 X18.963 Y-36.473 E2038.25923
G0 F6000 X20.095 Y-36.473
G1 F3000 X22.195 Y-34.373 E2038.45674
G0 F6000 X23.326 Y-34.373
G1 F3000 X21.226 Y-36.473 E2038.65434
G0 F6000 X22.358 Y-36.473
G1 F3000 X24.458 Y-34.373 E2038.85185
G0 F6000 X25.589 Y-34.373
G1 F3000 X23.489 Y-36.473 E2039.04945
G0 F6000 X24.62 Y-36.473
G1 F3000 X26.72 Y-34.373 E2039.24696
G0 F6000 X27.699 Y-33.394
G1 F3000 X30.3 Y-30.793 E2039.4916
G0 F6000 X30.3 Y-29.662
G1 F3000 X27.699 Y-32.263 E2039.73633
G0 F6000 X27.699 Y-31.131
G1 F3000 X30.3 Y-28.531 E2039.98092
G0 F6000 X30.3 Y-27.399
G1 F3000 X27.699 Y-30 E2040.22566
G0 F6000 X27.699 Y-28.869
G1 F3000 X30.3 Y-26.268 E2040.4703
G0 F6000 X30.3 Y-25.136
G1 F3000 X27.699 Y-27.737 E2040.71503
G0 F6000 X27.699 Y-26.606
G1 F3000 X30.3 Y-24.005 E2040.95967
G0 F6000 X30.3 Y-22.874
G1 F3000 X27.699 Y-25.474 E2041.20436
G0 F6000 X27.699 Y-24.343
G1 F3000 X30.3 Y-21.742 E2041.44899
G0 F6000 X30.3 Y-20.611
G1 F3000 X27.699 Y-23.212 E2041.69373
G0 F6000 X27.699 Y-22.08
G1 F3000 X30.3 Y-19.48 E2041.93832
G0 F6000 X30.3 Y-18.348
G1 F3000 X27.699 Y-20.949 E2042.18305
G0 F6000 X27.699 Y-19.818
G1 F3000 X30.3 Y-17.217 E2042.42769
G0 F6000 X30.3 Y-16.085
G1 F3000 X27.699 Y-18.686 E2042.67243
G0 F6000 X27.699 Y-17.555
G1 F3000 X30.3 Y-14.954 E2042.91706
G0 F6000 X30.3 Y-13.823
G1 F3000 X27.699 Y-16.423 E2043.16175
G0 F6000 X27.699 Y-15.292
G1 F3000 X30.3 Y-12.691 E2043.40639
G0 F6000 X30.3 Y-11.56
G1 F3000 X27.699 Y-14.161 E2043.65112
G0 F6000 X27.699 Y-13.029
G1 F3000 X30.3 Y-10.429 E2043.89571
G0 F6000 X30.3 Y-9.297
G1 F3000 X27.699 Y-11.898 E2044.14045
G0 F6000 X27.699 Y-10.767
G1 F3000 X30.3 Y-8.166 E2044.38509
G0 F6000 X30.3 Y-7.035
G1 F3000 X27.699 Y-9.635 E2044.62977
G0 F6000 X27.699 Y-8.504
G1 F3000 X30.3 Y-5.903 E2044.87441
G0 F6000 X30.3 Y-4.772
G1 F3000 X27.699 Y-7.373 E2045.11915
G0 F6000 X27.699 Y-6.241
G1 F3000 X30.3 Y-3.64 E2045.36378
G0 F6000 X30.3 Y-2.509
G1 F3000 X27.699 Y-5.11 E2045.60852
G0 F6000 X27.699 Y-3.978
G1 F3000 X30.3 Y-1.378 E2045.85311
G0 F6000 X30.3 Y-0.246
G1 F3000 X27.699 Y-2.847 E2046.09784
G0 F6000 X27.699 Y-1.716
G1 F3000 X30.3 Y0.884 E2046.34244
G0 F6000 X30.3 Y2.015
G1 F3000 X27.699 Y-0.584 E2046.58703
G0 F6000 X27.7 Y0.547
G1 F3000 X30.3 Y3.147 E2046.83162
G0 F6000 X30.3 Y4.278
G1 F3000 X27.7 Y1.678 E2047.07621
G0 F6000 X27.7 Y2.81
G1 F3000 X30.3 Y5.41 E2047.3208
G0 F6000 X30.3 Y6.541
G1 F3000 X27.7 Y3.941 E2047.5654
G0 F6000 X27.7 Y5.072
G1 F3000 X30.3 Y7.672 E2047.80999
G0 F6000 X30.3 Y8.804
G1 F3000 X27.7 Y6.204 E2048.05458
G0 F6000 X27.7 Y7.335
G1 F3000 X30.3 Y9.935 E2048.29917
G0 F6000 X30.3 Y11.066
G1 F3000 X27.7 Y8.466 E2048.54376
G0 F6000 X27.7 Y9.598
G1 F3000 X30.3 Y12.198 E2048.78836
G0 F6000 X30.3 Y13.329
G1 F3000 X27.7 Y10.729 E2049.03295
G0 F6000 X27.7 Y11.861
G1 F3000 X30.3 Y14.461 E2049.27754
G0 F6000 X30.3 Y15.592
G1 F3000 X27.7 Y12.992 E2049.52213
G0 F6000 X27.7 Y14.123
G1 F3000 X30.3 Y16.723 E2049.76672
G0 F6000 X30.3 Y17.855
G1 F3000 X27.7 Y15.255 E2050.01132
G0 F6000 X27.7 Y16.386
G1 F3000 X30.3 Y18.986 E2050.25591
G0 F6000 X30.3 Y20.117
G1 F3000 X27.7 Y17.517 E2050.5005
G0 F6000 X27.7 Y18.649
G1 F3000 X30.3 Y21.249 E2050.74509
G0 F6000 X30.3 Y22.38
G1 F3000 X27.7 Y19.78 E2050.98968
G0 F6000 X27.7 Y20.911
G1 F3000 X30.3 Y23.512 E2051.23432
G0 F6000 X30.3 Y24.643
G1 F3000 X27.7 Y22.043 E2051.47892
G0 F6000 X27.7 Y23.174
G1 F3000 X30.3 Y25.774 E2051.72351
G0 F6000 X30.3 Y26.906
G1 F3000 X27.7 Y24.306 E2051.9681
G0 F6000 X27.7 Y25.437
G1 F3000 X30.3 Y28.037 E2052.21269
G0 F6000 X30.3 Y29.168
G1 F3000 X27.7 Y26.568 E2052.45728
G0 F6000 X27.7 Y27.7
G1 F3000 X30.3 Y30.3 E2052.70188
G0 F6000 X30.3 Y31.431
G1 F3000 X27.7 Y28.831 E2052.94647
G0 F6000 X27.7 Y29.962
G1 F3000 X30.3 Y32.562 E2053.19106
G0 F6000 X30.3 Y33.694
G1 F3000 X27.7 Y31.094 E2053.43565
G0 F6000 X27.7 Y32.225
G1 F3000 X30.3 Y34.825 E2053.68024
G0 F6000 X30.3 Y35.957
G1 F3000 X27.7 Y33.357 E2053.92484
G0 F6000 X27.585 Y34.373
G1 F3000 X30.3 Y37.088 E2054.18025
G0 F6000 X30.3 Y38.219
G1 F3000 X26.454 Y34.373 E2054.54205
G0 F6000 X25.322 Y34.373
G1 F3000 X30.3 Y39.351 E2055.01035
G0 F6000 X30.3 Y40.482
G1 F3000 X24.191 Y34.373 E2055.58505
G0 F6000 X23.06 Y34.373
G1 F3000 X30.3 Y41.613 E2056.26615
G0 F6000 X30.3 Y42.745
G1 F3000 X24.699 Y37.145 E2056.79301
G0 F6000 X24.028 Y36.473
G1 F3000 X21.928 Y34.373 E2056.99056
G0 F6000 X20.797 Y34.373
G1 F3000 X22.896 Y36.473 E2057.18807
G0 F6000 X21.765 Y36.473
G1 F3000 X19.666 Y34.373 E2057.38558
G0 F6000 X18.534 Y34.373
G1 F3000 X20.634 Y36.473 E2057.58313
G0 F6000 X19.502 Y36.473
G1 F3000 X17.403 Y34.373 E2057.78064
G0 F6000 X16.271 Y34.373
G1 F3000 X18.371 Y36.473 E2057.9782
G0 F6000 X17.239 Y36.473
G1 F3000 X15.14 Y34.373 E2058.1757
G0 F6000 X14.009 Y34.373
G1 F3000 X16.108 Y36.473 E2058.37321
G0 F6000 X14.977 Y36.473
G1 F3000 X12.877 Y34.373 E2058.57077
G0 F6000 X11.746 Y34.373
G1 F3000 X13.845 Y36.473 E2058.76828
G0 F6000 X12.714 Y36.473
G1 F3000 X10.615 Y34.373 E2058.96578
G0 F6000 X9.483 Y34.373
G1 F3000 X11.583 Y36.473 E2059.16334
G0 F6000 X10.451 Y36.473
G1 F3000 X8.352 Y34.373 E2059.36085
G0 F6000 X7.22 Y34.373
G1 F3000 X9.32 Y36.473 E2059.5584
G0 F6000 X8.189 Y36.473
G1 F3000 X6.089 Y34.373 E2059.75596
G0 F6000 X4.958 Y34.373
G1 F3000 X7.057 Y36.473 E2059.95347
G0 F6000 X5.926 Y36.473
G1 F3000 X3.826 Y34.373 E2060.15102
G0 F6000 X2.695 Y34.373
G1 F3000 X4.794 Y36.473 E2060.34853
G0 F6000 X3.663 Y36.473
G1 F3000 X1.564 Y34.373 E2060.54604
G0 F6000 X0.432 Y34.373
G1 F3000 X2.532 Y36.473 E2060.74359
G0 F6000 X1.4 Y36.473
G1 F3000 X-0.698 Y34.373 E2060.94105
G0 F6000 X-1.829 Y34.373
G1 F3000 X0.269 Y36.473 E2061.13847
G0 F6000 X-0.861 Y36.473
G1 F3000 X-2.961 Y34.373 E2061.33607
G0 F6000 X-4.092 Y34.373
G1 F3000 X-1.993 Y36.473 E2061.53353
G0 F6000 X-3.124 Y36.473
G1 F3000 X-5.224 Y34.373 E2061.73113
G0 F6000 X-6.355 Y34.373
G1 F3000 X-4.256 Y36.473 E2061.92859
G0 F6000 X-5.387 Y36.473
G1 F3000 X-7.486 Y34.373 E2062.12615
G0 F6000 X-8.618 Y34.373
G1 F3000 X-6.518 Y36.473 E2062.32366
G0 F6000 X-7.65 Y36.473
G1 F3000 X-9.749 Y34.373 E2062.52121
G0 F6000 X-10.88 Y34.373
G1 F3000 X-8.781 Y36.473 E2062.71867
G0 F6000 X-9.912 Y36.473
G1 F3000 X-12.012 Y34.373 E2062.91628
G0 F6000 X-13.143 Y34.373
G1 F3000 X-11.044 Y36.473 E2063.11374
G0 F6000 X-12.175 Y36.473
G1 F3000 X-14.275 Y34.373 E2063.31134
G0 F6000 X-15.406 Y34.373
G1 F3000 X-13.307 Y36.473 E2063.5088
G0 F6000 X-14.438 Y36.473
G1 F3000 X-16.537 Y34.373 E2063.70635
G0 F6000 X-17.669 Y34.373
G1 F3000 X-15.569 Y36.473 E2063.90386
G0 F6000 X-16.701 Y36.473
G1 F3000 X-18.8 Y34.373 E2064.10142
G0 F6000 X-19.931 Y34.373
G1 F3000 X-17.832 Y36.473 E2064.29888
G0 F6000 X-18.963 Y36.473
G1 F3000 X-21.063 Y34.373 E2064.49648
G0 F6000 X-22.194 Y34.373
G1 F3000 X-20.095 Y36.473 E2064.69394
G0 F6000 X-21.226 Y36.473
G1 F3000 X-23.326 Y34.373 E2064.89154
G0 F6000 X-24.457 Y34.373
G1 F3000 X-22.358 Y36.473 E2065.08901
G0 F6000 X-23.489 Y36.473
G1 F3000 X-25.588 Y34.373 E2065.28656
G0 F6000 X-26.72 Y34.373
G1 F3000 X-24.62 Y36.473 E2065.48407
G0 F6000 X-25.752 Y36.473
G1 F3000 X-27.851 Y34.373 E2065.68162
G0 F6000 X-28.982 Y34.373
G1 F3000 X-26.883 Y36.473 E2065.87909
G0 F6000 X-28.014 Y36.473
G1 F3000 X-30.114 Y34.373 E2066.07669
G0 F6000 X-30.298 Y35.321
G1 F3000 X-29.146 Y36.473 E2066.18501
G0 F6000 X-30.277 Y36.473
G1 F3000 X-30.297 Y36.453 E2066.18694
G1 F3600 E2057.78694
G1 Z1.86
G0 F6000 X24.699 Y38.276
G1 Z1.46
G1 F3600 E2066.38694
G1 F3000 X30.3 Y43.876 E2066.9138
G0 F6000 X30.3 Y45.008
G1 F3000 X24.699 Y39.407 E2067.44071
G0 F6000 X24.699 Y40.539
G1 F3000 X30.3 Y46.139 E2067.96757
G0 F6000 X30.3 Y47.27
G1 F3000 X24.699 Y41.67 E2068.49443
G0 F6000 X24.699 Y42.801
G1 F3000 X30.3 Y48.402 E2069.02134
G0 F6000 X30.3 Y49.533
